/* XPM */
static char *_648ca51d74c404bab96a4535f78ecf14VWAwO18CPNPFs8P[] = {
/* columns rows colors chars-per-pixel */
"666 375 256 2 ",
"   c None",
".  c #0D0C0C",
"X  c #0A0705",
"o  c #110D0C",
"O  c #160904",
"+  c #091707",
"@  c #13120D",
"#  c #18160B",
"$  c #130E12",
"%  c #1B0D18",
"&  c #0D1613",
"*  c #141414",
"=  c #1A1515",
"-  c #151A15",
";  c #1B1A16",
":  c #151519",
">  c #1A161A",
",  c #151A1B",
"<  c #1C1B1C",
"1  c #0C0E11",
"2  c #26150B",
"3  c #221D1C",
"4  c #261917",
"5  c #2C150F",
"6  c #012401",
"7  c #012B01",
"8  c #0C2307",
"9  c #023702",
"0  c #1D221D",
"q  c #182616",
"w  c #152F10",
"e  c #23221D",
"r  c #29251B",
"t  c #37251B",
"y  c #273717",
"u  c #1E1D21",
"i  c #191922",
"p  c #221E21",
"a  c #291C25",
"s  c #2D1D2C",
"d  c #1D2223",
"f  c #1D2727",
"g  c #242323",
"h  c #2A2525",
"j  c #242A24",
"k  c #2B2A25",
"l  c #252529",
"z  c #2A262A",
"x  c #252B2B",
"c  c #2C2B2B",
"v  c #312D2D",
"b  c #352727",
"n  c #2D322C",
"m  c #293528",
"M  c #33312E",
"N  c #37362B",
"B  c #2D2D31",
"V  c #2A2732",
"C  c #322E31",
"Z  c #382B35",
"A  c #2D3232",
"S  c #2A3635",
"D  c #343333",
"F  c #393534",
"G  c #343B34",
"H  c #3B3A35",
"J  c #353539",
"K  c #3B353A",
"L  c #3B3B3B",
"P  c #363A3A",
"I  c #452B1D",
"U  c #452A26",
"Y  c #48342A",
"T  c #423C3C",
"R  c #443838",
"E  c #573C35",
"W  c #51352D",
"Q  c #613C39",
"!  c #014801",
"~  c #015801",
"^  c #164D0E",
"/  c #274F17",
"(  c #026602",
")  c #0D730B",
"_  c #296F13",
"`  c #3B4537",
"'  c #3A5736",
"]  c #2F4D29",
"[  c #356F2C",
"{  c #1B5824",
"}  c #516B19",
"|  c #43423D",
" . c #46473C",
".. c #5A4439",
"X. c #44573D",
"o. c #52502B",
"O. c #66473A",
"+. c #76513A",
"@. c #44673A",
"#. c #487536",
"$. c #716D33",
"%. c #6B771A",
"&. c #3D3C41",
"*. c #453C44",
"=. c #3E4343",
"-. c #444343",
";. c #4A4444",
":. c #4C4B4B",
">. c #494847",
",. c #534A4A",
"<. c #4A5646",
"1. c #54554C",
"2. c #585554",
"3. c #534B53",
"4. c #684B43",
"5. c #6B5446",
"6. c #78574A",
"7. c #62595A",
"8. c #775C52",
"9. c #734C43",
"0. c #4B6945",
"q. c #54684B",
"w. c #4A7645",
"e. c #58714F",
"r. c #726854",
"t. c #6A6565",
"y. c #74716E",
"u. c #6A5B67",
"i. c #8A573D",
"p. c #857039",
"a. c #865B48",
"s. c #915D4C",
"d. c #89644B",
"f. c #95654C",
"g. c #896755",
"h. c #936553",
"j. c #9B6C55",
"k. c #976B58",
"l. c #9B745A",
"z. c #8C764B",
"x. c #A66B58",
"c. c #A4735B",
"v. c #AB745C",
"b. c #AB7A5D",
"n. c #A57658",
"m. c #B47C5D",
"M. c #B2755D",
"N. c #A5664E",
"B. c #9B7664",
"V. c #926F67",
"C. c #A47562",
"Z. c #AC7562",
"A. c #A47A64",
"S. c #AC7B64",
"D. c #AC7C6A",
"F. c #A6796B",
"G. c #B27563",
"H. c #B37C64",
"J. c #B37C6B",
"K. c #BA7E6B",
"L. c #B97766",
"P. c #B67C73",
"I. c #AE756C",
"U. c #A25E48",
"Y. c #C37969",
"T. c #C37C6F",
"R. c #C36F5D",
"E. c #0D850D",
"W. c #2D8A17",
"Q. c #348A2D",
"!. c #38A832",
"~. c #468638",
"^. c #489336",
"/. c #729034",
"(. c #4AA738",
"). c #77AE38",
"_. c #659C1D",
"`. c #518F46",
"'. c #54A748",
"]. c #78B048",
"[. c #738F50",
"{. c #6DC445",
"}. c #86993C",
"|. c #889848",
" X c #988857",
".X c #9A9856",
"XX c #908F4C",
"oX c #A78A5B",
"OX c #BC845E",
"+X c #B88A5D",
"@X c #A8975A",
"#X c #B5955C",
"$X c #A7924E",
"%X c #87A74A",
"&X c #89B84A",
"*X c #99A758",
"=X c #8AB854",
"-X c #96B557",
";X c #90AB4F",
":X c #A6A65A",
">X c #A4B253",
",X c #9D8964",
"<X c #AD826B",
"1X c #AA8765",
"2X c #B58264",
"3X c #BD8564",
"4X c #B48B64",
"5X c #BD8B64",
"6X c #B4836B",
"7X c #BB846B",
"8X c #B58B6B",
"9X c #BC8B6C",
"0X c #A99664",
"qX c #BB9265",
"wX c #BD926B",
"eX c #B59567",
"rX c #AA8575",
"tX c #B58572",
"yX c #BB8573",
"uX c #B68A73",
"iX c #BB8B74",
"pX c #BD8C79",
"aX c #B9867A",
"sX c #BD9274",
"dX c #BA9478",
"fX c #AD9975",
"gX c #96AE64",
"hX c #A5A363",
"jX c #B0AE70",
"kX c #C4895E",
"lX c #C3975F",
"zX c #C28663",
"xX c #C48A65",
"cX c #C98B66",
"vX c #C3866B",
"bX c #C38B6B",
"nX c #CA8D6B",
"mX c #CA8569",
"MX c #C4916C",
"NX c #CB916C",
"BX c #C59467",
"VX c #C28573",
"CX c #C48C72",
"ZX c #CA8C73",
"AX c #C38C7A",
"SX c #C98776",
"DX c #C49374",
"FX c #CA9272",
"GX c #C3927B",
"HX c #C8977A",
"JX c #D18F70",
"KX c #C6A372",
"LX c #8BC453",
"PX c #BE8E82",
"IX c #C79582",
"UX c #CB9287",
/* pixels */
"                                                                                                                                                                                                                                                                                                                                                                                                                                                                                                                                                                                                                                                                                                                                                                                                                                                                                                                                                                                                                                                                                                                                                                                                                                                                                                                                                                                    ",
"                                                                                                                                                                                                                                                                                                                                                                                                                                                                                                                                                                                                                                                                                                                                                                                                                                                                                                                                                                                                                                                                                                                                                                                                                                                                                                                                                                                    ",
"                                                                                                                                                                                                                                                                                                                                                                                                                                                                                                                                                                                                                                                                                                                                                                                                                                                                                                                                                                                                                                                                                                                                                                                                                                                                                                                                                                                    ",
"                                                                                                                                                                                                                                                                                                                                                                                                                                                                                                                                                                                                                                                                                                                                                                                                                                                                                                                                                                                                                                                                                                                                                                                                                                                                                                                                                                                    ",
"                                                                                                                                                                                                                                                                                                                                                                                                                                                                                                                                                                                                                                                                                                                                                                                                                                                                                                                                                                                                                                                                                                                                                                                                                                                                                                                                                                                    ",
"                                                                                                                                                                                                                                                                                                                                                                                                                                                                                                                                                                                                                                                                                                                                                                                                                                                                                                                                                                                                                                                                                                                                                                                                                                                                                                                                                                                    ",
"                                                                                                                                                                                                                                                                                                                                                                                                                                                                                                                                                                                                                                                                                                                                                                                                                                                                                                                                                                                                                                                                                                                                                                                                                                                                                                                                                                                    ",
"                                                                                                                                                                                                                                                                                                                                                                                                                                                                                                                                                                                                                                                                                                                                                                                                                                                                                                                                                                                                                                                                                                                                                                                                                                                                                                                                                                                    ",
"                                                                                                                                                                                                                                                                                                                                                                                                                                                                                                                                                                                                                                                                                                                                                                                                                                                                                                                                                                                                                                                                                                                                                                                                                                                                                                                                                                                    ",
"                                                                                                                                                                                                                                                                                                                                                                                                                                                                                                                                                                                                                                                                                                                                                                                                                                                                                                                                                                                                                                                                                                                                                                                                                                                                                                                                                                                    ",
"                                                                                                                                                                                                                                                                                                                                                                                                                                                                                                                                                                                                                                                                                                                                                                                                                                                                                                                                                                                                                                                                                                                                                                                                                                                                                                                                                                                    ",
"                                                                                                                                                                                                                                                                                                                                                                                                                                                                                                                                                                                                                                                                                                                                                                                                                                                                                                                                                                                                                                                                                                                                                                                                                                                                                                                                                                                    ",
"                                                                                                                                                                                                                                                                                                                                                                                                                                                                                                                                                                                                                                                                                                                                                                                                                                                                                                                                                                                                                                                                                                                                                                                                                                                                                                                                                                                    ",
"                                                                                                                                                                                                                                                                                                                                                                                                                                                                                                                                                                                                                                                                                                                                                                                                                                                                                                                                                                                                                                                                                                                                                                                                                                                                                                                                                                                    ",
"                                                                                                                                                                                                                                                                                                                                                                                                                                                                                                                                                                                                                                                                                                                                                                                                                                                                                                                                                                                                                                                                                                                                                                                                                                                                                                                                                                                    ",
"                                                                                                                                                                                                                                                                                                                                                                                                                                                                                                                                                                                                                                                                                                                                                                                                                                                                                                                                                                                                                                                                                                                                                                                                                                                                                                                                                                                    ",
"                                                                                                                                                                                                                                                                                                                                                                                                                                                                                                                                                                                                                                                                                                                                                                                                                                                                                                                                                                                                                                                                                                                                                                                                                                                                                                                                                                                    ",
"                                                                                                                                                                                                                                                                                                                                                                                                                                                                                                                                                                                                                                                                                                                                                                                                                                                                                                                                                                                                                                                                                                                                                                                                                                                                                                                                                                                    ",
"                                                                                                                                                                                                                                                                                                                                                                                                                                                                                                                                                                                                                                                                                                                                                                                                                                                                                                                                                                                                                                                                                                                                                                                                                                                                                                                                                                                    ",
"                                                                                                                                                                                                                                                                                                                                                                                                                                                                                                                                                                                                                                                                                                                                                                                                                                                                                                                                                                                                                                                                                                                                                                                                                                                                                                                                                                                    ",
"                                                                                                                                                                                                                                                                                                                                                                                                                                                                                                                                                                                                                                                                                                                                                                                                                                                                                                                                                                                                                                                                                                                                                                                                                                                                                                                                                                                    ",
"                                                                                                                                                                                                                                                                                                                                                                                                                                                                                                                                                                                                                                                                                                                                                                                                                                                                                                                                                                                                                                                                                                                                                                                                                                                                                                                                                                                    ",
"                                                                                                                                                                                                                                                                                                                                                                                                                                                                                                                                                                                                                                                                                                                                                                                                                                                                                                                                                                                                                                                                                                                                                                                                                                                                                                                                                                                    ",
"                                                                                                                                                                                                                                                                                                                                                                                                                                                                                                                                                                                                                                                                                                                                                                                                                                                                                                                                                                                                                                                                                                                                                                                                                                                                                                                                                                                    ",
"                                                                                                                                                                                                                                                                                                                                                                                                                                                                                                                                                                                                                                                                                                                                                                                                                                                                                                                                                                                                                                                                                                                                                                                                                                                                                                                                                                                    ",
"                                                                                                                                                                                                                                                                                                                                                                                                                                                                                                                                                                                                                                                                                                                                                                                                                                                                                                                                                                                                                                                                                                                                                                                                                                                                                                                                                                                    ",
"                                                                                                                                                                                                                                                                                                                                                                                                                                                                                                                                                                                                                                                                                                                                                                                                                                                                                                                                                                                                                                                                                                                                                                                                                                                                                                                                                                                    ",
"                                                                                                                                                                                                                                                                                                                                                                                                                                                                                                                                                                                                                                                                                                                                                                                                                                                                                                                                                                                                                                                                                                                                                                                                                                                                                                                                                                                    ",
"                                                                                                                                                                                                                                                                                                                                                                                                                                                                                                                                                                                                                                                                                                                                                                                                                                                                                                                                                                                                                                                                                                                                                                                                                                                                                                                                                                                    ",
"                                                                                                                                                                                                                                                                                                                                                                                                                                                                                                                                                                                                                                                                                                                                                                                                                                                                                                                                                                                                                                                                                                                                                                                                                                                                                                                                                                                    ",
"                                                                                                                                                                                                                                                                                                                                                                                                                                                                                                                                                                                                                                                                                                                                                                                                                                                                                                                                                                                                                                                                                                                                                                                                                                                                                                                                                                                    ",
"                                                                                                                                                                                                                                                                                                                                                                                                                                                                                                                                                                                                                                                                                                                                                                                                                                                                                                                                                                                                                                                                                                                                                                                                                                                                                                                                                                                    ",
"                                                                                                                                                                                                                                                                                                                                                                                                                                                                                                                                                                                                                                                                                                                                                                                                                                                                                                                                                                                                                                                                                                                                                                                                                                                                                                                                                                                    ",
"                                                                                                                                                                                                                                                                                                                                                                                                                                                                                                                                                                                                                                                                                                                                                                                                                                                                                                                                                                                                                                                                                                                                                                                                                                                                                                                                                                                    ",
"                                                                                                                                                                                                                                                                                                                                                                                                                                                                                                                                                                                                                                                                                                                                                                                                                                                                                                                                                                                                                                                                                                                                                                                                                                                                                                                                                                                    ",
"                                                                                                                                                                                                                                                                                                                                                                                                                                                                                                                                                                                                                                                                                                                                                                                                                                                                                                                                                                                                                                                                                                                                                                                                                                                                                                                                                                                    ",
"                                                                                                                                                                                                                                                                                                                                                                                                                                                                                                                                                                                                                                                                                                                                                                                                                                                                                                                                                                                                                                                                                                                                                                                                                                                                                                                                                                                    ",
"                                                                                                                                                                                                                                                                                                                                                                                                                                                                                                                                                                                                                                                                                                                                                                                                                                                                                                                                                                                                                                                                                                                                                                                                                                                                                                                                                                                    ",
"                                                                                                                                                                                                                                                                                                                                                                                                                                                                                                                                                                                                                                                                                                                                                                                                                                                                                                                                                                                                                                                                                                                                                                                                                                                                                                                                                                                    ",
"                                                                                                                                                                                                                                                                                                                                                                                                                                                                                                                                                                                                                                                                                                                                                                                                                                                                                                                                                                                                                                                                                                                                                                                                                                                                                                                                                                                    ",
"                                                                                                                                                                                                                                                                                                                                                                                                                                                                                                                                                                                                                                                                                                                                                                                                                                                                                                                                                                                                                                                                                                                                                                                                                                                                                                                                                                                    ",
"                                                                                                                                                                                                                                                                                                                                                                                                                                                                                                                                                                                                                                                                                                                                                                                                                                                                                                                                                                                                                                                                                                                                                                                                                                                                                                                                                                                    ",
"                                                                                                                                                                                                                                                                                                                                                                                                                                                                                                                                                                                                                                                                                                                                                                                                                                                                                                                                                                                                                                                                                                                                                                                                                                                                                                                                                                                    ",
"                                                                                                                                                                                                                                                                                                                                                                                                                                                                                                                                                                                                                                                                                                                                                                                                                                                                                                                                                                                                                                                                                                                                                                                                                                                                                                                                                                                    ",
"                                                                                                                                                                                                                                                                                                                                                                                                                                                                                                                                                                                                                                                                                                                                                                                                                                                                                                                                                                                                                                                                                                                                                                                                                                                                                                                                                                                    ",
"                                                                                                                                                                                                                                                                                                                                                                                                                                                                                                                                                                                                                                                                                                                                                                                                                                                                                                                                                                                                                                                                                                                                                                                                                                                                                                                                                                                    ",
"                                                                                                                                                                                                                                                                                                                                                                                                                                                                                                                                                                                                                                                                                                                                                                                                                                                                                                                                                                                                                                                                                                                                                                                                                                                                                                                                                                                    ",
"                                                                                                                                                                                                                                                                                                                                                                                                                                                                                                                                                                                                                                                                                                                                                                                                                                                                                                                                                                                                                                                                                                                                                                                                                                                                                                                                                                                    ",
"                                                                                                                                                                                                                                                                                                                                                                                                                                                                                                                                                                                                                                                                                                                                                                                                                                                                                                                                                                                                                                                                                                                                                                                                                                                                                                                                                                                    ",
"                                                                                                                                                                                                                                                                                                                                                                                                                                                                                                                                                                                                                                                                                                                                                                                                                                                                                                                                                                                                                                                                                                                                                                                                                                                                                                                                                                                    ",
"                                                                                                                                                                                                                                                                                                                                                                                                                                                                                                                                                                                                                                                                                                                                                                                                                                                                                                                                                                                                                                                                                                                                                                                                                                                                                                                                                                                    ",
"                                                                                                                                                                                                                                                                                                                                                                                                                                                                                                                                                                                                                                                                                                                                                                                                                                                                                                                                                                                                                                                                                                                                                                                                                                                                                                                                                                                    ",
"                                                                                                                                                                                                                                                                                                                                                                                                                                                                                                                                                                                                                                                                                                                                                                                                                                                                                                                                                                                                                                                                                                                                                                                                                                                                                                                                                                                    ",
"                                                                                                                                                                                                                                                                                                                                                                                                                                                                                                                                                                                                                                                                                                                                                                                                                                                                                                                                                                                                                                                                                                                                                                                                                                                                                                                                                                                    ",
"                                                                                                                                                                                                                                                                                                                                                                                                                                                                                                                                                                                                                                                                                                                                                                                                                                                                                                                                                                                                                                                                                                                                                                                                                                                                                                                                                                                    ",
"                                                                                                                                                                                                                                                                                                                                                                                                                                                                                                                                                                                                                                                                                                                                                                                                                                                                                                                                                                                                                                                                                                                                                                                                                                                                                                                                                                                    ",
"                                                                                                                                                                                                                                                                                                                                                                                                                                                                                                                                                                                                                                                                                                                                                                                                                                                                                                                                                                                                                                                                                                                                                                                                                                                                                                                                                                                    ",
"                                                                                                                                                                                                                                                                                                                                                                                                                                                                                                                                                                                                                                                                                                                                                                                                                                                                                                                                                                                                                                                                                                                                                                                                                                                                                                                                                                                    ",
"                                                                                                                                                                                                                                                                                                                                                                                                                                                                                                                                                                                                                                                                                                                                                                                                                                                                                                                                                                                                                                                                                                                                                                                                                                                                                                                                                                                    ",
"                                                                                                                                                                                                                                                                                                                                                                                                                                                                                                                                                                                                                                                                                                                                                                                                                                                                                                                                                                                                                                                                                                                                                                                                                                                                                                                                                                                    ",
"                                                                                                                                                                                                                                                                                                                                                                                                                                                                                                                                                                                                                                                                                                                                                                                                                                                                                                                                                                                                                                                                                                                                                                                                                                                                                                                                                                                    ",
"                                                                                                                                                                                                                                                                                                                                                                                                                                                                                                                                                                                                                                                                                                                                                                                                                                                                                                                                                                                                                                                                                                                                                                                                                                                                                                                                                                                    ",
"                                                                                                                                                                                                                                                                                                                                                                                                                                                                                                                                                                                                                                                                                                                                                                                                                                                                                                                                                                                                                                                                                                                                                                                                                                                                                                                                                                                    ",
"                                                                                                                                                                                                                                                                                                                                                                                                                                                                                                                                                                                                                                                                                                                                                                                                                                                                                                                                                                                                                                                                                                                                                                                                                                                                                                                                                                                    ",
"                                                                                                                                                                                                                                                                                                                                                                                                                                                                                                                                                                                                                                                                                                                                                                                                                                                                                                                                                                                                                                                                                                                                                                                                                                                                                                                                                                                    ",
"                                                                                                                                                                                                                                                                                                                                                                                                                                                                                                                                                                                                                                                                                                                                                                                                                                                                                                                                                                                                                                                                                                                                                                                                                                                                                                                                                                                    ",
"                                                                                                                                                                                                                                                                                                                                                                                                                                                                                                                                                                                                                                                                                                                                                                                                                                                                                                                                                                                                                                                                                                                                                                                                                                                                                                                                                                                    ",
"                                                                                                                                                                                                                                                                                                                                                                                                                                                                                                                                                                                                                                                                                                                                                                                                                                                                                                                                                                                                                                                                                                                                                                                                                                                                                                                                                                                    ",
"                                                                                                                                                                                                                                                                                                                                                                                                                                                                                                                                                                                                                                                                                                                                                                                                                                                                                                                                                                                                                                                                                                                                                                                                                                                                                                                                                                                    ",
"                                                                                                                                                                                                                                                                                                                                                                                                                                                                                                                                                                                                                                                                                                                                                                                                                                                                                                                                                                                                                                                                                                                                                                                                                                                                                                                                                                                    ",
"                                                                                                                                                                                                                                                                                                                                                                                                                                                                                                                                                                                                                                                                                                                                                                                                                                                                                                                                                                                                                                                                                                                                                                                                                                                                                                                                                                                    ",
"                                                                                                                                                                                                                                                                                                                                                                                                                                                                                                                                                                                                                                                                                                                                                                                                                                                                                                                                                                                                                                                                                                                                                                                                                                                                                                                                                                                    ",
"                                                                                                                                                                                                                                                                                                                                                                                                                                                                                                                                                                                                                                                                                                                                                                                                                                                                                                                                                                                                                                                                                                                                                                                                                                                                                                                                                                                    ",
"                                                                                                                                                                                                                                                                                                                                                                                                                                                                                                                                                                                                                                                                                                                                                                                                                                                                                                                                                                                                                                                                                                                                                                                                                                                                                                                                                                                    ",
"                                                                                                                                                                                                                                                                                                                                                                                                                                                                                                                                                                                                                                                                                                                                                                                                                                                                                                                                                                                                                                                                                                                                                                                                                                                                                                                                                                                    ",
"                                                                                                                                                                                                                                                                                                                                                                                                                                                                                                                                                                                                                                                                                                                                                                                                                                                                                                                                                                                                                                                                                                                                                                                                                                                                                                                                                                                    ",
"                                                                                                                                                                                                                                                                                                                                                                                                                                                                                                                                                                                                                                                                                                                                                                                                                                                                                                                                                                                                                                                                                                                                                                                                                                                                                                                                                                                    ",
"                                                                                                                                                                                                                                                                                                                                                                                                                                                                                                                                                                                                                                                                                                                                                                                                                                                                                                                                                                                                                                                                                                                                                                                                                                                                                                                                                                                    ",
"                                                                                                                                                                                                                                                                                                                                                                                                                                                                                                                                                                                                                                                                                                                                                                                                                                                                                                                                                                                                                                                                                                                                                                                                                                                                                                                                                                                    ",
"                                                                                                                                                                                                                                                                                                                                                                                                                                                                                                                                                                                                                                                                                                                                                                                                                                                                                                                                                                                                                                                                                                                                                                                                                                                                                                                                                                                    ",
"                                                                                                                                                                                                                                                                                                                                                                                                                                                                                                                                                                                                                                                                                                                                                                                                                                                                                                                                                                                                                                                                                                                                                                                                                                                                                                                                                                                    ",
"                                                                                                                                                                                                                                                                                                                                                                                                                                                                                                                                                                                                                                                                                                                                                                                                                                                                                                                                                                                                                                                                                                                                                                                                                                                                                                                                                                                    ",
"                                                                                                                                                                                                                                                                                                                                                                                                                                                                                                                                                                                                                                                                                                                                                                                                                                                                                                                                                                                                                                                                                                                                                                                                                                                                                                                                                                                    ",
"                                                                                                                                                                                                                                                                                                                                                                                                                                                                                                                                                                                                                                                                                                                                                                                                                                                                                                                                                                                                                                                                                                                                                                                                                                                                                                                                                                                    ",
"                                                                                                                                                                                                                                                                                                                                                                                                                                                                                                                                                                                                                                                                                                                                                                                                                                                                                                                                                                                                                                                                                                                                                                                                                                                                                                                                                                                    ",
"                                                                                                                                                                                                                                                                                                                                                                                                                                                                                                                                                                                                                                                                                                                                                                                                                                                                                                                                                                                                                                                                                                                                                                                                                                                                                                                                                                                    ",
"                                                                                                                                                                                                                                                                                                                                                                                                                                                                                                                                                                                                                                                                                                                                                                                                                                                                                                                                                                                                                                                                                                                                                                                                                                                                                                                                                                                    ",
"                                                                                                                                                                                                                                                                                                                                                                                                                                                                                                                                                                                                                                                                                                                                                                                                                                                                                                                                                                                                                                                                                                                                                                                                                                                                                                                                                                                    ",
"                                                                                                                                                                                                                                                                                                                                                                                                                                                                                                                                                                                                                                                                                                                                                                                                                                                                                                                                                                                                                                                                                                                                                                                                                                                                                                                                                                                    ",
"                                                                                                                                                                                                                                                                                                                                                                                                                                                                                                                                                                                                                                                                                                                                                                                                                                                                                                                                                                                                                                                                                                                                                                                                                                                                                                                                                                                    ",
"                                                                                                                                                                                                                                                                                                                                                                                                                                                                                                                                                                                                                                                                                                                                                                                                                                                                                                                                                                                                                                                                                                                                                                                                                                                                                                                                                                                    ",
"                                                                                                                                                                                                                                                                                                                                                                                                                                                                                                                                                                                                                                                                                                                                                                                                                                                                                                                                                                                                                                                                                                                                                                                                                                                                                                                                                                                    ",
"                                                                                                                                                                                                                                                                                                                                                                                                                                                                                                                                                                                                                                                                                                                                                                                                                                                                                                                                                                                                                                                                                                                                                                                                                                                                                                                                                                                    ",
"                                                                                                                                                                                                                                                                                                                                                                                                                                                                                                                                                                                                                                                                                                                                                                                                                                                                                                                                                                                                                                                                                                                                                                                                                                                                                                                                                                                    ",
"                                                                                                                                                                                                                                                                                                                                                                                                                                                                                                                                                                                                                                                                                                                                                                                                                                                                                                                                                                                                                                                                                                                                                                                                                                                                                                                                                                                    ",
"                                                                                                                                                                                                                                                                                                                                                                                                                                                                                                                                                                                                                                                                                                                                                                                                                                                                                                                                                                                                                                                                                                                                                                                                                                                                                                                                                                                    ",
"                                                                                                                                                                                                                                                                                                                                                                                                                                                                                                                                                                                                                                                                                                                                                                                                                                                                                                                                                                                                                                                                                                                                                                                                                                                                                                                                                                                    ",
"                                                                                                                                                                                                                                                                                                                                                                                                                                                                                                                                                                                                                                                                                                                                                                                                                                                                                                                                                                                                                                                                                                                                                                                                                                                                                                                                                                                    ",
"                                                                                                                                                                                                                                                                                                                                                                                                                                                                                                                                                                                                                                                                                                                                                                                                                                                                                                                                                                                                                                                                                                                                                                                                                                                                                                                                                                                    ",
"                                                                                                                                                                                                                                                                                                                                                                                                                                                                                                                                                                                                                                                                                                                                                                                                                                                                                                                                                                                                                                                                                                                                                                                                                                                                                                                                                                                    ",
"                                                                                                                                                                                                                                                                                                                                                                                                                                                                                                                                                                                                                                                                                                                                                                                                                                                                                                                                                                                                                                                                                                                                                                                                                                                                                                                                                                                    ",
"                                                                                                                                                                                                                                                                                                                                                                                                                                                                                                                                                                                                                                                                                                                                                                                                                                                                                                                                                                                                                                                                                                                                                                                                                                                                                                                                                                                    ",
"                                                                                                                                                                                                                                                                                                                                                                                                                                                                                                                                                                                                                                                                                                                                                                                                                                                                                                                                                                                                                                                                                                                                                                                                                                                                                                                                                                                    ",
"                                                                                                                                                                                                                                                                                                                                                                                                                                                                                                                                                                                                                                                                                                                                                                                                                                                                                                                                                                                                                                                                                                                                                                                                                                                                                                                                                                                    ",
"                                                                                                                                                                                                                                                                                                                                                                                                                                                                                                                                                                                                                                                                                                                                                                                                                                                                                                                                                                                                                                                                                                                                                                                                                                                                                                                                                                                    ",
"                                                                                                                                                                                                                                                                                                                                                                                                                                                                                                                                                                                                                                                                                                                                                                                                                                                                                                                                                                                                                                                                                                                                                                                                                                                                                                                                                                                    ",
"                                                                                                                                                                                                                                                                                                                                                                                                                                                                                                                                                                                                                                                                                                                                                                                                                                                                                                                                                                                                                                                                                                                                                                                                                                                                                                                                                                                    ",
"                                                                                                                                                                                                                                                                                                                                                                                                                                                                                                                                                                                                                                                                                                                                                                                                                                                                                                                                                                                                                                                                                                                                                                                                                                                                                                                                                                                    ",
"                                                                                                                                                                                                                                                                                                                                                                                                                                                                                                                                                                                                                                                                                                                                                                                                                                                                                                                                                                                                                                                                                                                                                                                                                                                                                                                                                                                    ",
"                                                                                                                                                                                                                                                                                                                                                                                                                                                                                                                                                                                                                                                                                                                                                                                                                                                                                                                                                                                                                                                                                                                                                                                                                                                                                                                                                                                    ",
"                                                                                                                                                                                                                                                                                                                                                                                                                                                                                                                                                                                                                                                                                                                                                                                                                                                                                                                                                                                                                                                                                                                                                                                                                                                                                                                                                                                    ",
"                                                                                                                                                                                                                                                                                                                                                                                                                                                                                                                                                                                                                                                                                                                                                                                                                                                                                                                                                                                                                                                                                                                                                                                                                                                                                                                                                                                    ",
"                                                                                                                                                                                                                                                                                                                                                                                                                                                                                                                                                                                                                                                                                                                                                                                                                                                                                                                                                                                                                                                                                                                                                                                                                                                                                                                                                                                    ",
"                                                                                                                                                                                                                                                                                                                                                                                                                                                                                                                                                                                                                                                                                                                                                                                                                                                                                                                                                                                                                                                                                                                                                                                                                                                                                                                                                                                    ",
"                                                                                                                                                                                                                                                                                                                                                                                                                                                                                                                                                                                                                                                                                                                                                                                                                                                                                                                                                                                                                                                                                                                                                                                                                                                                                                                                                                                    ",
"                                                                                                                                                                                                                                                                                                                                                                                                                                                                                                                                                                                                                                                                                                                                                                                                                                                                                                                                                                                                                                                                                                                                                                                                                                                                                                                                                                                    ",
"                                                                                                                                                                                                                                                                                                                                                                                                                                                                                                                                                                                                                                                                                                                                                                                                                                                                                                                                                                                                                                                                                                                                                                                                                                                                                                                                                                                    ",
"                                                                                                                                                                                                                                                                                                                                                                                                                                                                                                                                                                                                                                                                                                                                                                                                                                                                                                                                                                                                                                                                                                                                                                                                                                                                                                                                                                                    ",
"                                                                                                                                                                                                                                                                                                                                                                                                                                                                                                                                                                                                                                                                                                                                                                                                                                                                                                                                                                                                                                                                                                                                                                                                                                                                                                                                                                                    ",
"                                                                                                                                                                                                                                                                                                                                                                                                                                                                                                                                                                                                                                                                                                                                                                                                                                                                                                                                                                                                                                                                                                                                                                                                                                                                                                                                                                                    ",
"                                                                                                                                                                                                                                                                                                                                                                                                                                                                                                                                                                                                                                                                                                                                                                                                                                                                                                                                                                                                                                                                                                                                                                                                                                                                                                                                                                                    ",
"                                                                                                                                                                                                                                                                                                                                                                                                                                                                                                                                                                                                                                                                                                                                                                                                                                                                                                                                                                                                                                                                                                                                                                                                                                                                                                                                                                                    ",
"                                                                                                                                                                                                                                                                                                                                                                                                                                                                                                                                                                                                                                                                                                                                                                                                                                                                                                                                                                                                                                                                                                                                                                                                                                                                                                                                                                                    ",
"                                                                                                                                                                                                                                                                                                                                                                                                                                                                                                                                                                                                                                                                                                                                                                                                                                                                                                                                                                                                                                                                                                                                                                                                                                                                                                                                                                                    ",
"                                                                                                                                                                                                                                                                                                                                                                                                                                                                                                                                                                                                                                                                                                                                                                                                                                                                                                                                                                                                                                                                                                                                                                                                                                                                                                                                                                                    ",
"                                                                                                                                                                                                                                                                                                                                                                                                                                                                                                                                                                                                                                                                                                                                                                                                                                                                                                                                                                                                                                                                                                                                                                                                                                                                                                                                                                                    ",
"                                                                                                                                                                                                                                                                                                                                                                                                                                                                                                                                                                                                                                                                                                                                                                                                                                                                                                                                                                                                                                                                                                                                                                                                                                                                                                                                                                                    ",
"                                                                                                                                                                                                                                                                                                                                                                                                                                                                                                                                                                                                                                                                                                                                                                                                                                                                                                                                                                                                                                                                                                                                                                                                                                                                                                                                                                                    ",
"                                                                                                                                                                                                                                                                                                                                                                                                                                                                                                                                                                                                                                                                                                                                                                                                                                                                                                                                                                                                                                                                                                                                                                                                                                                                                                                                                                                    ",
"                                                                                                                                                                                                                                                                                                                                                                                                                                                                                                                                                                                                                                                                                                                                                                                                                                                                                                                                                                                                                                                                                                                                                                                                                                                                                                                                                                                    ",
"                                                                                                                                                                                                                                                                                                                                                                                                                                                                                                                                                                                                                                                                                                                                                                                                                                                                                                                                                                                                                                                                                                                                                                                                                                                                                                                                                                                    ",
"                                                                                                                                                                                                                                                                                                                                                                                                                                                                                                                                                                                                                                                                                                                                                                                                                                                                                                                                                                                                                                                                                                                                                                                                                                                                                                                                                                                    ",
"                                                                                                                                                                                                                                                                                                                                                                                                                                                                                                                                                                                                                                                                                                                                                                                                                                                                                                                                                                                                                                                                                                                                                                                                                                                                                                                                                                                    ",
"                                                                                                                                                                                                                                                                                                                                                                                                                                                                                                                                                                                                                                                                                                                                                                                                                                                                                                                                                                                                                                                                                                                                                                                                                                                                                                                                                                                    ",
"                                                                                                                                                                                                                                                                                                                                                                                                                                                                                                                                                                                                                                                                                                                                                                                                                                                                                                                                                                                                                                                                                                                                                                                                                                                                                                                                                                                    ",
"                                                                                                                                                                                                                                                                                                                                                                                                                                                                                                                                                                                                                                                                                                                                                                                                                                                                                                                                                                                                                                                                                                                                                                                                                                                                                                                                                                                    ",
"                                                                                                                                                                                                                                                                                                                                                                                                                                                                                                                                                                                                                                                                                                                                                                                                                                                                                                                                                                                                                                                                                                                                                                                                                                                                                                                                                                                    ",
"                                                                                                                                                                                                                                                                                                                                                                                                                                                                                                                                                                                                                                                                                                                                                                                                                                                                                                                                                                                                                                                                                                                                                                                                                                                                                                                                                                                    ",
"                                                                                                                                                                                                                                                                                                                                                                                                                                                                                                                                                                                                                                                                                                                                                                                                                                                                                                                                                                                                                                                                                                                                                                                                                                                                                                                                                                                    ",
"                                                                                                                                                                                                                                                                                                                                                                                                                                                                                                                                                                                                                                                                                                                                                                                                                                                                                                                                                                                                                                                                                                                                                                                                                                                                                                                                                                                    ",
"                                                                                                                                                                                                                                                                                                                                                                                                                                                                                                                                                                                                                                                                                                                                                                                                                                                                                                                                                                                                                                                                                                                                                                                                                                                                                                                                                                                    ",
"                                                                                                                                                                                                                                                                                                                                                                                                                                                                                                                                                                                                                                                                                                                                                                                                                                                                                                                                                                                                                                                                                                                                                                                                                                                                                                                                                                                    ",
"                                                                                                                                                                                                                                                                                                                                                                                                                                                                                                                                                                                                                                                                                                                                                                                                                                                                                                                                                                                                                                                                                                                                                                                                                                                                                                                                                                                    ",
"                                                                                                                                                                                                                                                                                                                                                                                                                                                                                                                                                                                                                                                                                                                                                                                                                                                                                                                                                                                                                                                                                                                                                                                                                                                                                                                                                                                    ",
"                                                                                                                                                                                                                                                                                                                                                                                                                                                                                                                                                                                                                                                                                                                                                                                                                                                                                                                                                                                                                                                                                                                                                                                                                                                                                                                                                                                    ",
"                                                                                                                                                                                                                                                                                                                                                                                                                                                                                                                                                                                                                                                                                                                                                                                                                                                                                                                                                                                                                                                                                                                                                                                                                                                                                                                                                                                    ",
"                                                                                                                                                                                                                                                                                                                                                                                                                                                                                                                                                                                                                                                                                                                                                                                                                                                                                                                                                                                                                                                                                                                                                                                                                                                                                                                                                                                    ",
"                                                                                                                                                                                                                                                                                                                                                                                                                                                                                                                                                                                                                                                                                                                                                                                                                                                                                                                                                                                                                                                                                                                                                                                                                                                                                                                                                                                    ",
"                                                                                                                                                                                                                                                                                                                                                                                                                                                                                                                                                                                                                                                                                                                                                                                                                                                                                                                                                                                                                                                                                                                                                                                                                                                                                                                                                                                    ",
"                                                                                                                                                                                                                                                                                                                                                                                                                                                                                                                                                                                                                                                                                                                                                                                                                                                                                                                                                                                                                                                                                                                                                                                                                                                                                                                                                                                    ",
"                                                                                                                                                                                                                                                                                                                                                                                                                                                                                                                                                                                                                                                                                                                                                                                                                                                                                                                                                                                                                                                                                                                                                                                                                                                                                                                                                                                    ",
"                                                                                                                                                                                                                                                                                                                                                                                                                                                                                                                                                                                                                                                                                                                                                                                                                                                                                                                                                                                                                                                                                                                                                                                                                                                                                                                                                                                    ",
"                                                                                                                                                                                                                                                                                                                                                                                                                                                                                                                                                                                                                                                                                                                                                                                                                                                                                                                                                                                                                                                                                                                                                                                                                                                                                                                                                                                    ",
"                                                                                                                                                                                                                                                                                                                                                                                                                                                                                                                                                                                                                                                                                                                                                                                                                                                                                                                                                                                                                                                                                                                                                                                                                                                                                                                                                                                    ",
"                                                                                                                                                                                                                                                                                                                                                                                                                                                                                                                                                                                                                                                                                                                                                                                                                                                                                                                                                                                                                                                                                                                                                                                                                                                                                                                                                                                    ",
"                                                                                                                                                                                                                                                                                                                                                                                                                                                                                                                                                                                                                                                                                                                                                                                                                                                                                                                                                                                                                                                                                                                                                                                                                                                                                                                                                                                    ",
"                                                                                                                                                                                                                                                                                                                                                                                                                                                                                                                                                                                                                                                                                                                                                                                                                                                                                                                                                                                                                                                                                                                                                                                                                                                                                                                                                                                    ",
"                                                                                                                                                                                                                                                                                                                                                                                                                                                                                                                                                                                                                                                                                                                                                                                                                                                                                                                                                                                                                                                                                                                                                                                                                                                                                                                                                                                    ",
"                                                                                                                                                                                                                                                                                                                                                                                                                                                                                                                                                                                                                                                                                                                                                                                                                                                                                                                                                                                                                                                                                                                                                                                                                                                                                                                                                                                    ",
"                                                                                                                                                                                                                                                                                                                                                                                                                                                                                                                                                                                                                                                                                                                                                                                                                                                                                                                                                                                                                                                                                                                                                                                                                                                                                                                                                                                    ",
"                                                                                                                                                                                                                                                                                                                                                                                                                                                                                                                                                                                                                                                                                                                                                                                                                                                                                                                                                                                                                                                                                                                                                                                                                                                                                                                                                                                    ",
"                                                                                                                                                                                                                                                                                                                                                                                                                                                                                                                                                                                                                                                                                                                                                                                                                                                                                                                                                                                                                                                                                                                                                                                                                                                                                                                                                                                    ",
"                                                                                                                                                                                                                                                                                                                                                                                                                                                                                                                                                                                                                                                                                                                                                                                                                                                                                                                                                                                                                                                                                                                                                                                                                                                                                                                                                                                    ",
"                                                                                                                                                                                                                                                                                                                                                                                                                                                                                                                                                                                                                                                                                                                                                                                                                                                                                                                                                                                                                                                                                                                                                                                                                                                                                                                                                                                    ",
"                                                                                                                                                                                                                                                                                                                                                                                                                                                                                                                                                                                                                                                                                                                                                                                                                                                                                                                                                                                                                                                                                                                                                                                                                                                                                                                                                                                    ",
"                                                                                                                                                                                                                                                                                                                                                                                                                                                                                                                                                                                                                                                                                                                                                                                                                                                                                                                                                                                                                                                                                                                                                                                                                                                                                                                                                                                    ",
"                                                                                                                                                                                                                                                                                                                                                                                                                                                                                                                                                                                                                                                                                                                                                                                                                                                                                                                                                                                                                                                                                                                                                                                                                                                                                                                                                                                    ",
"                                                                                                                                                                                                                                                                                                                                                                                                                                                                                                                                                                                                                                                                                                                                                                                                                                                                                                                                                                                                                                                                                                                                                                                                                                                                                                                                                                                    ",
"                                                                                                                                                                                                                                                                                                                                                                                                                                                                                                                                                                                                                                                                                                                                                                                                                                                                                                                                                                                                                                                                                                                                                                                                                                                                                                                                                                                    ",
"                                                                                                                                                                                                                                                                                                                                                                                                                                                                                                                                                                                                                                                                                                                                                                                                                                                                                                                                                                                                                                                                                                                                                                                                                                                                                                                                                                                    ",
"                                                                                                                                                                                                                                                                                                                                                                                                                                                                                                                                                                                                                                                                                                                                                                                                                                                                                                                                                                                                                                                                                                                                                                                                                                                                                                                                                                                    ",
"                                                                                                                                                                                                                                                                                                                                                                                                                                                                                                                                                                                                                                                                                                                                                                                                                                                                                                                                                                                                                                                                                                                                                                                                                                                                                                                                                                                    ",
"                                                                                                                                                                                                                                                                                                                                                                                                                                                                                                                                                                                                                                                                                                                                                                                                                                                                                                                                                                                                                                                                                                                                                                                                                                                                                                                                                                                    ",
"                                                                                                                                                                                                                                                                                                                                                                                                                                                                                                                                                                                                                                                                                                                                                                                                                                                                                                                                                                                                                                                                                                                                                                                                                                                                                                                                                                                    ",
"                                                                                                                                                                                                                                                                                                                                                                                                                                                                                                                                                                                                                                                                                                                                                                                                                                                                                                                                                                                                                                                                                                                                                                                                                                                                                                                                                                                    ",
"                                                                                                                                                                                                                                                                                                                                                                                                                                                                                                                                                                                                                                                                                                                                                                                                                                                                                                                                                                                                                                                                                                                                                                                                                                                                                                                                                                                    ",
"                                                                                                                                                                                                                                                                                                                                                                                                                                                                                                                                                                                                                                                                                                                                                                                                                                                                                                                                                                                                                                                                                                                                                                                                                                                                                                                                                                                    ",
"                                                                                                                                                                                                                                                                                                                                                                                                                                                                                                                                                                                                                                                                                                                                                                                                                                                                                                                                                                                                                                                                                                                                                                                                                                                                                                                                                                                    ",
"                                                                                                                                                                                                                                                                                                                                                                                                                                                                                                                                                                                                                                                                                                                                                                                                                                                                                                                                                                                                                                                                                                                                                                                                                                                                                                                                                                                    ",
"                                                                                                                                                                                                                                                                                                                                                                                                                                                                                                                                                                                                                                                                                                                                                                                                                                                                                                                                                                                                                                                                                                                                                                                                                                                                                                                                                                                    ",
"                                                                                                                                                                                                                                                                                                                                                                                                                                                                                                                                                                                                                                                                                                                                                                                                                                                                                                                                                                                                                                                                                                                                                                                                                                                                                                                                                                                    ",
"                                                                                                                                                                                                                                                                                                                                                                                                                                                                                                                                                                                                                                                                                                                                                                                                                                                                                                                                                                                                                                                                                                                                                                                                                                                                                                                                                                                    ",
"                                                                                                                                                                                                                                                                                                                                                                                                                                                                                                                                                                                                                                                                                                                                                                                                                                                                                                                                                                                                                                                                                                                                                                                                                                                                                                                                                                                    ",
"                                                                                                                                                                                                                                                                                                                                                                                                                                                                                                                                                                                                                                                                                                                                                                                                                                                                                                                                                                                                                                                                                                                                                                                                                                                                                                                                                                                    ",
"                                                                                                                                                                                                                                                                                                                                                                                                                                                                                                                                                                                                                                                                                                                                                                                                                                                                                                                                                                                                                                                                                                                                                                                                                                                                                                                                                                                    ",
"                                                                                                                                                                                                                                                                                                                                                                                                                                                                                                                                                                                                                                                                                                                                                                                                                                                                                                                                                                                                                                                                                                                                                                                                                                                                                                                                                                                    ",
"                                                                                                                                                                                                                                                                                                                                                                                                                                                                                                                                                                                                                                                                                                                                                                                                                                                                                                                                                                                                                                                                                                                                                                                                                                                                                                                                                                                    ",
"                                                                                                                                                                                                                                                                                                                                                                                                                                                                                                                                                                                                                                                                                                                                                                                                                                                                                                                                                                                                                                                                                                                                                                                                                                                                                                                                                                                    ",
"                                                                                                                                                                                                                                                                                                                                                                                                                                                                                                                                                                                                                                                                                                                                                                                                                                                                                                                                                                                                                                                                                                                                                                                                                                                                                                                                                                                    ",
"                                                                                                                                                                                                                                                                                                                                                                                                                                                                                                                                                                                                                                                                                                                                                                                                                                                                                                                                                                                                                                                                                                                                                                                                                                                                                                                                                                                    ",
"                                                                                                                                                                                                                                                                                                                                                                                                                                                                                                                                                                                                                                                                                                                                                                                                                                                                                                                                                                                                                                                                                                                                                                                                                                                                                                                                                                                    ",
"                                                                                                                                                                                                                                                                                                                                                                                                                                                                                                                                                                                                                                                                                                                                                                                                                                                                                                                                                                                                                                                                                                                                                                                                                                                                                                                                                                                    ",
"                                                                                                                                                                                                                                                                                                                                                                                                                                                                                                                                                                                                                                                                                                                                                                                                                                                                                                                                                                                                                                                                                                                                                                                                                                                                                                                                                                                    ",
"                                                                                                                                                                                                                                                                                                                                                                                                                                                                                                                                                                                                                                                                                                                                                                                                                                                                                                                                                                                                                                                                                                                                                                                                                                                                                                                                                                                    ",
"                                                                                                                                                                                                                                                                                                                                                                                                                                                                                                                                                                                                                                                                                                                                                                                                                                                                                                                                                                                                                                                                                                                                                                                                                                                                                                                                                                                    ",
"                                                                                                                                                                                                                                                                                                                                                                                                                                                                                                                                                                                                                                                                                                                                                                                                                                                                                                                                                                                                                                                                                                                                                                                                                                                                                                                                                                                    ",
"                                                                                                                                                                                                                                                                                                                                                                                                                                                                                                                                                                                                                                                                                                                                                                                                                                                                                                                                                                                                                                                                                                                                                                                                                                                                                                                                                                                    ",
"                                                                                                                                                                                                                                                                                                                                                                                                                                                                                                                                                                                                                                                                                                                                                                                                                                                                                                                                                                                                                                                                                                                                                                                                                                                                                                                                                                                    ",
"                                                                                                                                                                                                                                                                                                                                                                                                                                                                                                                                                                                                                                                                                                                                                                                                                                                                                                                                                                                                                                                                                                                                                                                                                                                                                                                                                                                    ",
"                                                                                                                                                                                                                                                                                                                                                                                                                                                                                                                                                                                                                                                                                                                                                                                                                                                                                                                                                                                                                                                                                                                                                                                                                                                                                                                                                                                    ",
"                                                                                                                                                                                                                                                                                                                                                                                                                                                                                                                                                                                                                                                                                                                                                                                                                                                                                                                                                                                                                                                                                                                                                                                                                                                                                                                                                                                    ",
"                                                                                                                                                                                                                                                                                                                                                                                                                                                                                                                                                                                                                                                                                                                                                                                                                                                                                                                                                                                                                                                                                                                                                                                                                                                                                                                                                                                    ",
"                                                                                                                                                                                                                                                                                                                                                                                                                                                                                                                                                                                                                                                                                                                                                                                                                                                                                                                                                                                                                                                                                                                                                                                                                                                                                                                                                                                    ",
"                                                                                                                                                                                                                                                                                                                                                                                                                                                                                                                                                                                                                                                                                                                                                                                                                                                                                                                                                                                                                                                                                                                                                                                                                                                                                                                                                                                    ",
"                                                                                                                                                                                                                                                                                                                                                                                                                                                                                                                                                                                                                                                                                                                                                                                                                                                                                                                                                                                                                                                                                                                                                                                                                                                                                                                                                                                    ",
"                                                                                                                                                                                                                                                                                                                                                                                                                                                                                                                                                                                                                                                                                                                                                                                                                                                                                                                                                                                                                                                                                                                                                                                                                                                                                                                                                                                    ",
"                                                                                                                                                                                                                                                                                                                                                                                                                                                                                                                                                                                                                                                                                                                                                                                                                                                                                                                                                                                                                                                                                                                                                                                                                                                                                                                                                                                    ",
"                                                                                                                                                                                                                                                                                                                                                                                                                                                                                                                                                                                                                                                                                                                                                                                                                                                                                                                                                                                                                                                                                                                                                                                                                                                                                                                                                                                    ",
"                                                                                                                                                                                                                                                                                                                                                                                                                                                                                                                                                                                                                                                                                                                                                                                                                                                                                                                                                                                                                                                                                                                                                                                                                                                                                                                                                                                    ",
"                                                                                                                                                                                                                                                                                                                                                                                                                                                                                                                                                                                                                                                                                                                                                                                                                                                                                                                                                                                                                                                                                                                                                                                                                                                                                                                                                                                    ",
"                                                                                                                                                                                                                                                                                                                                                                                                                                                                                                                                                                                                                                                                                                                                                                                                                                                                                                                                                                                                                                                                                                                                                                                                                                                                                                                                                                                    ",
"                                                                                                                                                                                                                                                                                                                                                                                                                                                                                                                                                                                                                                                                                                                                                                                                                                                                                                                                                                                                                                                                                                                                                                                                                                                                                                                                                                                    ",
"                                                                                                                                                                                                                                                                                                                                                                                                                                                                                                                                                                                                                                                                                                                                                                                                                                                                                                                                                                                                                                                                                                                                                                                                                                                                                                                                                                                    ",
"                                                                                                                                                                                                                                                                                                                                                                                                                                                                                                                                                                                                                                                                                                                                                                                                                                                                                                                                                                                                                                                                                                                                                                                                                                                                                                                                                                                    ",
"                                                                                                                                                                                                                                                                                                                                                                                                                                                                                                                                                                                                                                                                                                                                                                                                                                                                                                                                                                                                                                                                                                                                                                                                                                                                                                                                                                                    ",
"                                                                                                                                                                                                                                                                                                                                                                                                                                                                                                                                                                                                                                                                                                                                                                                                                                                                                                                                                                                                                                                                                                                                                                                                                                                                                                                                                                                    ",
"                                                                                                                                                                                                                                                                                                                                                                                                                                                                                                                                                                                                                                                                                                                                                                                                                                                                                                                                                                                                                                                                                                                                                                                                                                                                                                                                                                                    ",
"                                                                                                                                                                                                                                                                                                                                                                                                                                                                                                                                                                                                                                                                                                                                                                                                                                                                                                                                                                                                                                                                                                                                                                                                                                                                                                                                                                                    ",
"                                                                                                                                                                                                                                                                                                                                                                                                                                                                                                                                                                                                                                                                                                                                                                                                                                                                                                                                                                                                                                                                                                                                                                                                                                                                                                                                                                                    ",
"                                                                                                                                                                                                                                                                                                                                                                                                                                                                                                                                                                                                                                                                                                                                                                                                                                                                                                                                                                                                                                                                                                                                                                                                                                                                                                                                                                                    ",
"                                                                                                                                                                                                                                                                                                                                                                                                                                                                                                                                                                                                                                                                                                                                                                                                                                                                                                                                                                                                                                                                                                                                                                                                                                                                                                                                                                                    ",
"                                                                                                                                                                                                                                                                                                                                                                                                                                                                                                                                                                                                                                                                                                                                                                                                                                                                                                                                                                                                                                                                                                                                                                                                                                                                                                                                                                                    ",
"                                                                                                                                                                                                                                                                                                                                                                                                                                                                                                                                                                                                                                                                                                                                                                                                                                                                                                                                                                                                                                                                                                                                                                                                                                                                                                                                                                                    ",
"                                                                                                                                                                                                                                                                                                                                                                                                                                                                                                                                                                                                                                                                                                                                                                                                                                                                                                                                                                                                                                                                                                                                                                                                                                                                                                                                                                                    ",
"                                                                                                                                                                                                                                                                                                                                                                                                                                                                                                                                                                                                                                                                                                                                                                                                                                                                                                                                                                                                                                                                                                                                                                                                                                                                                                                                                                                    ",
"                                                                                                                                                                                                                                                                                                                                                                                                                                                                                                                                                                                                                                                                                                                                                                                                                                                                                                                                                                                                                                                                                                                                                                                                                                                                                                                                                                                    ",
"                                                                                                                                                                                                                                                                                                                                                                                                                                                                                                                                                                                                                                                                                                                                                                                                                                                                                                                                                                                                                                                                                                                                                                                                                                                                                                                                                                                    ",
"                                                                                                                                                                                                                                                                                                                                                                                                                                                                                                                                                                                                                                                                                                                                                                                                                                                                                                                                                                                                                                                                                                                                                                                                                                                                                                                                                                                    ",
"                                                                                                                                                                                                                                                                                                                                                                                                                                                                                                                                                                                                                                                                                                                                                                                                                                                                                                                                                                                                                                                                                                                                                                                                                                                                                                                                                                                    ",
"                                                                                                                                                                                                                                                                                                                                                                                                                                                                                                                                                                                                                                                                                                                                                                                                                                                                                                                                                                                                                                                                                                                                                                                                                                                                                                                                                                                    ",
"                                                                                                                                                                                                                                                                                                                                                                                                                                                                                                                                                                                                                                                                                                                                                                                                                                                                                                                                                                                                                                                                                                                                                                                                                                                                                                                                                                                    ",
"                                                                                                                                                                                                                                                                                                                                                                                                                                                                                                                                                                                                                                                                                                                                                                                                                                                                                                                                                                                                                                                                                                                                                                                                                                                                                                                                                                                    ",
"                                                                                                                                                                                                                                                                                                                                                                                                                                                                                                                                                                                                                                                                                                                                                                                                                                                                                                                                                                                                                                                                                                                                                                                                                                                                                                                                                                                    ",
"                                                                                                                                                                                                                                                                                                                                                                                                                                                                                                                                                                                                                                                                                                                                                                                                                                                                                                                                                                                                                                                                                                                                                                                                                                                                                                                                                                                    ",
"                                                                                                                                                                                                                                                                                                                                                                                                                                                                                                                                                                                                                                                                                                                                                                                                                                                                                                                                                                                                                                                                                                                                                                                                                                                                                                                                                                                    ",
"                                                                                                                                                                                                                                                                                                                                                                                                                                                                                                                                                                                                                                                                                                                                                                                                                                                                                                                                                                                                                                                                                                                                                                                                                                                                                                                                                                                    ",
"                                                                                                                                                                                                                                                                                                                                                                                                                                                                                                                                                                                                                                                                                                                                                                                                                                                                                                                                                                                                                                                                                                                                                                                                                                                                                                                                                                                    ",
"                                                                                                                                                                                                                                                                                                                                                                                                                                                                                                                                                                                                                                                                                                                                                                                                                                                                                                                                                                                                                                                                                                                                                                                                                                                                                                                                                                                    ",
"                                                                                                                                                                                                                                                                                                                                                                                                                                                                                                                                                                                                                                                                                                                                                                                                                                                                                                                                                                                                                                                                                                                                                                                                                                                                                                                                                                                    ",
"                                                                                                                                                                                                                                                                                                                                                                                                                                                                                                                                                                                                                                                                                                                                                                                                                                                                                                                                                                                                                                                                                                                                                                                                                                                                                                                                                                                    ",
"                                                                                                                                                                                                                                                                                                                                                                                                                                                                                                                                                                                                                                                                                                                                                                                                                                                                                                                                                                                                                                                                                                                                                                                                                                                                                                                                                                                    ",
"                                                                                                                                                                                                                                                                                                                                                                                                                                                          W.W.) E.                                                                                                                                                                                                                                                                                                                                                                                                                                                                                                                                                                                                                                                                                                                                                                                                                                                                                                                  ",
"                                                                                                                                                                                                                                                                                                                                                                                                                                              ^.[ { / y w y / ] { ^ ^ ! W.                                                                                                                                                                                                                                                                                                                                                                                                                                                                                                                                                                                                                                                                                                                                                                                                                                                                                                          ",
"                                                                                                                                                                                                                                                                                                                                                                                                                                          (.[ ' ] | -.J V l l l x P ] w 9 _                                                                                                                                                                                                                                                                                                                                                                                                                               E.( ^ ^ / / / ^ ^ ^ ( W.                                                                                                                                                                                                                                                                                                                                                                                                                                                  ",
"                                                                                                                                                                                                                                                                                                                                                                                                                                        [ [ 0.1.7.7.7.7.2.3.3.3.*.Z J A n y (                                                                                                                                                                                                                                                                                                                                                                                                                           ( 9 ] m n m y q q q 0 m y / { ~.                                                                                                                                                                                                                                                                                                                                                                                                                                            ",
"                                                                                                                                                                                                                                                                                                                                                                                                                                    _ _ @.<.:.;.R Z a a D F =.2.2.u.2.-.C j ^ (                                                                                                                                                                                                                                                                                                                                                                                                                       ( w j z c p < ; 0 e l s s z k m / _ Q.                                                                                                                                                                                                                                                                                                                                                                                                                                        ",
"                                                                                                                                                                                                                                                                                                                                                                                                                                [ [ @.@.X.` N v Z C 3 < x S G =.L D -.:.>.L k y _                                                                                                                                                                                                                                                                                                                                                                                                                   ~ 9 q c C z < ; q 0 l z s s a h k m ] ' w.`.                                                                                                                                                                                                                                                                                                                                                                                                                                    ",
"                                                                                                                                                                                                                                                                                                                                                                                                                            Q.[ @.<.<. .H H L L J L B < d m S G -.| D A =.>.K C w _                                                                                                                                                                                                                                                                                                                                                                                                               ^ 9 w j D z p * - ; 0 g p a s g h z M F ` X.0.#.~.'.                                                                                                                                                                                                                                                                                                                                                                                                                              ",
"                                                                                                                                                                                                                                                                                                                                                                                                                        Q.{ ' 0.1.-.L L F F F F K -.J D z > l D J J J A ` -.*.c M ^                                                                                                                                                                                                                                                                                                                                                                                                             / y w y m j 0 0 e e k h r k j j j x n M M N R N ` q.e.`.`.                                                                                                                                                                                                                                                                                                                                                                                                                          ",
"                                                                                                                                                                                                                                                                                                                                                                                                                    Q.{ ' <.7.7.;.K v z C v C K T | T D h > $ u z B C A ` =.-.J g y )                                                                                                                                                                                                                                                                                                                                                                                                         Q.y v k n m m j j c v F H | | m S x x x n M N N b F J 1.y.[.`.^.(.                                                                                                                                                                                                                                                                                                                                                                                                                    ",
"                                                                                                                                                                                                                                                                                                                                                                                                                Q.[ ' X.2.7.7.,.H N g h K K c M r r r 4 # = o > z c v k H H G P l q ^                                                                                                                                                                                                                                                                                                                                                                                                         ~ y b F -.1.2.2.t.7.7.7.,.2.1.` G D C c v M v c v C J |  .<.e.e.e.[ Q.                                                                                                                                                                                                                                                                                                                                                                                                                ",
"                                                                                                                                                                                                                                                                                                                                                                                                            Q._ ' <.1.2.7.7.3.;.N N c k h g 3 3 e 4 ; @ X . . $ p z h k F n x G F e y ^                                                                                                                                                                                                                                                                                                                                                                                                     [ 9 q N :.t.t.2.:.*.K F Z b N | | -.J J v v C c c J K F F H H  .2.7.e.e.#.^.                                                                                                                                                                                                                                                                                                                                                                                                            ",
"                                                                                                                                                                                                                                                                                                                                                                                                        `.#.0.<.1.2.2.7.2.3.;.R k k k e @ ; M F J C l g : . 1 . @ ; r k R v g c F v k / W.                                                                                                                                                                                                                                                                                                                                                                                                  ^ w j -.3.;.*.;.*.*.c > * 1 . ; h h D D Z Z Z V C K T C v H G k m ` 1.2.e.e.#.'.                                                                                                                                                                                                                                                                                                                                                                                                        ",
"                                                                                                                                                                                                                                                                                                                                                                                                      [ @.<.2.2.2.2.2.:.T T ;.>.c ; @ - 3 H :.| B J D J d & , & * @ ; g F c h v F K 3 w ~                                                                                                                                                                                                                                                                                                                                                                                                 _ w k ` =.L F K T K C J : , f < g b v v v v C C c C K J J c c c n N n F -.3.7.e.w.~.(.                                                                                                                                                                                                                                                                                                                                                                                                    ",
"                                                                                                                                                                                                                                                                                                                                                                                                  #.' 0.<.1.2.2.2.:.-.L H H F c z * . < D -.T k c H H M 3 3 z z l > : , x l c Z Z F r 8 9 W.                                                                                                                                                                                                                                                                                                                                                                                              ! n *.>.J B L ;.-.J A f & 0 x x c C C v k j j j k n G D c c c c k h g c v M H <.e.e.w.~.                                                                                                                                                                                                                                                                                                                                                                                                  ",
"                                                                                                                                                                                                                                                                                                                                                                                              W.0.q.2.2.2.1.:.;.-.L H H H N c 0 o = l J D c c M M H  .k = h K *.C u : , f d z z b b N q 8 ^                                                                                                                                                                                                                                                                                                                                                                                             ( ^ -.3.&.D D J L F c x , 0 m S A J J J D g 0 e q j G ` D A c k g h h h h k k v H H  .q.e.w.`.                                                                                                                                                                                                                                                                                                                                                                                              ",
"                                                                                                                                                                                                                                                                                                                                                                                          ^.#.q.q.2.1.:.>.| | -.T L L H M r e g 3 l D c g g l M F v -.c h F L *.z p p : V d f l h b v g q ^ W.                                                                                                                                                                                                                                                                                                                                                                                          9 m >.*.&.J D c c c u < g A P D D J D D c g e e k M ` >.L F k h h g g g g j k k k v F K -.e.e.w.~.                                                                                                                                                                                                                                                                                                                                                                                          ",
"                                                                                                                                                                                                                                                                                                                                                                                      (.#.w.q.2.1.:.-.-.| L L K -.| F l e l h g e ; g g g g g c D v J g z J J F z h ; * u d d g k h b c j ^ (                                                                                                                                                                                                                                                                                                                                                                                         ( 9 H V &.L c c c g : * d c J L K F c g g g g e g g | >.| H M k k h g g g l j c k k z v C K K >.q.w.#.`.                                                                                                                                                                                                                                                                                                                                                                                      ",
"                                                                                                                                                                                                                                                                                                                                                                                    ~.w.e.e.<. . .-.-.| L L L T H M k k c c k l e ; ; e z c c z F J c < z J C c h z < < : d u g b h z C f 9 9                                                                                                                                                                                                                                                                                                                                                                                         ~ / n l &.J c c c > 1 1 g g K >.-.J c l c g 3 < c e H | H F M c z z g g l l x c k c v v v D D D ` X.0.w.~.'.                                                                                                                                                                                                                                                                                                                                                                                  ",
"                                                                                                                                                                                                                                                                                                                                                                                ^.`.q.1.1.;.` H  .| L K L L F c k g z H T H z g ; < 3 e c K F z v L g ; g c z c h z g l : i < g b b C C l 8 9                                                                                                                                                                                                                                                                                                                                                                                         ^ ] 0 z K B l c l : . . , < c c c D L F c h g l D h M M M F M v z h g l c l x c x c v N M v D F M n ` X.0.`.~.(.                                                                                                                                                                                                                                                                                                                                                                              ",
"                                                                                                                                                                                                                                                                                                                                                                            '.`.w.q.<. . .;.-.T L | L F v k g < h M H H L L M e ; 3 3 3 c F K v g J < < z c z c g g l l , : ; h b b C Z D m o.                                                                                                                                                                                                                                                                                                                                                                                      ~.] m j p K c l g * . . X . * : * * < l l l g M c c M F M c M M M c z l h c c c c c k k v b v C F F D n G ` X.e.w.~.                                                                                                                                                                                                                                                                                                                                                                            ",
"                                                                                                                                                                                                                                                                                                                                                                          '.w.0.<.>.|  . .T *.;.L H D k 3 3 e l c M D F F F M h < 3 ; 3 g c D D g c < l D C c z g g l d u * 3 b b v C J L | r./.                                                                                                                                                                                                                                                                                                                                                                                    ' m m j 3 v g > * . . . 1 * : < l l g * * < h z g h L H c k k c M v z z h z V V c c k k M N F F Z Z K L K M H ` 2.e.w.^.                                                                                                                                                                                                                                                                                                                                                                        ",
"                                                                                                                                                                                                                                                                                                                                                                      '.w.q.1.>.| | -.-.>.;.R M v g = < c v z g l g g c D D c z g g < e g g z c h < 3 z J c c g g g d d f > 3 h h c B J J H 5.r.                                                                                                                                                                                                                                                                                                                                                                                    y x n g h e 3 * : > > * > z C c v K -.D < o 3 ; * c L H h c k c M M c z z z z c c k k k M M v C Z K K Z K &.D F H  .q.e.`.'.                                                                                                                                                                                                                                                                                                                                                                    ",
"                                                                                                                                                                                                                                                                                                                                                                    ~.w.q.:.T T R T -.-.P c r e * > g J L F c l , ; , < z F C g g c g e g g h p 3 * < c C z c z u l d d x l 4 4 h z B J l b ..r.].                                                                                                                                                                                                                                                                                                                                                                                / q x g l < e > $ < c z > > C J J C F >.:.v $ . @ * c M H M M c v M v c z c c c c c k j g h c v C Z Z K &.*.&.&.L L L T :.e.e.^.                                                                                                                                                                                                                                                                                                                                                                  ",
"                                                                                                                                                                                                                                                                                                                                                                ~.w.0.X. .H T *.T H F k 0 & + + , z J F C c h p = > ; 3 h c z h k c z h g l g < > * * g z c z c g u u x l c b 4 e g V V c h Y r.|.                                                                                                                                                                                                                                                                                                                                                                              ~.y q l l < l g > u z L L u * C *.L z z F L F l ; . o e c F F F H M c M v c c l c z z c k j l c c B C C J J J L *.*.-.&.F F | <.e.`.'.                                                                                                                                                                                                                                                                                                                                                              ",
"                                                                                                                                                                                                                                                                                                                                                            '.[ q.1. .` | | T T T v 3 ; - & & 0 x C D v z l p ; = , < g z z h g g k c z z z l < * = * 3 g c z z z g l B c v b 4 3 < d g k b U +. X%X                                                                                                                                                                                                                                                                                                                                                                            / y j x l u g : , g c J L c g J >.L J c l c c D v < * < g k M M L H H F D D D c v z z c c l l c z c c c v c M F T *.*.-.` G G P >.2.e.`.                                                                                                                                                                                                                                                                                                                                                            ",
"                                                                                                                                                                                                                                                                                                                                                          ~.w.q.>.*.H H H G M M h = = ; < d f x c z h g g g < , > , < g h g 3 ; ; 3 g g h h g , * g , g z C D c g l J D F v N b = $ 3 3 r ..8.d. X|.                                                                                                                                                                                                                                                                                                                                                                          _ y k n l u > > * < z c D L J c J -.v J v g g g c M g < e e e e e v H -.-.F D C c k k z c c l l l l c c j k j j k F F H ` ` ` G G L *.:.q.w.^.                                                                                                                                                                                                                                                                                                                                                        ",
"                                                                                                                                                                                                                                                                                                                                                      ^.#.q.1.T K T T L G j 0 q @ = g c c l g l g < < < p 3 < ; , , < g g < , > * * * * > ; , * o g > p g z C c c l V c D M N b a $ O t O.8.V.B.b. X                                                                                                                                                                                                                                                                                                                                                                          ^ m c c g u : * > p z z c J J c c F c c c l g e g g < < g h g e < e k H L F J D c k k M D D B c x l z j g j e q j k v N N G ` ` =.&.*.*.>.<.0.~.!.                                                                                                                                                                                                                                                                                                                                                    ",
"                                                                                                                                                                                                                                                                                                                                                  '.#.0.<. .H F F K L F c g ; # 0 r M c g p < > < , ; 3 3 < , , < < < p < , = > = * @ @ * = * * o g , 3 p u g g g c V c z M N b 4 2 U 9.+.d.A.C.Z.0X|.                                                                                                                                                                                                                                                                                                                                                                      / y n c l l d : * p g z l z C c g p z L c h k g h g 3 ; ; g k v M M k e 3 h v J F D k k c c c c c c c c k r e e 0 e h h k n G ` L T *.*.K M ` X.q.w.Q.                                                                                                                                                                                                                                                                                                                                                  ",
"                                                                                                                                                                                                                                                                                                                                                Q.w.0.-.G F H F H H F c g u g k M G n r ; ; > = ; ; < 3 < < < < < < < < > * * * * * @ o * * o o * z p 3 < > < p d c B C h b r r 4 E 6.s.f.n.A.D.S.9X.X&X                                                                                                                                                                                                                                                                                                                                                                  ~.w N c A c g ; < 3 h g l l l c z p < g *.z z F v v g e ; < g c F L H F k g g 3 p l k k c c c c c c v C D v g r e d g l g g k M H R H *.K F M j j K <.w.[ Q.                                                                                                                                                                                                                                                                                                                                              ",
"                                                                                                                                                                                                                                                                                                                                            '.[ w.' G n c M M k N M c g u g V D D D c r < ; = = = , < < 3 3 p p < 3 3 ; * $ o o o . . . o . . . , J c , * > = > l g u g h 4 # 4 8.g.k.Z.m.m.6XS.J.uX4X|.                                                                                                                                                                                                                                                                                                                                                                  } r v c B l f < e a h p l g l z c z p , v h v L M c < < ; 3 k M H H F F M c g , * = , j c x x c A F F F F v h h z l l x d u p b Z R R R T N k k z c C -.2.e.w.^.                                                                                                                                                                                                                                                                                                                                          ",
"                                                                                                                                                                                                                                                                                                                                        (.~.0.q. .D x x j j k c k g < ; g B B z B c c k e ; * * * < 3 3 3 p 3 < 3 g l < = * o . o o o o o . o o c >.&.u : 3 = = * , g 4 4 O U 8.g.rXD.H.vXvX9XuXyXyX8XXX).                                                                                                                                                                                                                                                                                                                                                              /.$.N h l d i l g b h a p g g p z C B g * g z J v p < < < < 3 k M H H M c k g < < g g , * , < d g c c c F H M h h c l l d f g p a b Z H H H H N v v v C Z *.:.q.w.~.'.                                                                                                                                                                                                                                                                                                                                      ",
"                                                                                                                                                                                                                                                                                                                                    '.`.w.q.<.L n j 0 0 g c l d * , g c l l g g g l c k g ; ; = , > < u u u u u < g g < = $ o @ @ @ * . $ o X = ;.2.*.B > $ 2 2 O 4 2 O 5 E g.V.D.tXtXiXCXCXiXuXuXiXH.oX/.                                                                                                                                                                                                                                                                                                                                                            ].XXg.4.2 e o < h h v h r e r e l c c B g > * l F l g p , p g l c F F v g p < , < l c v v k ; @ @ ; 0 e e l k g g c c c c g g g u p p z F H L H c c z z c n x c H <.q.e.~.                                                                                                                                                                                                                                                                                                                                    ",
"                                                                                                                                                                                                                                                                                                                                  `.w.@.<.-.R v g d ; , < d u u l l l g < , , < < g c c g < , = : > < u u u u u < < < , = * * * @ * * 1 * o o 3 -.3.3.&.4 U U E 6.U 5 U 9.d.k.A.tXtXiXpXpXpXiXiXtXtXH.oXXX                                                                                                                                                                                                                                                                                                                                                            %X XB.6.U O 4 3 h Z F k k e e e c c l l u : : g l l l u p l g g z v v z < , , , 3 h z c v c k < * * @ * ; < < < < g k l g l l g < < < g c K K F c c c c n x n D C C H <.q.#.^.                                                                                                                                                                                                                                                                                                                                ",
"                                                                                                                                                                                                                                                                                                                              ^.Q.[ ' ` ` R K v 3 ; * & - d l c B c g < , * * , , < l l l 3 , , : , < < u u g g < ; > = = = = * = * * 1 1 . @ k | L -.D h 8.6.s.a.a.6.6.s.k.D.uXuXiXpXpXpXpXiXiXtX6XH.oX X                                                                                                                                                                                                                                                                                                                                                          %X.Xl.F.d.O.5 2 r v R z A x x g l D D c l : . . , 3 l h g g c z h h z z g ; = = > < g z c v c c g < * . . * * * * ; e g g g c c g g < < < l D D c l c c c C C Z C v k k N ` X.@.#.'.                                                                                                                                                                                                                                                                                                                            ",
"                                                                                                                                                                                                                                                                                                                          '.#.@.' ] ] G F F Z z < : @ - d A J J z l < , ; * * * , < g l g g < * , > < u g g g g 3 < , , , ; , = = * & & 1 . @ h H c c h t 8.h.f.s.h.s.d.l.<X6X6XiXAXAXGXGXpXpXpXuX9X7X2X X%X                                                                                                                                                                                                                                                                                                                                                      &X|.0X6XJ.k.a.O.2 t b Z C l A x f l B V l l > = o 4 3 h z C J v z h l c z l < = * * = < g z z k l g g < , * * * * * * ; < g l c c c l g < , g l g < , g c z C K Z Z Z N N N M N  .0.w.Q.^.                                                                                                                                                                                                                                                                                                                        ",
"                                                                                                                                                                                                                                                                                                                      '.#.0.<.` ` G N F Z Z s 3 * , 0 j D K F c l < , * * * * * , < < g g < , , , < < g g g g g p 3 3 < < , , > = * 1 * $ . # r c c x g r E g.j.h.f.f.x.G.6X7XVXCXAXAXGXGXGXpXpXsXiXyXS.l.|.                                                                                                                                                                                                                                                                                                                                                      *X0X8XAXP.D.l.g.5.2 t h C A V x x x d i u g 3 = r b = e h g c l g p p l z l p , = * = < g g g l l g l l g < < < < * * * ; < l c c c c l < , g < , * . , g l c Z Z Z Z F v F H F D H X.@.#.`.^.                                                                                                                                                                                                                                                                                                                    ",
"                                                                                                                                                                                                                                                                                                                    ~.@.X.| T R L F F K Z V a % * g n n n n c g < , * * * * * * , < < < < < , , > < u g g g g g g g p 3 < , , , , * $ : $ o 4 r h c l g h U g.C.j.x.x.v.J.bXVX7XiXCXAXGXGXGXpXpXDXCXyXD.c.|.                                                                                                                                                                                                                                                                                                                                                    %XoX8XyXSXSXiX<X1Xg.5.5 4 a B x x l f < > , = = t 1...O 4 ; . * , , , < p g g g ; = = > < g p < e < < < < < g l c c g , * ; < g c n D n c l < g < * . . * , 3 h z z v v C Z Z R R F F H ` ` <.@.Q.(.                                                                                                                                                                                                                                                                                                                ",
"                                                                                                                                                                                                                                                                                                                ~.[ ' ` | T T T J C Z z a a 3 > g x n k e 0 p u , * * * * * * , , < < < < ; , , > < g g l l l g g g 3 3 < < ; < > : : : $ $ 4 a z l l l v U 4.l.c.v.G.J.K.G.J.AXVXCXAXAXGXpXpXpXiXiXyXS.c.XX                                                                                                                                                                                                                                                                                                                                                    .X1XyXVXSXSXAXpX1X1Xk.6.5 4 < u u , * * = = O t 8.B.r.2 O o * , * = > , < p g g < , , < < p < ; , , , * * * < l c D c l g < , < g c c c c c g g , * . . * = , 0 q q r h Z Z Z v v F H H H | >.>.1.0.#.`.                                                                                                                                                                                                                                                                                                            ",
"                                                                                                                                                                                                                                                                                                            `.@.' ` H |  .T R N F Z s p % $ > > l x j 0 ; , < < ; , * * * * * * , < < 3 < < < < < u g l l l l l g g 3 < 3 p 3 3 > > * : . o 4 a z p B V Z Z U h.Z.Z.Z.H.K.J.K.7XVXiXVXAXAXpXpXpXiXiXyXJ.Z. X                                                                                                                                                                                                                                                                                                                                                  /.0XyXVXSXVXAXAXpXsX1XC.k.6.2 O = = = 2 # # O t 5.F.rXF.Y # X * . * * = = = ; 3 3 3 < < < < < 3 3 < < * * * , < g l c D c k < : * , < g l c c g g , * . . * * , ; 8 8 0 e h z z z c k k H -.;.;.,.,.:.<.0.@.[ Q.!.                                                                                                                                                                                                                                                                                                    ",
"                                                                                                                                                                                                                                                                                                      '.#.w.0.` G H R T T R N M h p = $ * , 3 g j j e ; * * > < ; , * * * * * , < < < < < < < < u g g g l c l g g g g p p p g g ; e * @ o X ,.E b z V V Z b U 9.F.A.S.J.J.J.J.J.7XyXiXiXiXAXAXAXbX6XK.P.J.XX                                                                                                                                                                                                                                                                                                                                                  |.1XyXAXAXAXAXAXpXGXuX6XA.k.9.I 2 b ....t t 5 W V.F.F.rXV.O o . & * * * * * * ; g g g < < < < < < < , * * , , e l c D D c l l g * . * * < l l g < * . . 1 * * , : & - - ; ; 3 e e 0 e e j M K ;.2.2. .` ` <.<.0.w.0.[ `.`.`.'.                                                                                                                                                                                                                                                                                        ",
"                                                                                                                                                                                                                                                                                                  (.[ [ X.<.:.T F R T R N N k r = * * * < l j g j j 0 ; * = > > ; , = * * * , , < < < < < < < < u d g l l c l l g g g g p p p e ; # 4 # O U V.rXV.U a p C v t 5 k.C.tXtXD.Z.D.J.6X7XyXyXiXiXVXVX7X2XyXJ.J.z.                                                                                                                                                                                                                                                                                                                                                  |.4XiXAXAXAXGXIXAXpXVXVX7Xc.h.6.6.6.g.a.6.a.d.g.l.k.B.rXV.t o . 1 1 * * * * * < g g g g < < < < ; < , * * > , g l c c c l l l g , * * . * < l l g * . . * * * , , - - - - # ; ; ; < e 0 3 e r h b T 1.>.N | >.>.3.2.:.<.<.' ' @.[ #.#.~.(.                                                                                                                                                                                                                                                                            ",
"                                                                                                                                                                                                                                                                                          [.`.@.@.w.] ]  .2.3.Z R R N k k k 3 * * * ; 0 j x j j x g ; * * = = > , , , = * = , < < < < < < < < g d g g l c c c c g g g g g g g e r 4 r 5 Y V.I.I.I.V.W N e y / 8 2 W h.C.D.D.D.A.J.6XyXyXvXVXVX9X7X2X7XJ.S./.                                                                                                                                                                                                                                                                                                                                                ].XX8XiXpXGXGXGXIXAXIXAXVX7XG.x.j.k.h.s.d.h.h.k.j.f.h.k.F.V...X . 1 . . o . * * < g g g g g < < < , < , * * , < g c l l g g g g u > , * * . * * , < . . . * * * , , > > > * @ # ; ; = ; 4 4 3 3 4 r 4 v  .T R R *.*.7.3.;.-.` ` ' ' ' X.X.@.[ Q.(.                                                                                                                                                                                                                                                                      ",
"                                                                                                                                                                                                                                                                                !.(.!.~.@.@.1.1.7.-.H ` :.1.F b R b r r k e ; = < 0 e 0 0 0 e l g ; * * * * = ; , , , , = , , < < < g g g g g g g g g l c c B B z h g g h z h h h b r t O.aXG.L.L.K.k.Y w ^   ~.g.F.tXD.C.C.C.C.S.J.6X7X7XvXvX7X2XK.H.7Xl.|.                                                                                                                                                                                                                                                                                                                                                |.oX8XuXsXsXsXGXpXPXAXiX7XvX7XH.c.j.x.j.l.l.f.f.l.j.j.j.C.B.g.O @ & 1 * . * * , < 3 < g g g g < < < < , * , < g l c l g < , < > , , * , < , * * * * . . * * * * , > % % > * * ; ; , > 4 4 4 4 4 4 e T T v b R R a Z ,.,.R R T H ` H | -.>.:.<.' [ Q.                                                                                                                                                                                                                                                                    ",
"                                                                                                                                                                                                                                                                            '.`.w.0.X.X.` `  .1.u.Z b C F k k N b b h b h 3 0 j g e ; - - : ; d < : * * * * * , , , , , * ; , < g g g g g g l l l l l l l c B D v c l l c c c c C Z z a W F.L.Y.R.Y.H. X}       z.Z.D.C.C.Z.Z.Z.Z.J.J.7X7X7X7X7X6XK.L.9Xl./.                                                                                                                                                                                                                                                                                                                                                |.1X6XiXiXsXsXDXpXpXAXyX7X6X6X2XS.Z.v.x.c.c.j.j.j.j.c.j.c.F.rXt @ @ @ * * * * ; , < < < < g g < < < , > , < g g l c g < > , : * * : * , g g g < * . . . * * . * < < % > > > > > > , > 4 4 4 4 = = 3 ; M F k N k ; h  .| D F L F H H H H T ;.3.3.<.' [ Q.                                                                                                                                                                                                                                                                ",
"                                                                                                                                                                                                                                                                        '.w.q.2.,.>.>.>.| H | 3.;.R Z b h h | N r r 4 4 4 z c n l < * 1 * : : : , : : = * * * , , , , , ; , < < g g g g g g l l c c c l l c B B C z h h c c v C K V V Z U 8.I.L.R.R.v.oXXX       XZ.Z.Z.c.c.Z.Z.Z.J.6X7X7X7X7X7X6X7XVX2X X).                                                                                                                                                                                                                                                                                                                                                XX6XyXyXCXbXCXCXAXpXAXyX6X6X2XH.D.J.J.H.Z.C.A.A.c.c.S.c.c.F.rX..# o * * * * * , , , < < g g g < < < , , , < g l l l u < , * * * * : ; < l c l g < * . . . . . * < < = > > > > > > , = 3 3 4 = = ; 3 z c h ; e r e r | N h k v v D F H L T *.*.*.3.:.<.@.[ Q.                                                                                                                                                                                                                                                            ",
"                                                                                                                                                                                                                                                                    '.~.0.q.2.3.2.;.R H N M R ,. .M 4 v R F F h 3 e e 4 h D J z h 3 * * * , , : > > > * * * - - ; ; , , , < g g g l l l g g l h c c c c c B D D C v c c c z v D C z A n h W k.J.T.Y.Y.G.oX.X  XXl.M.G.G.v.v.Z.G.H.J.7XyX7X7X7X6XJ.yXCXn.XX                                                                                                                                                                                                                                                                                                                                                  XXK.K.yXbXbXbXVXVXyXyX6X2X2X2X<XP.P.J.G.D.A.A.A.A.C.Z.G.C.D.F.8.2 O * * * , , , ; < g g g g g d < < , , , < g g g g < > : * * * * * * e c l g g < < * . . . . * , ; * - : , < g g e 0 e e ; ; = * = g B z 3 v e *  .,.D g g g h h k c D F L -.:.,.,.:.:.<.@.[ ^.                                                                                                                                                                                                                                                        ",
"                                                                                                                                                                                                                                                                '.`.0.X.<.2.3.;.>.L N N N M H ;.<.k ; k F Z > 4 = ; r k v v b a 3 ; > > * * > > : > > * * ; ; ; ; < < , , < g l l l l l g l h c l c c c c D D D v C D c c c v F F F G j G N 5.D.L.L.T.L.v.oX XoXb.M.v.x.v.G.J.J.J.6XyXyX7X6X6XJ.J.VX7Xj./.                                                                                                                                                                                                                                                                                                                                                  XXK.K.T.vXvXvXvX7X7X6XJ.Z.b.c.c.C.Z.J.Z.D.<XD.D.D.C.x.J.J.tXrXB.5 O = , , , , < < g g g g g g g < < < > , < u g g u < > * * * * * * * , g g l l g ; , * . . . . * * & & : < g k z c e j 0 - ; ; ; 3 g u u = ; = ; :.2.v g g g k e g j c c F H R *.,.3.3.:.<.' ] [                                                                                                                                                                                                                                                       ",
"                                                                                                                                                                                                                                                            `.`.e.1.<.1.1.:.;.-.L v z h h k F ,.,.N h h 3 = > 3 h k z v v h g p , , , = , , , > , , > , , , ; 0 < < ; < 3 g h z h g g k k l h c z c c v D J F J F F D C c c v D T T K G G M W g.C.P.L.L.L.v.b.oXb.Z.Z.Z.S.J.6XyXtXyXyXyX7X7XK.J.P.IXZ.p.}.                                                                                                                                                                                                                                                                                                                                                  }.+XY.Y.vXvX3X3X7XJ.J.D.Z.v.v.x.j.j.j.c.A.D.P.P.I.Z.v.x.H.J.F.rXW O = > < , , < e e h g g g g g p p < < < < u p p p < > : * * * * * * ; ; < 3 < , = * * * . . . . . @ . * ; e c k h g k e e ; e 3 e D v h 3 3 o < -.-.c e e e l k c D D c c c M F L -.:.3.1.>.` ' ] Q.                                                                                                                                                                                                                                                  ",
"                                                                                                                                                                                                                                                        !.[ e.2.2.2.3.:.:.>.-.L F v k e 3 h F :.2.T 3 h = 3 k R T H C z h g 3 < , , , , ; ; , , , , , , , < < g < < < p g h z z c k z v v k v v C D D D J F F K J K J F D D J F R *.:.L M M N E V.I.I.L.L.G.H.Z.Z.Z.S.S.J.J.6XtXiXyX6XyXyX7XJ.J.VXAXz.%.                                                                                                                                                                                                                                                                                                                                                    }.$X3XY.vXvX3X3X2XS.A.C.Z.v.M.x.n.n.n.c.C.J.P.P.I.G.L.M.M.J.I.P.6.5 4 < < < < < e e g e g l z g p < < < < < u p p p < > : * * * * * , , , , , , , = ; , , * . . . . . . * * ; e e h v k e h g 3 ; 3 v F M = = = c -.| g , < < g k c D F F F D D D D G K -.>.:.-.L ` ' ^.                                                                                                                                                                                                                                                ",
"                                                                                                                                                                                                                                                      (.@.<.<.2.1.3.:.-.-.| K F v h g 3 = 3 N ,.,.T h M v R T :.T F z g g p 3 < < < , < < < < ; , , ; < < < g g g g g g h c c c c c M D v z v F F F F F F F J K J K K J F F J L *.;.:.*.D v b b O.k.P.J.Z.Z.H.Z.S.S.J.6XtXyXiXiXAXiXpXAXAXyX7X7XHXl.$.                                                                                                                                                                                                                                                                                                                                                        XX4X6XK.T.T.7X6XS.A.A.C.Z.v.v.v.v.v.x.c.J.yXP.J.J.L.K.v.J.D.F.V.5 3 u g < < < e e e e g l h g g < u < < < u p p p > > : : * * * * , , , * > * * * , 3 g < * . . . X X . . @ * < k h h h e g 3 3 3 h h h = o o M :.L 3 ; < < < g c D F K L L K G D x D G L -.-.K M ` '                                                                                                                                                                                                                                                 ",
"                                                                                                                                                                                                                                                    '.@.<.2.1.>.3.-.-.L H M M D h 3 3 = = 3 b ;.,.T h N T T L v h g 3 3 p g g p < < < < < < < < ; ; < < g g g l l l h z z z z z c M F F v v M H K K J F F F J J F F F F F F J L -.;.*.J F F F E E 9.g.C.D.A.Z.H.S.J.7XyXiXiXiXiXiXpXGXGXVX7X7X9X1X$.).                                                                                                                                                                                                                                                                                                                                                        /.0X6XK.T.T.K.tX<X<XA.Z.Z.v.v.v.G.v.x.v.S.J.tXJ.L.G.L.M.G.I.F.g.5 3 u g g g g g g e g l h h g g g p u < < u p p p < > : * * * : : , , , , * * * * , g l l < , * . . X . . . o ; h e h e = e h g = ; o o o = ; D T F ; ; 3 3 < g l c c F K K K P K G F n c F -.L z R X.)                                                                                                                                                                                                                                               ",
"                                                                                                                                                                                                                                                    [ ` 3.3.:.3.-.K F F D c c c e ; ; = * 3 v T ,.;.3 3 h v h 3 ; 3 3 g g g g p < < < < < < < g < < < u g l l k c c v D C c z z c M F F v v v F J F F F F F F F F F F D D D F K L -.J c K T T ;.,.4.4.6.k.D.D.S.7XyXyXiXpXpXiXuXpXGXIXGXVXiXVX8X$.%X                                                                                                                                                                                                                                                                                                                                                          ]..X1X6XyXtXtXtXtXJ.L.G.v.c.c.v.v.M.v.v.Z.S.J.K.H.M.L.L.G.I.F.4.4 3 u g g g g g g g h z z h g g g p p u u u p u u < > , : : : > > , , , * * * * * , 3 l l l < , * $ . $ $ o o @ ; = h b 4 3 ; 3 3 X = 3 * = k L D k * = g g g l c c B D D D F K K K L L D c D D c F <.^                                                                                                                                                                                                                                               ",
"                                                                                                                                                                                                                                                  [ ' >.-.:.-.*.P K F D D F v g < ; ; = = 3 v | 7.2.h k 3 k 3 3 3 3 g h h g g p < < < < < < g g 3 3 g g l l c c c D J K F C c z c M D D M v v D J F F F F F F F F F F J D D J F F J c K ,.;.R R Y Y W ..a.A.S.S.7X7XyXAXGXIXGXpXpXGXAXpXAXAXAX4X|.                                                                                                                                                                                                                                                                                                                                                              ;X XoX6XyXyXtXtXyXK.H.v.c.c.c.Z.G.G.Z.v.v.H.J.M.L.L.L.G.P.B.W 4 h g g l l g e g g z C v c l g g g p p p p p u < < > > , > > , , , , * * * * * , , < g g g g , * * * > , ; * . . X = e e 3 = 3 v ; k M = = M -.F e @ = g g g l c D D J J F F K G D F L L F k k M M  .] _                                                                                                                                                                                                                                             ",
"                                                                                                                                                                                                                                                [ ' m G ` G G c D P G D F F c < ; ; 3 = o = v ;.t.t.v F h v g g g e g g l l g g 3 p g g p p g g p g g h z z c v D D F K F D c v v M F F F D M v D D F F F F F F F F F F D D F F F c D :.:.F N b t t I +.k.j.j.b.H.H.6XyXpXGXIXGXIXIXUXUXUXUXUXdXjX                                                                                                                                                                                                                                                                                                                                                                ;X$X5XvXSXyXaXaX7XK.J.G.Z.C.Z.G.G.G.v.v.G.H.L.Y.L.L.L.I.6.b h z c c c l l g g c c M c c l g g g g g g g g p u u u < > , , , , , , * * * * * , * , ; < < , , * = = < g g g * o o X X = 3 h 3 g M h ; o h ;.>.v < $ = < p g l c F K P P P P K K K D c D K G c g x ` X./                                                                                                                                                                                                                                             ",
"                                                                                                                                                                                                                                              W.[ ] ` ` n m n F D A D F F c l p ; ; 3 = o = z ;.t.7.h h z D F F k g g l z z g p 3 g g g g g g g g g h z z c v C D D D F D v v D M M F F F F D v M D F F F F F D M D F F F D F F c c L >.F k N b 5 E g.g.d.j.j.n.v.Z.S.6XtXiXiXpXiXpXGXGXGXGXHXKXjXLX                                                                                                                                                                                                                                                                                                                                                                %X$XxXSXSXpXuXtX6X7XL.G.Z.Z.G.G.G.Z.G.M.L.Y.Y.L.L.J.V.Y h z c c c c c l g g M M c h g l l g g g g g g g p u d u < > , , , , , , , * * * * * * * , * * * * * * = p g c c e ; o @ o o . * @ = e 3 = = v ;.>.v , o * , < l c D K L L P L K K F F K F l l n c g j ` | ] _                                                                                                                                                                                                                                           ",
"                                                                                                                                                                                                                                            !.[ ' m G N z C c D c n A D F D j < < < 3 * o 3 h :.t.2.3 R ;.;.H k e g g h z h g g g g g g g g g l h h z z z v v D D D C D D D D F F F F F F F F F F F F F F F F F M M M D D D M v c F 1.N r k r 5 W 8.k.d.f.x.c.v.Z.S.H.6XtXiXiXiXiXpXiXiXiXiXiXDXeX:X-X                                                                                                                                                                                                                                                                                                                                                                ;XeXCXAXAXiXuX9X7X7X7XD.A.Z.H.H.Z.v.M.L.Y.Y.L.T.I.6.b g x c B B B x g l c D M c z h l l l h h l g g g g g g < < , , , , ; , , , * * * * * = * * * * * * * > , < g g h h g ; = @ o o o o o o @ X 4 :.1.;.h $ . $ > p z l c D B D F P J F F K D F D l c c < n >.*.N /                                                                                                                                                                                                                                           ",
"                                                                                                                                                                                                                                          Q.' X.` c F C b Z C D c c D G K D x l p < g ; . = h :.t.,.e T T M g 3 e g l h z h l g h l h h h h h z c c c v v C D D D D v D J J F J F F F F F F F F F F F F F F F F D M c M M c z z M ;.H | M r r E g.h.s.f.x.x.x.x.Z.H.J.6XtXtXtXtXiXiXiXiXiXyXyXiX9X4X0XgX{.                                                                                                                                                                                                                                                                                                                                                              :X0XGXAXpXpXiX9X9X7X<XD.S.S.Z.v.M.L.L.Y.L.L.P.k.E b A x D D D B x l l c c c c h h z z z h l g g g g g g g e < , , , ; < ; ; , * * * * * * * * * * * * * > , < 3 e g e e 3 ; = # = * o . = h h v ;.>.L ; o . . $ * < g c B c B D D D D D D D D c c c l < G =.R R N _                                                                                                                                                                                                                                         ",
"                                                                                                                                                                                                                                        '.' ` 1.K C Z Z z C B B c A P =.=.K D D c g z g . * h ,.t.,.h v c e < e 3 g h z z h l l z z c z z z c v D D D D D D D D D D D D F J F J F F F F F F F F H H F F F D F F F M M M M c k k T | H N N r I g.h.h.N.x.v.x.v.H.v.H.6X7XtXtXiXiXtXuXtXtXuX6X7XiXvXVXpXfXgX                                                                                                                                                                                                                                                                                                                                                                gXdXAXAXpXdXsXiX8X6XD.S.S.S.v.v.M.L.L.G.P.k.Q U M S S A C B c c c c M M c c k k c z z h l g g l h l l g < , : * , , < < < , = * * * , * , , , * * * * = > ; < e e < < 3 4 ; 3 e h k z r v h F -.;.F > . . $ $ 1 : > c B c c B A B B D c D c c c c g , S ` T R b k `.                                                                                                                                                                                                                                      ",
"                                                                                                                                                                                                                                    ].[.q.` >.t.Z Z Z C b v B c D J L -.-.L K K D h c g . = z -.7.;.3 ; ; , e 3 3 g h c z z c c z c z c c v C D D D D D D J F F D D D D D D D D D D D D D F F F H F F F F D D D D M M F M k k c R T N N t t 6.h.h.N.v.M.M.M.M.v.S.J.7XyXiXiXiXiXtXiXtXtXtXuXiXAXCXAXUXPXfX-X                                                                                                                                                                                                                                                                                                                                                              jXdXGXAXpXdXdXsXuX6X<XS.S.S.c.x.v.Z.G.P.C.O.b N D S P J D B c c c M F F D M M M c z h h h z z z z h h g g < , , , < < < < ; , * * = , , , < , , * * * = = , ; < < < ; = ; 4 3 3 h v D M h ; T ;.;.v > . . * * $ : > l B B B B B c c c c c c l c c l ; f G F b Z b r.[.].                                                                                                                                                                                                                                  ",
"                                                                                                                                                                                                                                ].[.r.r.,.R ;.2.s V V l j D G D G P &.-.-.P K J c g g < . , v F 2.:.c c c g h g g g c z c l k c c z z c v D D J D D D D D J J F D D D D D v v v M M v M D D F F F F F F F D M M v c c c c l c F F v R N t 6.a.h.j.x.M.M.v.G.L.G.6X6X7XyXuXtXtXtXuXiXiXtXuXpXpXGXGXpXUXUXHXhXLX                                                                                                                                                                                                                                                                                                                                                        LXjXjXdXHXdXdXdXdXsXuX7X6X6X<XZ.c.x.Z.I.F.B.O.b b v D =.P L J D B B c M F F D M D D M c z z z c c c c z z c l g g < < < < 3 < < , , , , , , , ; ; ; , , * * = , < < 3 < < ; ; ; ; ; 3 g h 3 = ; 1.,.R l > . . * * * > > g B C D B B c c c c g l l g c c 0 >.-.n r b b 8.g.r.[.].                                                                                                                                                                                                                              ",
"                                                                                                                                                                                                                              ].[. XV.8.Y T T *.p l l x n G P K L L &.=.&.L K F c < , = X , v v 2.2.v H M < < < g h z c l l l l c c v v C D F F F F F J J J D D D c C C v c c v v M v v M D F F D D D D F M c c M c c h g h M H D F b b E g.k.j.j.x.M.G.v.G.K.VX7XyX7XyXiXiXiXtXtXiXiXiXpXpXiXpXpXpXUXIXIXfX-X                                                                                                                                                                                                                                                                                                                                                    ].=XjXjXdXIXdXdXdXdXGXGXAXiXtX6XD.c.x.v.Z.C.k.5.N h c c K -.-.&.L J D D F F H F F D M M M M M c v C D v c z z c c l l g < < < g g < < < , , , , , , , ; ; , , = = ; < e e 3 < 3 ; = 4 e h h 3 ; ; b t.2.T c = . . $ $ * > i g B C D D B c c c x u g g , l c u t.2.G r r t 9.g.V.g. X|.=X                                                                                                                                                                                                                          ",
"                                                                                                                                                                                                                          =X%XXX Xg.r.5.b N N ;.; l x x J J &.L &.-.>.-.P L P F c l p < . = z D 7.t.z D c ; < g g g l l l g l l c c v v C J F F F F F J J D J D D D v C v c c v v v v v M D F F D D M M M M c c v c l g g k M D J z b t a.h.s.x.v.v.c.v.J.7XJ.J.yXyX7XyXiXpXpXiXuXpXiXiXpXpXiXuXCXsXGXdXpXfXgX                                                                                                                                                                                                                                                                                                                                                    |.eXKXHXHXdXuXuXsXGXHXHXGXuXuX6XH.v.x.Z.B.a.O.R F x f A L *.>.*.L J J J P K K H F F D D D D D D D C C D D v c c c c l l g g d g g g < < < < < ; ; < < > > , , ; < 3 p g e e 3 3 3 ; 3 3 e 3 ; F v | y.7.| z * . . : : : < u l B J J D B c c c l g g u , < g < 3.3.D g 2 t 6.8.g.g.l.1X,X*X=X                                                                                                                                                                                                                      ",
"                                                                                                                                                                                                                        =X.X XB.k.g.8...r M z :.- l x A J J K K -.>.3.>.P P F F F D z h $ * z T t.y.3 3 ; * < < e e g g g l h h c c v v C J F F F J J J D D J D D D C C v c c v c c c M M D F F D D C c v c c c c k g e g z c z c h 2 U h.s.a.s.x.b.c.c.S.J.J.yXVXyXyX7XtXuXiXiXiXpXiXtXuXpXpXsX9XDXHXdXaXfXgX                                                                                                                                                                                                                                                                                                                                                  gXfXHXHXHXIXdXdXuXiXAXHXHXGXpXuX6X6XH.Z.Z.h.O.b R G S x l D ;.-.-.L J F J F F D F F F F F F F F J D v v D J D v c c c c c c c c l l g 3 < < < < < g g 3 < , , < p g g g g g e 3 4 3 3 3 3 g h k h 3 T y.7.F g $ . * u u > u g c J L L J B c c c l c l < , , , > *.&.l e # t 5.8.g.d.k.C.F.,X.X&X                                                                                                                                                                                                                    ",
"                                                                                                                                                                                                                    -X*X0X,XB.V.k.a.8.,.r h c 3.: l c c D D D L &.:.:.>.=.P K c c c g g * . g F 7.t.3 o ; 3 ; < 3 g z z g g g g h c c D D F F F F D D D D D D D D D v C C D D v v v v c v D D D F D C v v z z z v h g 3 h z h g g ; t +.h.s.s.s.j.C.A.c.c.J.yXT.yXyXyX6XtXtXuXpXpXiXiXuXuXpXpXiXsXDXpXaXaXfXgX                                                                                                                                                                                                                                                                                                                                                  gXdXHXIXIXIXGXpXDXDXHXHXGXsXiXtX6X6Xv.C.k.a.U b H K =.J l D T T L K J F J D D F F F F F F H F F H D v v F F D v z z c c c c x c k g g g g < , < g g g < < , < < p g g g l g g e e < < e g g h h 3 3 2.t.2.v 3 o . ; p > l c c B L =.-.&.K D D D C c g g h ; ; < &.F 3 4 # t 8.8.8.d.g.l.B.A.1X0X.X-X                                                                                                                                                                                                                ",
"                                                                                                                                                                                                                LX-X0X1X<XF.B.V.k.d.8.4.4 g B :.< l c v J D D D S =.>.>.-.&.P D c l ; = o X 3 v 7.t.k 3 g g ; ; < p g l g p g g h l c c c c D D D D D D c M D D J D C C D D D D v v c c c D D F J C C v z z z z z g 3 3 z h h g e 4 I 6.f.i.s.f.j.C.Z.c.x.G.K.T.yXVXpXyXtXtXuXuXaXaXiXaXuXuXpXuX8XsXIXPXaXfX;X                                                                                                                                                                                                                                                                                                                                                  gXdXdXIXIXIXGXGXDXDXDXDXpXiXtX6XH.c.c.j.h.I I t M F P =.L C M F K F F D M D F F H H F F F H F F F F C F F F M c h z c F K F A A c l l l g < < < g g g < < < < < 3 g g g g l g g < < < 3 3 h v R v 3 3.t.,.h = * X < g p c B D L >.-.-.&.K J K L J C h h h < , c -.g @ # O E 8.8.g.g.k.l.B.A.J.tXsX0X*X=X                                                                                                                                                                                                            ",
"                                                                                                                                                                                                              -X:X#X0X1XA.B.c.k.k.g.8.5.= ; B -.> g z c D F F D A =.>.>.=.P F n c < @ o . X ; v 2.t.M e 3 3 ; , < 3 g g p p p g l l l l c c c c c c c c c c M D J D D C D D D D C v c c c A D F D v v z k k h h g < ; < c 3 h 3 3 4 I d.f.i.N.N.x.v.v.c.x.v.L.T.yXVXVXyXiXiXtXtXaXaXaXaXtXuXpXpXiXpXUXaXP.0X%X                                                                                                                                                                                                                                                                                                                                                  hXdXdXIXIXGXAXAXpXpXiXiX9X6XJ.D.v.c.x.h.a.W 5 t h c B &.3.v v D H F D c v F H F F F F D F F F F v F F F F D c k z c F K K F D D c c h l l g < d g g g g g < < < 3 g g g g l g e < < < < 3 h v T h 3 7.y.:.h $ o * g c z B F P &.-.-.=.&.L L K K J J c v c g ; K 2., o # O 5.8.g.g.k.k.l.l.C.S.<X8X0X0X@X*XLX                                                                                                                                                                                                        ",
"                                                                                                                                                                                                          LX:X#XeX8X1X1Xl.c.x.x.k.k.8.5.O $ C -., g g l c D D B D &.-.>.=.D D c c g * * . X ; k 2.t.F e ; = ; ; < 3 g g p p g g l l l c c c c c c c c c c c c D D D C v C C D D v v c c c c D D c c z k k h g g g < = g c < l 3 ; 2 t h.s.U.N.N.x.x.x.v.v.v.L.VXT.VXVX7XyXiXtXtXaXaXaXaXtXuXpXpXIXpXUXP.D.,X|.                                                                                                                                                                                                                                                                                                                                                  hXdXpXpXGXAXAXpXpXiXiX8X6X6XD.Z.c.v.x.j.d.a.I 5 r h D B 2.D v F F F F v M H H F D D D D F F F F v F F F D v v v c v D F F D c D c c c c l g g g g g g g g g g 0 g g g g g h g g e < ; < 3 3 3 h g h 7.7.H h = . p h z z D L L P L &.-.-.-.L J D D C c D z h , -.2.* @ O 5 8.8.g.g.k.l.l.l.c.C.A.1X1XdXsXeXhX-X                                                                                                                                                                                                      ",
"                                                                                                                                                                                                        *XhXfXdX8X<XS.A.C.C.v.c.k.k.g.8.4 O v >.< g z z l l c l c P -.:.>.L F D c l g < @ . * h 1.t.R 3 ; = ; ; < p g g g g g z k c c c D D c c c c c c x c c c v v v v v v v v c c c c c c c c c k h g g g l l e < * k h 3 e ; 4 2 I h.s.U.N.U.N.N.c.n.n.n.M.7XK.VXyX7XyXtXtXtXaXaXaXtXtXuXpXdXPXPXUXVXJ.l.).                                                                                                                                                                                                                                                                                                                                                  0XpXiXpXAXpXpXpXpXuXuX8XtX6XJ.Z.G.c.x.c.f.d.6.5 5 h H c ;.*.v v F H F D F H F M M D F F H F F D D F F F D v M D C C D D c c c D c c c c c l l l l l g g l l l g g l l g l h g g e < < < 3 3 = = 3 D 7.2.F v * X , < u l D L L L -.-.:.>.-.L K J C c z v h g > >.-.. X X E 8.g.k.k.l.B.B.C.C.A.S.<X6XtXVXGXsXeX:X-X                                                                                                                                                                                                  ",
"                                                                                                                                                                                                    -X:XeXsXpXiX<X<XS.A.Z.C.c.k.h.k.8.8.t o h >.g g c c g g g g g A P >.>.&.K F c c c g * . o g ;.7.F @ * = ; < < p g g g g g z j c c M c c c c c c c c c c c c z z c c c z c c z z c c k c c c x k g g g g g g < ; * z e e < ; = # Y k.f.U.N.N.N.N.c.n.b.n.M.7XK.VX7X6X7XyXtXuXtXiXiXtXtXuXuXdXPXPXUXK.N.p.).                                                                                                                                                                                                                                                                                                                                                LX0XiXyXyXpXpXpXiXiXuXtXuXuX7XJ.H.G.x.G.x.f.d.g.O.5 5 b z F :.v h D F F F D D D c M M F F F F D v D F H H F F D F F J D D c c c A c c c c c c c c c x l l k c k l g h h l l l g g e e 3 < 3 3 h h v ,.2.H k h = * * , g c D K L L L -.:.:.-.J D D J C z z g < < :.F X X O 5.8.g.k.k.k.l.l.C.A.S.2X6XJ.J.7XCXAXbXqX0X-X                                                                                                                                                                                                ",
"                                                                                                                                                                                                -X:X#XqXbXAXiX6X6X<X<X<XF.C.B.k.h.d.g.8.U O 4 -.l u g c g p g l g B D L L L L D D c c l , @ . 3 T 7.F X o = ; < < 3 p g g g g h l c c c c l l l x c c c c c x l h z z z z z z z z h l l l l c c x k g g g g g g ; * > z g g e ; . O o.g.f.f.N.x.N.x.x.v.v.M.L.K.K.yXyX6XtXuXtXtXaXaXaXtXtXuXuXuXdXpXiXn.p./.                                                                                                                                                                                                                                                                                                                                                  &XeXVXyXyXpXaXaXaXtXtXtXtXuXyXK.L.G.v.v.x.j.l.a.k.Y 5 r b v >.L z c n D M M v v M M M D F F D D M F F F F F F F F F F J D A c c c D D D D D D M c c c c c c c c l g h h l l l l g g e 3 ; ; 3 z D h 7.2.F h 3 . . < g c D D F L P P -.:.>.P D B B J D z z g , z ,.c X X b 8.g.g.h.k.l.C.C.A.S.8X8X6X6X6X8X6XvXZXZXAXeXhX=X                                                                                                                                                                                            ",
"                                                                                                                                                                                            LX;X#XBXMXMXCXCXVX7X7X8XtX<X<XA.B.l.k.d.g.6.E O O T c < > g d u g l l c c B F K L K F c c l < * * e H 7.T @ = ; ; ; < < p p g g g g l l c l g g g l l c c c c l l l g h z z z z z z h l g g g l c c x k g g g g g p < * 3 z z k g ; @ O ..d.d.f.N.x.x.x.x.v.v.v.J.J.J.yX6X6X6X6XtXtXtXaXtXtXrXuXuXuXuXeXoXXX/._.                                                                                                                                                                                                                                                                                                                                                  &XeXAXAXpXpXaXaXaXtXtX6XtXuXyX7XK.G.M.x.c.c.h.d.d.8.t t t F T >.D x c c c c c M F D M D D D F F F H F F D F F F F F D D v c D D D D D D D D D M c D n c c c c c c g g l l l c h g g e < ; ; 3 h v g y.y.L z 3 o * z h c D D F L P >.:.>.-.F D D J B c h c g , v ,.e X X ..6.g.d.k.k.C.D.<X6X8X8X6X6X8X9X9X9X9XbXSXGXGXdX0X;X                                                                                                                                                                                          ",
"                                                                                                                                                                                          -X*X0XsXCXiXwX9X9XvXbXvX7X6X<X<X<XF.A.k.g.d.6.O.2 O v J < i u l > g c c B D F D D F K F l g l < * o * T y.-.c z < * * = > , < < g g g g g g g g g g g d g l l c l g g g g h z c z c g p g g < < g l c c l 3 p g g p > > o > h h h g = % O E g.a.f.x.N.x.x.x.v.Z.S.J.J.K.K.K.6X6X6X6X6XiXtXtXtX6X1X8XeX0X.X|.).                                                                                                                                                                                                                                                                                                                                                      &XeXIXAXAXyXtXaXaXuXtXtXtX6XyXVXK.L.v.v.v.c.c.j.d.g.6.5 b R | T K l c h D M M D M v M D F F H L L F F F F F F D D D C v C C v C D F F D D D D D D D D D c c c c l c h g g l c j g g < < , ; = * e F y.7.F g * * 3 l g x c D D L &.>.:.:.P A c c c l l c c c < *.| @ X # 4.6.g.h.k.C.A.D.D.<X8X1XS.2X9XZXFXFXMX9X9X9XsXwXwX#X:X-X                                                                                                                                                                                      ",
"                                                                                                                                                                                      &X*X0XfXuXAXAXiXwXwXMXbXnXvX7X6X<X<XA.A.c.l.k.g.8.5.t X h T * u u u , d l l c D F F P K L K c l g , . . @ | y.>.e 3 e > , = = > , < < g g g g g g g g g < < < 0 g g g g g p 3 g l h z z g < 3 < < < g l c l 0 < < p p p 4 > = g F K D h = o O E g.a.a.U.N.x.x.v.v.Z.S.D.D.H.H.H.2X2X8X8X8XpXtX6X8X8X1X1XoXXX&X                                                                                                                                                                                                                                                                                                                                                          ).0XGXpXAXpXpXpXaXuXtXtXtXtXyXyXK.K.H.G.v.x.x.c.j.h.g...t b b | -.c l c c M M v M v M D F F F F H F F F F F D D M v v v v C C D D F F D D D D F D K F D c x c c l h l g g l x l g g < ; = = o X = L y.2.v < . X * . * l c D A J P >.:.-.J x g g g l c l g , < -.D X X b 5.6.d.k.C.C.Z.A.A.S.2X8X2X9XbXZXZXCX9XwXeX9XwX9XMXwXeXeX:X&X                                                                                                                                                                                  ",
"                                                                                                                                                                                  LX:X0XeXiXuXuXpXuX9X9XMXMXMXbX7X6X6XJ.S.b.n.l.B.l.k.k.g...X 3 :.* : : : , g g g c D F F P K L K A x d * * * @ v y.;.= o * $ = * * = > , < < 0 g < < g g g 0 < < < g g 3 < < g g g g g g l h g g p < , , < < g < , > < l c c z p $ > g 3 ; @ X X O W g.+.i.f.j.f.N.x.c.c.S.D.<X2X1X1X1X1X4XeXeXuX4X1X1X1X1X0X.X                                                                                                                                                                                                                                                                                                                                                              ).@XsXiXpXpXpXpXtXpXiXiXiXaXiXVXyX7X7X7XG.v.v.Z.c.f.h.a.I Y R H D M g c l M M c M v D F F F D F F H F F F D M M c v c c v C C C D F D D D D F F F K F c c c c x l l g g g l l g 0 < ; , ; ; = * 3 :.y.:.z ; . X o . : c c D F &.-.:.>.&.A l u u u g l , < , c L ; O O ..8.g.k.B.C.C.A.A.S.S.8X8X9XbXnXCXCXiX9X9X9X5X5X5X5XqXwX9XeX@X-X                                                                                                                                                                                ",
"                                                                                                                                                                                ;X0XwXAXAXAXiXiXiX9X9XvXbXMXMX9XuXtXtX6XS.c.n.n.l.l.B.B.g.6.2 # ,.l : & * > g g l c D F F F F F D D c g < < , * < :.T = , * * = * * * = , , ; < g g g g d < < < , , e g g g l l < 3 g g 3 g h h < , * * , < g l x g < > > > : $ = o = g e ; @ @ O 2 I g.a.+.+.p.z.z.z.z.XXXXXXXX.X|.|.%X;X;X;X*X*X*X*X*X|.%X-X                                                                                                                                                                                                                                                                                                                                                                {..XdXsXuXiXpXpXaXpXpXpXpXiXiXiXyX7X7XK.L.G.H.G.c.f.h.h.O.I N F F F k k l v M c M c M F F F M M D F F D M v c c c c c v v C C C D D D D D F F F P F D c c c c l l g g g g l l g 0 < , < ; ; ; = 3 2.y.;.h = X X * * g c c B J -.-.&.P A x g u u u g g , < , L D X X t 8.g.B.l.C.C.C.A.D.S.6X6X9X7XbXnXbXiX9X9X9X7X5XxXxXxXbXbXMXMXBX#X*X&X                                                                                                                                                                            ",
"                                                                                                                                                                            -X:XeXsXpXpXpXVXbXnXvXvXvXxXbXbX9XiXuXuXtX6X2XS.S.c.A.k.k.g.g.8.Y O ;.&.& , , g g g c D P P F F D D D D D l g g < * * c F * g < ; = * = * = * , , ; e g l l g < , , , , < g g g < < , , ; ; > , < > < > * * : < g g * * * * > < < < = $ * e e q + + O O 2 r.$.%.%././._._._.).                                                                                                                                                                                                                                                                                                                                                                                                      .XeXdXdXuXpXiXiXyXiXiXiXiXiXaXyXVX7XJ.J.L.G.v.v.x.f.f.d.I t v K F M e h k c M v c M F F D v D F F F M v c c c c c v v v v C D D D D D D D D F F D D D D c c l l g g g g g g g 0 < ; < ; ; , 3 v 2.t.L g * X . < < l c B D L P L D c l l l g g g g g g , , -.x X O O.g.V.B.k.C.A.C.A.S.2X6X6X6X6XCXbXbXbX9X9XbXvXVXZXZXbXbX5XqXwXwXwX#X@X>X                                                                                                                                                                          ",
"                                                                                                                                                                        LX*X0X9XAXAXpXpXCXbXcXcXxXxXbXvXvX9XiXsX9X6X6X6XS.A.A.C.A.l.k.k.k.g.O.X v >., i l c c h D F K F D D D A F F D c g l g * . < L $ = * ; * * * * = * , : : < g c c l < * * * * * * ; < , , = * = < l v v c < , * * * : , , : : * , > u p < , * @ ; q q + + + + + } /./.                                                                                                                                                                                                                                                                                                                                                                                                                    %X0XfXdXuXiXaXaXaXpXiXiXiXiXyXyXiX7XyX6XG.x.v.M.x.i.a.k.O.5 h k c M 3 g e l c c z c v v M M D F F F M c c v v v c v v v C D D D D D D D D D D A c c D c c l g g g g e g g g g 0 ; : , ; ; ; e F 2.7.F e @ . , l l c B D J &.L J F D c c c l g u , : , * c >.0 X t 8.g.k.l.l.B.A.C.C.A.D.6X7XiXiXAXCXbX5X3X5XvXvXvXSXSXSXbX9XqXqXiXCXnXxX#X:X=X                                                                                                                                                                      ",
"                                                                                                                                                                      =X.X0XuXDXCXbX5XxXMXbXbXvXxXxXvX9X9XiXCXAXvX3X7XK.S.D.F.F.F.B.l.l.g.g.5.2 o -.V i l x c c c D F D D D D D K F F c x l g , * * T ; o o = = * * * * = ; : : ; < l l g , * * . . * * < g g g < , = > > ; , * * * * * * , < < , , - : : , , : ; - - 8 q w 8 9 !                                                                                                                                                                                                                                                                                                                                                                                                                               -X0XfXfXuXpXtXyXyXpXiXaXpXaXaXAXyXyXyX6XZ.x.v.M.U.i.s.h.+.5 4 k j x h e < g k k z z v v v v D F F M c c c v v v C C C v C D J D A A c c c c c c c c c l g g g < g g g g g g 0 0 0 : ; * @ . * k 2.2.z ; . o < l l x c D D P P J P F B l g g < : * 1 . * -.L * o 4.g.g.g.B.B.A.A.A.A.D.6X6X7XVXCXiX9X9X3X3XzXxXxX3XvXVXCXCXCXCXCXCXCXCXCXCXwX0X*XLX                                                                                                                                                                  ",
"                                                                                                                                                                  &X*X@X8XiXiXiXiXbXxXxXkXxXbXbXxXxX5X9X9X9XiXbXCXvX3X7X6X6XP.D.F.A.B.k.d.g.5.Y X P P , u u h g c A D A D F J F K F F F c c g ; * X c g * * o * * * * = = ; ; ; ; ; , , , * * * , ; < g g < , , @ * = = * , 3 3 ; , > = , , < < : - - - , - - - + 8 7 7 ! _                                                                                                                                                                                                                                                                                                                                                                                                                                       gXhX0XuXpXtXaXyXiXyX7XiXyXyXAXVX7X7XJ.Z.v.v.N.U.f.i.f.g.E 4 e g j M ; < e g k k k z v v v F F M n c k c c c c D J D C C J F D c c c c c c c c c c c g g l l g g g g g d d d 0 ; : , , * . @ c 2.2.h * @ * g g g c D &.L &.K K L P A l l l g < : : * g :.< X r 8.g.g.k.l.B.F.<X<X6XtX6X6X6X6X6X7X7X9XzXxXxXxXxXvXvXbXbXCXCXCXCXvX9XCXAXVXVX9XeX@X;X                                                                                                                                                                ",
"                                                                                                                                                              =X.X@XeXqX9XbXCXbXbXvX5XxXxXbXvXvX5X5XvX9X9X3X3X9X9X9X6X6X6X6XtXtX<X<XA.k.d.d.6.,.o ; P : * < ; ; l c D A D D D H F H F M c c g * * 1 : B $ * o o @ o . . o @ @ o - : : ; ; ; , : * * : : > u u : @ @ @ * * ; 3 3 ; ; > > > > * , : * , - - 8 w 7 9 ! )                                                                                                                                                                                                                                                                                                                                                                                                                                               %X@XDXVXaXAXuXuX9X7X7XVXiXiXVXvXK.L.Z.Z.v.x.N.U.f.f.d.5.4 # e r r r = e r h k k h h b v v F N k k k k c c v v C C C Z Z Z J v M v c z h k c M D D M z k h z l g g g g g d d : , 0 - - ; e k y.t.e @ o @ @ < p z F *.*.K K J D G J C z z z l l g . -.` X X ..6.a.d.l.A.<X1X<X<X6X6XS.Z.2X6X7X7X6X7X3X3XzXxXbXbXbXbXbXbXbXbXbXcXbXbXbXiXiXpXiXeX0X*X&X                                                                                                                                                            ",
"                                                                                                                                                          &X;X.X4XvXvXvXbXbXbXMXbXvXvXvXbXbXbXbXbXbXvXvX5X3X3X6X2X2XH.Z.S.6X6X<XD.D.A.l.h.d.6.O.2 X c < * * < ; < k M D D D D P K F J D D c g ; . . * c * * o o . @ * * , e g < ; ; ; ; ; * * * * . * * u g g < * * * * * ; ; 3 ; e 3 = > < > * - - + 8 9 9 ! W.                                                                                                                                                                                                                                                                                                                                                                                                                                                    LX*X4XyXaXP.iXpX9X9X7X7XyXyX7XK.L.G.Z.Z.x.x.N.N.f.f.d.O.O 4 4 e r k ; 3 3 h h h h h c z c M M n c k c z c c C C C C C C C c v M v c c l z z c c c c c k l l g g p p p < < < 0 ; : : e j r h y.2.e @ * * * p l z D J J D J J G G D c c c c z l u l 2.< O r 4.6.a.d.l.A.<X<X<X2X<X6X6X6X9XCXCX7X3X3X3X7XvXvXvXbXbXbXbXbXbXbXbXbXnXMXMXsXiXiXCXVX9XeX@X;X=X                                                                                                                                                        ",
"                                                                                                                                                      =X*X.X@X@X4XvXvXbXbXbXFXFXbXbXvXbXbXbXbXbXbXvXvXvX3X3X8X9X6X2X2XH.6X6X6X<X<XD.A.C.j.g.6.4.b X * c , * ; 3 4 b v v A D J L L J J J F h ; * @ . @ l g < * . @ , < : * * * * = = = = > > > > > > > > p p p > : : : * * : : - - - - @ - ; : - 8 6 7 9 (                                                                                                                                                                                                                                                                                                                                                                                                                                                             =X.XeXGXAXaXiXtXtXyXyXaXP.yX7X7XD.A.C.l.j.s.f.f.f.k.6.2 2 a a a z > = < l l l g f f x f A C C B V B B B c c c x x j j j j x c c c c j l c l g l j x x x g g a p 3 3 ; ; ; * > < > = = = 3 2.H * $ u u u l c D A A m S S S S S S A B l g l > * D F X O Y 5.6.d.k.l.l.A.S.2X8X8X6X9XCXAXVX9X7X7X3X7XvXbXvXvXbXbXbXvXvXvXbXbXbXMXDXDXDXsXCXCXvXbXxX+X$X.X;X&X                                                                                                                                                    ",
"                                                                                                                                                  =X;X.XoX4X4XeX5XvXbXbXMXMXFXFXbXbXbXbXvXbXbXMXbXvXvX5X3X3X8X9XCXCXiX9XuX9X6X6XD.C.C.c.j.h.a.6...2 X c C * * h h b z h c n J L -.L J C c 3 = * * X X ; j j ; @ . * * * : > : : = = = = = > > > > > > u 4 4 p p > : : : : > : , q & 8 q q + + 7 7 !                                                                                                                                                                                                                                                                                                                                                                                                                                                                     =X.X@X1X4X8X0X0X1XrXtXtX2X1X1X1X,XA.l.l.j.n.j.f.k.k.t O 4 4 a b p > > u l l g f f f f x B V V z c z B c c x x j j e 0 e j l x c c l g g g g g g x x l g g r 3 3 = = = = , * * * > ; * * -.; . $ l l l x A G G S m S S S S S J A g < > , * * D o O 5 4.6.d.d.k.l.l.l.c.S.6X6X8X9XiXiX6X2X2X3XbXbXvXvXvXvXvXvXvXvXvXvXvXbXbXFXDXHXDXDXFXFXnXvXxXxXqX#X@X.X;XLX                                                                                                                                                ",
"                                                                                                                                              LX;X.XoX4X4X6X7XvXvXbXFXFXFXFXFXFXMXbXbXvXvXvXbXbXbXbXvX5X7X3X3X2X9XVXCXiX9X6X6X6XC.l.k.j.f.d.a.6.5.b O = -.g * g h h h e h n F L ;.L v p u > u u , * o @ g c l 3 3 > > p p > i > < ; ; ; ; ; ; ; , , < > > > > < = # = > > u i i , & 6 7 7 7 ! (                                                                                                                                                                                                                                                                                                                                                                                                                                                                           {.%X%X;X;X%X%X|.XX.X X X.X X X,X Xl.j.f.f.N.j.h.g.W O # 4 h h 3 = = 3 e h h 3 g h h h c l g g g l z c z z z h h e r h h h l z l p < > g g g g g g g g e e < ; * @ @ @ @ @ @ @ ; < - ; L * 1 : l l x x m G G G M G F D F F D g < ; ; * o l e O O W 8.6.a.d.d.k.j.l.c.S.6X6X2X6X6X6X6X6X6XbXFXFXbXvXvXvXvXvXvXxX5XvXbXCXZXFXFXFXFXNXNXNXnXnXnXZXFXbX5XoX@X*X;X                                                                                                                                              ",
"                                                                                                                                            ;X.XoX4X9XbXVXVXCXZXCXFXFXFXFXFXFXFXMXbXbXvX5XvXvXvXvXvXvXvXvXvX8X3X2X6X9X9X6X6X6X6XD.C.l.j.f.a.a.6.4...O o M T g ; 3 g e e j c M N M v h ; , u p g d e , $ * 3 h h h e < q q 8 q q 8 8 q q q q q q q - - - ; ; - - # # q q 8 + + 6 6 9 ~ ( E.                                                                                                                                                                                                                                                                                                                                                                                                                                                                                                        =X=X=X%X%X|./.XXp.p.z.$.d...O # e h h e @ @ 4 e h r 4 3 4 h h h g e < < g l z z z h g 3 4 3 3 h g p g p < 3 < 3 3 p g g g g g < ; ; - * @ @ @ + o @ @ 1 o @ ; D . . * d g n G n D G D F F F D F J v h e e ; @ g F O O t 4.6.a.a.d.f.j.c.c.S.S.S.S.H.2X2X2X6X7XvXFXHXFXbXbXbXvX5XvXvXvXvXbXFXFXJXJXJXFXNXNXNXNXNXFXFXHXFXCXCXbX4XoX@X.X&X                                                                                                                                          ",
"                                                                                                                                        ;X.X1X1X8X9X3X3XbXZXZXAXFXFXFXFXFXFXFXFXFXMXbXvX5XvXvX5X5X5X5XvXbXCXbX9X2X6X6X6X2X2X2XS.<XS.C.c.f.f.a.+.+.5.t O # T l , : < u d f x f g g g g 3 e e e e l l u > $ * = 3 q w w ! ! ! ! 9 9 7 9 7 7 7 7 7 7 7 6 7 7 7 6 7 7 6 6 7 9 ~ W.                                                                                                                                                                                                                                                                                                                                                                                                                                                                                                                                      _._.} $.#.+ + & 0 j n ; * * < g e 3 3 3 e e l g < < < u g g g g g 3 < ; < 3 3 < 3 e 3 < < < , < < g g e g 0 < , , * & * & & - @ o X * = * ; 3 X X @ = 3 v F c D J P J D A B V V V V z l < ; L D X O E 9.6.a.a.d.j.l.c.A.S.2X2X2XH.2X2X2X2X7XbXFXFXCXbXCXbXvXvXvXvXvXbXbXFXFXHXJXJXJXJXNXNXNXMXDXHXHXGXGXAXAX9X5XqXoX X.X-X                                                                                                                                      ",
"                                                                                                                                    ].|.oX6XyXVX7XbXnXnXnXFXGXDXHXFXHXFXFXFXFXFXFXFXbXvXvXbXvX5XvXvXvXvXbXFXFX9X6X6X7X2X2X2XH.S.A.A.A.c.j.f.d.+.+.O.W O X r c > * u u d d i , , f g e e e r r k c l d j 8 8 6 9 ^                                 Q._ _ ) ~ ~ ~ )                                                                                                                                                                                                                                                                                                                                                                                                                                                                                                                                                             _ ! 7 6 7 9 6 + + 6 8 8 + + + # - 0 0 ; : : : , < < < < < ; ; < 3 3 e g g e , ; * : , < g l g g g u i : & & & + + + + + + + + 8 y 8 + + + @ * h c b C J &.P A S x V a a l l u f n L = O U O.O.6.+.a.d.j.j.c.A.2X8X2XS.H.2X7X2X7X6XbXbXbXvXbXFXbX3XvXbXbXbXvXvXbXMXFXFXFXJXNXNXNXMXDXHXHXHXIXIXHXZXHXZX9X9X6X1X0X*X].                                                                                                                                  ",
"                                                                                                                                  *X.X.XoX4XvXnXnXnXNXNXFXDXGXGXDXFXFXFXFXFXFXFXFXFXbXbXbXbXvXvXvXbXbXbXCXFXAXVX6X7X2X2XH.G.G.H.S.A.c.j.f.f.a.i.+.O.O.t X o h 3 o > < > : 1 1 i d x c c c c k l l j w 9 ! ~                                                                                                                                                                                                                                                                                                                                                                                                                                                                                                                                                                                                                               E.( ~ ~ ! 9 7 7 7 7 6 8 + # + + @ ; e < 3 g p p p p 3 3 < > < > * * : * * : u g g d u i i : & & + 6 6 7 9 9 ~ (     E.! 9 7 7 q 0 u p p 3 g M G A x S x d u , 0 & - G ; X t ..O.9.a.a.d.h.l.c.c.S.S.S.S.S.S.H.H.2X2X2X7XvXvXbXbXbXvXvX3XvXbXvX3XvXbXFXHXHXDXMXMXFXFXFXDXGXHXHXHXHXHXHXCXHXIXGXCX8X4XoX.X%X].                                                                                                                              ",
"                                                                                                                              ]..X1X1X1X4X5XxXnXnXNXFXFXHXHXGXHXHXFXFXFXFXFXFXFXFXbXvXvXvXvXvXbXbXCXFXCXCXFXDXCX6X7X2X2XJ.H.G.H.S.S.A.c.j.f.d.a.a.+.O.W 5 O ; k o = $ X X & , & d g l d f x m j w 9 ~ )                                                                                                                                                                                                                                                                                                                                                                                                                                                                                                                                                                                                                                                         [ _ ! 9 9 7 6 + 6 6 + + + + # - - - q q q & + + + + & - & - & & q w w 7 7 9 ~ )                       ) ! 9 9 q - 0 e ; ; d d , g g , - & @ j h o # Y 4.+.6.a.f.h.j.j.c.c.S.S.S.Z.S.H.H.2X2X2X3X3X3X9XvXvX9X3X3X3XvXbXvXvXvXFXFXsXdXsXMXMXNXFXFXAXDXHXHXFXFXNXFXFXHXGXAXAXiX8X4X2XoX.X%X                                                                                                                            ",
"                                                                                                                            ;X.X1X6X2X3XxXxXxXcXMXMXDXHXHXHXHXHXFXFXFXFXbXFXFXFXFXbXvXvXvXvXvXvXvXbXbXbXbXbXVXbX7X7X7X7X2XH.G.b.H.S.S.c.c.j.f.d.a.+.O.O.U O O 4 h @ X $ > $ $ p < < 0 0 q w 9 ! (                                                                                                                                                                                                                                                                                                                                                                                                                                                                                                                                                                                                                                                                             E.) ( ~ ! ! 9 9 9 7 7 7 7 7 6 6 6 6 6 7 7 6 7 7 9 ! ~ )                                         ( ! 9 w q d > : * = o # 3 @ 4 b O O t ..9.+.6.d.d.f.f.f.j.j.c.n.c.b.S.H.J.2X2X3X6X3X7XvXvXvXvXvXvXbXMXbXbXvXbXbXFXsXwXwXwXbXnXZXZXVXCXFXFXNXNXNXJXJXFXMXwXwXwX9X6X3X2X+X$X*XLX                                                                                                                        ",
"                                                                                                                        LX%XoX4X6X6X7XbXcXnXbX5XwXDXHXHXGXHXJXHXnXbXbXbXbXbXZXFXFXMXbXvXvXbXvXvX3XvXbXvX7X7X7X7X7X7X7X7X7XH.M.v.v.n.c.j.j.h.f.f.a.a.+.O.E t O O 4 e @ . ; = o * @ + 8 7 9 ~                                                                                                                                                                                                                                                                                                                                                                                                                                                                                                                                                                                                                                                                                                                                                                                         [ ! 7 8 + + @ X o o # b 4 X 2 U 4.9.9.a.d.d.l.j.l.c.S.c.b.S.b.S.H.J.2X2X6X9X3X7XvXvXvXbXvXbXFXFXbXbXvXbXbXFXDXwXwXbXbXnXZXZXvXZXZXZXnXNXNXNXJXFXwXqXqXwX9XVXvXvXvX5XoX.X=X                                                                                                                      ",
"                                                                                                                      &X.XoX3X2X5X4XxXbXFXZXCXCXDXHXHXHXFXFXFXHXbXvXbXbXbXbXbXFXMXFXFXvXvXbXMXbXvXvXbXbXvXvXbXbX7X7X7X7X7X2XH.b.v.n.c.c.l.j.k.h.d.i.+.+.O.E U 5 O r c ; . 1 & + 6 6 9 )                                                                                                                                                                                                                                                                                                                                                                                                                                                                                                                                                                                                                                                                                                                                                                                                   ( 9 7 + + X X 0 4 X 5 U E O.9.6.a.d.f.f.j.j.n.c.j.x.n.b.S.H.J.2X7X6X9X3X7X7X7X7X7XvXbXbXbXvXvXbXbXFXFXFXNXbXbXbXnXnXnXnXZXZXnXbXcXBXBXNXNXMX5XqXwXMXFXCX9X8X8X1X XoX*X                                                                                                                    ",
"                                                                                                                  LX;X.XoX3XzX3X5X4XxXbXDXCXCXbXFXFXFXNXbXbXCXFXbXvXvXbXMXbXbXbXbXFXFXvX3XbXFXFXbXbXbXbXbXbXbXbX7X7X3X7X2XH.M.v.v.v.v.A.C.l.k.j.f.a.i.+.O...E Y t # e y + + 6 6 ~                                                                                                                                                                                                                                                                                                                                                                                                                                                                                                                                                                                                                                                                                                                                                                                                               ( 7 7 ^ 7 X r Y ..4.O.9.a.a.d.d.f.j.j.c.c.c.n.b.H.H.H.J.2X7X6X6X3X7X7X3X3X3XvXbXbXvXbXbXbXbXbXbXFXZXnXbXbXMXbXvXCXFXZXnXvXxXxXMXBXBXbXxXxXxXbXNXbXCXuX4X0X4X6XoX%X=X                                                                                                                ",
"                                                                                                                =X*X0X8X8X2X3XMXbXbXbXDXCX9X9X5XMXBXMXcXxXvXbXZXbXbXvXbXMXbXbXbXFXMXbXbXbXbXMXFXbXvXvXbXbXbXbX7X7X7X7X2XH.H.G.b.v.c.c.C.C.k.h.h.f.a.i.+.+.O.O.O...Y Y y ^ _                                                                                                                                                                                                                                                                                                                                                                                                                                                                                                                                                                                                                                                                                                                                                                                                                               W./ o.o.O.O.a.a.s.h.h.f.j.n.c.Z.Z.H.2X6X2XH.H.2X2X7X7X3X3X9X7X3X3XvXbXMXbXbXFXFXbXbXbXZXZXbXbXMXwXwX4XbXbXCXbXvXvXbXMXMXMXcXxXxXcXnXbXvXCXAX9X8X4X4X4XoX.X;X                                                                                                              ",
"                                                                                                              ;X.X4X6X7X9X9X4X4X9X9XiXCXsX9XbXMXxXxXxXxXxXbXZXFXFXbXbXFXMXbXbXMXFXbXbXFXFXvXvXbXbXvX3XvXbXbX7X7X7X9X7X7X2X2XJ.J.v.v.c.c.l.j.h.f.f.f.a.+.+.+.+.5.O.o./ _                                                                                                                                                                                                                                                                                                                                                                                                                                                                                                                                                                                                                                                                                                                                                                                                                                       _ } $.+.a.s.s.j.h.l.l.c.A.S.H.2X2X8X2XH.H.J.2X2X2X2X7X3X7X3X7XvXbXFXbXbXbXbXvXbXCXZXZXbXbXwXwXqX4X5X9XvXvX7XvXCXFXMXMXNXnXnXnXnXbXCXbXvXbX9X2X1X4X+XoX.X;X                                                                                                            ",
"                                                                                                          LX*X@X#X2X6X9X9X9X9X9XMXbXbXbXbXMXFXMXMXNXbXxX3XzXbXFXbXbXbXbXbXvXbXMXbXbXbXFXFXbXbXNXcXxXzXzXvX7X6X6X2X2X2X2X2X2XJ.7XK.L.M.v.n.n.j.h.h.s.a.a.6.6.6.+.} _ W.                                                                                                                                                                                                                                                                                                                                                                                                                                                                                                                                                                                                                                                                                                                                                                                                                                            } } $.d.h.k.k.l.l.c.A.C.C.S.7X6X6X6X2X2X2X2X2X3X3X3X9XvXvXvXvXxX3XvXbXFXbXvXbXCXbXbXbXbXMX9X5X3X5X3X3XvXbXCXbXNXMXbXbXxXzXbXbXbXbXvX3XvXvX5X2X4X8X4XoX@X-X                                                                                                        ",
"                                                                                                        =X.X0X9X5X7X9X9X9X9X9X8XCXDXFXbXbXvXbXbXbXFXNXbXxX3XzXxX5X5XvXbXvXxXvXbXbXbXbXbXbXbXbXNXcXxXxXbXvXvX6X6X2X2X+X+X2X2XK.7XJ.L.M.v.n.n.n.c.j.h.h.g.6.$.$.} W.                                                                                                                                                                                                                                                                                                                                                                                                                                                                                                                                                                                                                                                                                                                                                                                                                                                  _.} $.z.k.k.l.l.l.c.C.6X7X6X6X6X6X6X6X6X3X2X3X3X3X3XvXvXvX3X3X3XvXbXbXvXbXbXbXbXvXvXvXbXvX3X3X3X3X3XvXbXFXNXbXxX3X3X3X3XzXbXnXbXvXzXvXvXvX5X8X8X9X6X1X0X-X                                                                                                      ",
"                                                                                                    LX;X.XoX4X6XvXvXvX9X9X9X8X6XbXCXFXbXvXvXvXvXvXnXFXnXvXzX3X3X3X3XvXvXvX3XvXbXbXbXvXvXbXvXvX5X5X5X9XbXbX7X7X6X2XOXOXOX3X3X7X7XK.H.v.v.n.n.n.c.l.l.g.d.r.} }                                                                                                                                                                                                                                                                                                                                                                                                                                                                                                                                                                                                                                                                                                                                                                                                                                                           _.$.p.k.c.I.G.v.v.b.2X8X2X7X3X3X3X3X7X7X3X3X3X3X3X3X3X3X3XxXvXvX9X7XvXbXvXvXvX3XvXvXvX3X3X3X3X3X3XvXvXvX5XOXOXOX3X5XbXnXNXbXvXvXvXvXbXvXzXxX9X8X1XoX@X*XLX                                                                                                  ",
"                                                                                                  -X;X.X@X4XvXvXvXvXvX9X5X9X7X7XbXCXCXbXvX3X3X3X3XvXbXvX3X3X3XxX3X3XbXbXvX5XvXvXbXvXvXvXvXvX3X2X5X4X8X9X9X7X7X3X3X3XOXOX3X3X7X7X3XH.b.c.c.n.n.l.l.h.d.$.%./.                                                                                                                                                                                                                                                                                                                                                                                                                                                                                                                                                                                                                                                                                                                                                                                                                                                                /.$.k.Z.Z.b.v.b.b.b.m.m.OXOX3X3XvXvX7X3X3X3X3X3X3X3X3XvXvXvXvXvXbXbXvXvX5X3X3XvX3X3Xm.3X3X3X3X3X3X3X3XOXOX3XxXbXbXbXbXbXvXvXvXvXvXvXxXxX9X4X4X4X4X@X@X-X                                                                                                ",
"                                                                                              LX>X#X#X+X3XvXSXSXbXvXvX5X5XxXxXvXbXbXbXvXvX5X3X3X2X3XxX3X3X3X3X3X2X3XvXbXvXvXvXbXbXvXvXvXbXvX3X3X4X8X8X9X7X7X3X3X3XzXOX3XxX3X2XH.2Xm.b.b.n.c.c.l.j.z.$./.                                                                                                                                                                                                                                                                                                                                                                                                                                                                                                                                                                                                                                                                                                                                                                                                                                                                      ].z.j.l.c.n.v.M.M.v.b.+X+X2X7X7X7X7X3X9XvXvX9X7X3XH.7X7XvXbXbXvX3X3X3X3X3X3X3X3Xm.m.2X3X3X3XvXvXvX5X3X3X5XvXvXxXxXxXbXbXvXvXbXvXzXvXxXvXxXbXbXvXzX4X0X*XLX                                                                                            ",
"                                                                                            -XhX#XkXxXzXvXvXvXZXbXvX5X5XxXzXxXcXbXbXbXvXvXvX3X3X3X3XvXxX3X3X3XOXm.3X3XvXvXvXvXvXbXbXvXvXvX9X3X3X2X8X9X6X7X3X3X3XkXzX3X3X5X2XH.b.b.b.n.b.b.c.l.l.z.$.].                                                                                                                                                                                                                                                                                                                                                                                                                                                                                                                                                                                                                                                                                                                                                                                                                                                                          }.XXz.l.A.v.v.M.b.b.1X2X2X7X7X7X7X9XbXbXbXbXvXvXH.3X7XbXbXvX3Xm.2X3X3X3X3X3X3Xm.2X3XvX5X5XvXvXvX5X3X3X5XxXvXvXbXvXbXbXbXvXvXxXxXbXbXbXxXcXcXmXvXvX8X0X*X=X                                                                                          ",
"                                                                                        &X*X@XeXqXxXxXzXvXvXvXbXbXbXxXxX3XzXxXcXbXbXbXbXvXvX3X3XvXvXvXvXxXxX3X3Xm.m.3X3X3X5X5X3XvXvXvXbXvX3X3X3X7X7XvX7X3X3X3X3X3XzX3X3X3X2XS.b.b.b.n.v.b.c.l.z.$.].                                                                                                                                                                                                                                                                                                                                                                                                                                                                                                                                                                                                                                                                                                                                                                                                                                                                                /.XX1X<XC.c.Z.H.H.H.2X2X2X3X9X9XbXbXbXbXvXbX3X3X7XbXvX3Xm.m.m.3X3X3X3X3X3X3X3XvXvX3X3X3X3X5XOXOX5XxXbXbXbXbXbXbXbXxX3X3XxXvXCXAXZXnXcXxXxXzXvXvXbX4X@X;XLX                                                                                      ",
"                                                                                      &X:X#X4X9X9X9XbXbXvXvXbXbXMXMXxXxX3XkXzXxXbXbXbXbXvXvX5X3XvXvX3X3X3XxX3X3Xm.m.3X3X3X3X3X2Xm.2X3XbXvX3X3XH.vXvXnXvXvXvXzX3X3X3X3X7X7X2XZ.S.b.b.v.b.b.l.z./.                                                                                                                                                                                                                                                                                                                                                                                                                                                                                                                                                                                                                                                                                                                                                                                                                                                                                      /.z.,XrXD.Z.S.G.b.b.+X+X2X9X9XbXbXvXvXvXvXvX3X3X3X3Xm.m.3X2X3XvX5X3X3X3X3X5XvXvX3X3X3X3XvXOX3X5XbXbX5X3X3XbXbXvX3XOX3X3XvXAXAXFXnXcXxXxXvXbXvXmXvX5X@X*X&X                                                                                    ",
"                                                                                  =X*X0XeXwXxXxX5X9X9X9X9X9X9XbXMXcXxX5XOXOXzXzXvXvXvXvXvXvXvX3X3X3X3X3X3X3XvXvX3X3X3X3X3X3X3XH.b.m.2XvXvX3X3X3XmXSXSXbXbXvX9X3X7X7X7XK.K.K.L.G.H.n.S.8Xn.p.).                                                                                                                                                                                                                                                                                                                                                                                                                                                                                                                                                                                                                                                                                                                                                                                                                                                                                          ).[. XuXD.J.S.M.M.H.2X2X9X9X9X9X7X7X7XbXbX7X7X7X3X3X3XvXvXbXbXvX3X3X3XvXvXbXvX3X2X3X3X3XOX3XbXbXbX5X3XxXvXvXxX3X3X3X3X3XAXAXDXMXxX5X5XxXvXnXnXnXxX5XqX@X-XLX                                                                                ",
"                                                                                -XhXeXwXbXvXxXxX4X9X9X9X9X5XxXxXcXcXxXxX5XzXzXzXvXvXvXzXvXbXvX3X3X3X3X3X3X3XvXvX3X3X3X3X3X5X3X7Xm.m.m.3X3X3X3XzXvXmXnXbXbXbX9X9X6X7XK.L.G.L.L.G.b.4X1Xz.XX%X                                                                                                                                                                                                                                                                                                                                                                                                                                                                                                                                                                                                                                                                                                                                                                                                                                                                                              ].|. X<XtX6XH.2X7X2XH.6X6X9X9XbXbXvXbXbXvXvXbXbXvXvXbXvXvXbXvX5X3X3X5XvXvXvX3X3X3X3X3XOX3X5XbX5X3X3XzXxXxXxXzX3X3XzXvXbXbXbXbX9X4X5X5XxXxXbXbXbXbXcXxX#X*X&X                                                                              ",
"                                                                            -X:X0X4X9XbXbXxXxXxX5X5X9XxXzXzXxXcXxXxXcXxXxXxX5X5XxXxX3X3XvXbXvX3X2X3X3X3X3X3X3XvXvX3X3X3X3XvXvXvX3X3X3X3X3X3X3XxX3X7X7X5X4X8X8X6XiXK.L.L.L.L.M.G.2X1X X}.                                                                                                                                                                                                                                                                                                                                                                                                                                                                                                                                                                                                                                                                                                                                                                                                                                                                                                      |.XX1X8X7X2XH.L.vX7X6X9X9X9X9XbXbXbXbXbXCXFXbXbXvX9X9XvX3X3X3X3X3X3X3X3X3X3X3X2XOX2X3X3XvX3XOX3XzXxXxXxXxXxXxXvXbXxXxX5X9X9X9X3X3XzXxX5X5XbXbXmXcX5X#X@X*XLX                                                                          ",
"                                                                          -X@XqX7XvXxXzXzXxXxXbX5X5XxXxXzXxXcXcXcXcXxXxXxXxX5X5XxXxX3X3X3XbXvX3Xm.2X3X3X3X3X3XvX3X3X3X3X3XvXvXvXvX3X3XvXvXvXxXxXvXvX9X9X8X8X8X6X7X7X7X7XK.m.2X4XoXXX}.                                                                                                                                                                                                                                                                                                                                                                                                                                                                                                                                                                                                                                                                                                                                                                                                                                                                                                          }.XX X1X8XH.m.3X7X7X7X9X9X9XbXbXbXbXbXbXnXnXbXvXvXvX3X3X3X3X5X5X3X3X3X3X3X3X3X3X3X3XvXvX3XOX3XxXvXxXxXxXxXbXvXxXxXxXxXbXbX9X3X3XzX5X+X5X5XbXmXmXcXbX5XeXhX-X                                                                        ",
"                                                                      =X:XeX9X3XxXxXzXzX3X5XvXxXxXxXxXzXzXxXcXcXcXcXxXxXxXxX5X5XvXxX3XOX3XvXvX3X3X3X3X3X3X3X7XvX3X5X3X3X3XvXxX5X5XvXvXbXbXbXvXvXbX9X9X8X9X8X6X6XL.7X7XH.oX4X@XXX|.%X                                                                                                                                                                                                                                                                                                                                                                                                                                                                                                                                                                                                                                                                                                                                                                                                                                                                                                              ).|.XX4X8X2Xb.2X2X7X6X6X6X7XvX7X7X7XvXbXnXZXnXFXbXbXvXvXvXbXbX3X3XOX3X3XvXvX9X3XvXbXvX3XOX3XbXvXxXxXvXxXxXxXxXkXxXnXnXbXvXzXzXxX5X+X+XxXxXbXvX3XzXvXvX9X0XgX                                                                      ",
"                                                                    ;X@XeX9XbXvXzXzXkXOX5XbXbXxXxXxXxXxXxXxXcXnXxXxXzXzXxXxX5X5XxXvX3Xm.OXxXvX3X3X3X3X3X3X7X3X3X3X5X5X3X3XvXvXxXvXbXbXbXbXbXvXbXbXbX9X8X8X2X2XK.7XH.S.oX@X.X|./.                                                                                                                                                                                                                                                                                                                                                                                                                                                                                                                                                                                                                                                                                                                                                                                                                                                                                                                      %XXXoX4X4X9X6X7X6X2X2XJ.H.3X2XH.3X3XbXFXFXFXFXbXbXvXvXvXbX3X3X3X3X3XvXvXvX3XvXbXvX3XOX3XvX3XxXxXvXxXxXxXxX+XxXnXnXvX3XzXxXxXxXkXkXxXxX9X9X5X3XxXvXbX4X@X*XLX                                                                  ",
"                                                                LX:X@X@XqX5X5XbXzXxXzX5XxXxXbXbXbXxXxXxXxX5XxXcXxXzX3XzXxXxXxXzX3XxX3XOXOXxXvX3XvX3XvXvX7X7X2X3X5XvXvXvXvXbXbXbXMXFXFXbXvX3X3X3XvXvX7XvX7X3X3X3XK.7X4X0XXX/.%X                                                                                                                                                                                                                                                                                                                                                                                                                                                                                                                                                                                                                                                                                                                                                                                                                                                                                                                          ].|.0XiXuX9X6X7X7X2XJ.H.3X3X7X3X3XbXFXFXFXFXMXbXvX3X3X3X3X3X3X3XvXvX9XvX3X3X3X3X3X3X3XxX3X3XvXvXxXxXzXzXzXvXbXbXxX5XxXxXkXkXcXcXxXcX9X5X5X3XOX5XxX+X+X#X@X*X                                                                ",
"                                                              LX@XxXqX+X+X+XxXbXbXbXxX5X5XcXbXnXbXcXxXxX5X5XxXxX5X3X3XzXxXxXxXOXOXzXzXOX3XxXbXzX3X3XxXvX7X3X3X3X9XbXbXvXbXbXFXFXFXFXFXbX3XH.M.m.H.M.H.K.3X3XvX3X3X4X@X|.).                                                                                                                                                                                                                                                                                                                                                                                                                                                                                                                                                                                                                                                                                                                                                                                                                                                                                                                                  |. X1X4X2X6X6X9X9X9X9X9XbXbXbXZXZXFXFXFXFXbXvX3X3X3X3X3X3XvXvX3X5X9X5X3X3X3X3X3X3X3X3XxXvXvXxX3XOX3XvXbXbXxXxXxXxXkXkXkXcXcXnXxXxX3X3X2X+X+XOXkXxXcX5X#X*X=X                                                            ",
"                                                            *X@XqXcXxX5X5X5XxXxXcXxXxXxXxXxXcXnXnXxXxXcXcXcXxXxXxXxXzX3XzXxXxX3X3X3X3X3X3X3X3X3XvX3X3X3X9X5X3X3X8X9X9XvXbXnXJXJXFXFXbX9X3X7X7X7X7X7X7X7X7X7X7X5XeXXX/.).                                                                                                                                                                                                                                                                                                                                                                                                                                                                                                                                                                                                                                                                                                                                                                                                                                                                                                                                      ).XX#XeX4X8X9XuXuXiXuX9X9XvXVXSXvXCXbXbXbXCXbXvXvXvXvXzXvX3X3X3X5X5X7XzXzXzXzXxXxXxX3X3XzXzXOXzXxXxXxXxXcXxXxXxXcXcXcXcXcXnXcXxX3X3XvXvXxXxXcXcXxXbX9XeXhX-X                                                          ",
"                                                          *XeX4XbXcXcXcXxXxXxXxXxXxXxXxXxXxXxXnXxXxXxXcXcXxXxXcXxXxXzX3XzXxXzX3X3X3X3XzX5X5X3X3XvX3X3XvX9X5X3X3X3X8X9XvXnXnXnXnXNXFXCXCXVXVXCXCX9X6X6XVXVX7X2XoXXX%X                                                                                                                                                                                                                                                                                                                                                                                                                                                                                                                                                                                                                                                                                                                                                                                                                                                                                                                                            &X.X.XoX8XuXiXpXpXiX9X9XiXCXSXSXbXbXbXbXCXCXCXCXvXvXzXvX5X3X5X5X7X7XzXvXvXzXzXzXxX3XzXzX3XOXzXxXxXcXnXcXxXcXcXcXcXcXcXcXxXxXxXxXbXbXbXxXcXxXxXxXvXvX8XeX:X*X-X                                                      ",
"                                                      =X*X@X+X5XxXbXbXcXxXxXxXxXxXzXzXzXzXzXxXxXxXxXnXnXxXxXcXnXcXxXxX3X3XzX3XOXxXzXzXxXvXxX3X3X3X3X3XvXvX5X3X3X3XvXbXbXNXMXbXbX9X9X9XVXbXvXvXxX5X9X7XK.T.VX1X|.].                                                                                                                                                                                                                                                                                                                                                                                                                                                                                                                                                                                                                                                                                                                                                                                                                                                                                                                                                  }..X8X7XVXSXCXVXiX8XsXAXZXZXbXbXbXbXbXbXbXbXvXvXvX5X3X2X2X3XvXvXvXvXzX3X3XzX3X3X3XzXOXOXxXxXxXNXNXxXxXnXNXnXcXcXcXcXxXxXxXxXbXbX5XxX+X+XxXxXvXvXVX9X0X@X:X&X                                                    ",
"                                                    =X*X0X5X5X5XxXcXbXcXxXcXxXxXzX3X3XzXzXzXxXcXxXcXNXNXcXxXxXcXbXcXxX5X3X3X3XOXxXzX3XzXxXxXvX3X3X3X3X3XvXvX9X9XvXbXbXbXMXbXMXMXCXCXCXVXbXbXbXbXbX6XvXCX9XoX.X                                                                                                                                                                                                                                                                                                                                                                                                                                                                                                                                                                                                                                                                                                                                                                                                                                                                                                                                                        %X XwXCXvXvXbX9X9XiXsXZXZXbXbXbXbXbXbX9XvXbXvXvX5X3X3X3X3XbXbXvX3X3X3X3XzX3X3X3X3XOXOXxXcXcXnXxXzXxXnXNXNXcXbXbXcXxXxXxXxXxX5X+X+X#X+X+XxXbXCXCXCX9XqX#X@X;XLX                                                ",
"                                                  *X@X0XeXeX5XxXbXbXbXcXxXcXxXxXzX3X3XxXxXxXxXbXcXnXNXNXnXcXxXOXcXcXxX3XOXOXOXOX3X3X3X3XxXxXvXvXvX3X3X3XvXvXvXvXvXbXbXbXbXbXbXbXbXbXbXbXbXbXCXCX9X9XbXqX$X%X                                                                                                                                                                                                                                                                                                                                                                                                                                                                                                                                                                                                                                                                                                                                                                                                                                                                                                                                                            &X.X4XZXvXvXbX9X9XbXbXbX9X9XiXCXMXbXMXbXbXbXbXvXvXvXvXvXvXvXvXzX3X3X3X3X3X3XOXOXOX3XxXxXcXzXOXzXxXcXNXNXNXbXcXcXxXxXxXxXzXOX+X#X#X#X5XxXbXCXZXZXbXxX5XqX0XhXLX                                              ",
"                                              LX:X4X4X9XwX4X5XbXNXNXNXbXcXbXcXxXxXxXxXxXxXxXxXnXnXnXNXNXnXcXxXOXxXxXxX3XOXOXOXOX3X3X3X3X3XxXvXbXvXvX5XvXvXvXbXbX9X9XCXCXCXCXbXvXxXxXxXvXvX7X7X7X6XwX@XXX).                                                                                                                                                                                                                                                                                                                                                                                                                                                                                                                                                                                                                                                                                                                                                                                                                                                                                                                                                                  .XoX5XvXvXvXvXvXbX9XDXAXAXCXbXbXMXFXMXbXbXvXvXvX7X3X3X3XvXvX3X3X3X3X3X3X3XOXOXzXxXxXzXOXOXxXNXnXcXNXNXcXxXxXxXxXxXxXkXkXkX+X#X#X#XxXbXbXZXZXSXvXbXbXbXeXhX-X                                            ",
"                                            >X#XeX9X9X9XxXxXxXMXNXNXNXbXcXnXcXxXxXxXxXcXcXxXxXcXxXcXcXnXnXnXxXOXOXxXxXzX3XOXOXOX3X3X3X3XxXxXvXvX3X3X3XvXvXbXbXbXbXbXAXAXAXSXZXcXcXxXxXxXvX7XyXtXdX.X|.].                                                                                                                                                                                                                                                                                                                                                                                                                                                                                                                                                                                                                                                                                                                                                                                                                                                                                                                                                                      %X@X8XvXmXvXbX9X9XZXZXZXCXbXbXbXMXbXbXbXvXvX7X3XH.3X3XvXvXvX3X3X3X3X3XOXOXzXxXxXzXOXOXzXbXNXnXcXcXcXcXxXxXxXxXxXxXmXmXkXkXkXlXxXcXNXnXZXZXZXnXbXbXZXCXeXhX-X                                          ",
"                                        LX:XqX9X9X9X9X3XxXcXnXbXNXNXnXcXnXnXbXxXnXcXcXcXcXxXxXcXxXxXcXcXcXnXcXxXOXxXxXxXxXzXOXOX3X3X3X3XxXxX3X3Xm.m.3X3XvXbXFXCXnXnXCXCXCXSXZXnXcXxX5X5X8X9XiXuX,X;X                                                                                                                                                                                                                                                                                                                                                                                                                                                                                                                                                                                                                                                                                                                                                                                                                                                                                                                                                                            %X@X5XvXvXvX9X7XvXCXCXCXCXbXbXbXxXbXbXvXbXbXbXvXvXbXbXvXvX3XzXxX3X3XOX3XxXcXcXxXOXxXnXnXnXcXcXxX3XxXcXnXcXxXxXxXmXmXcXkXkXcXNXNXnXnXZXJXFXbXvXbXbXCXCXqX@X*X                                        ",
"                                      -XhXeXwXbXbX5X3X5XxXxXcXcXcXcXcXcXcXcXcXcXxXxXcXcXxXxXcXcXxXxXxXxXcXnXnXnXbXxXxXxXzXOXOXzX3X3X3X3X3XzXvXbXvXvXvXbXbXbXbXnXnXnXbXbXCXVXCXCXvXvX5X5X4XwX8X.X%X                                                                                                                                                                                                                                                                                                                                                                                                                                                                                                                                                                                                                                                                                                                                                                                                                                                                                                                                                                                &X.X0XiXVXvXZXvXvXvXZXZXZXcXbXvX9X9X5X7X7X7XvXbXbXvXvXvXzXzXzXzXzXOXOXzXxXxXxXxXcXnXNXnXcXxXxXzXxXcXcXxXxXxXcXmXmXmXcXcXcXNXcXNXnXnXFXFXbX9X9XiX9XxXcXkX#X:X;X                                    ",
"                                  &X:XeXwXwXMXbXxXxXOX3XxXxXcXJXcXcXxXxXxXxXxXcXxXxXxXxXxXxXxXcXxXxXxXxXcXnXnXNXcXcXxXxXzXOXOXzX3X3X3X3X3X3XvXbXvXxX3X3X3X3XbXbXcXcXbXbXbXbXCXCXCXvX7X4X0X@X.X;X                                                                                                                                                                                                                                                                                                                                                                                                                                                                                                                                                                                                                                                                                                                                                                                                                                                                                                                                                                                    LX%X0XsXAXvXbXvXvXmXmXmXcXvXvXvX9X5X3X3X3XvXbXvXvXvXvXvXzXzX3X3XOXOXzXxXxXxXnXnXNXnXcXxXxXkXxXxXcXcXcXxXcXcXcXcXcXxXcXcXcXcXnXcXnXNXNXbX9X9X9X9XxXcXkXkX#X:X-X                                  ",
"                              -X:XeXeXqXwXMXqX5XxXkXkXkXzXxXxXnXcXxXxXxXxXxXcXcXxXxXxXxXxXxXxXxXcXcXcXxXxXcXcXnXcXxXxXxXzXOXOX3X3XzXxXxXzXzXzXvXbXvX3X3X3X3XvXbXzXxXxXMXMXbXbXVXSXVX7XeX.X%X                                                                                                                                                                                                                                                                                                                                                                                                                                                                                                                                                                                                                                                                                                                                                                                                                                                                                                                                                                                            ;X.XwXCX9X5X3XvXvXmXmXmXvXvX9X9X9XvXvXvXvXvXbXbXbXbXzXzX3XzXzXxXxXxXxXcXcXcXcXxXxXxXxXxXxXxXxXxXcXcXcXxXbXbXxXxXxXcXcXcXcXcXcXcXcXcXxXxX9X5XkXkXkXkXxXxX#X:X                                ",
"                          -X:XeXMXCXbXbXMXBXxXkXkXkXkXkXkXxXbXbXxXxXxXxXxXxXxXxXxXxXxXxXxXxXxXxXcXcXnXcXxXxXxXxXcXcXxXxXzX3X3XzXzXzXxXbXbXbXvXvXvXvXvXvXbXvXbXvXbXxX5X5X+X5XvXvXVXAXeX.X%X                                                                                                                                                                                                                                                                                                                                                                                                                                                                                                                                                                                                                                                                                                                                                                                                                                                                                                                                                                                                %X.X0X4X4X5X3XzXcXmXZXCXCXCXbXbXbXbXvXvXvXbXnXnXbXzXzXzXzXxXxXxXxXxXxXxXxXxXxXxXcXcXnXxXxXxXxXxXxXxXxX5X5X5XxXxXxXcXcXcXcXcXcXxXcXxXxX5X+XkXxXxXcXcXcXbXqX:X-X                            ",
"                      >X:X#XwXDXAXSXbXcXcXcXmXmXzXzX+X+X+XxXnXnXcXcXcXcXcXxXxXxXxXxXxXxXxXxXxXxXzXcXcXnXcXxXcXcXxXxXxXxXxXxXxXxXxXzXzXbXnXnXbXvX3X3XvXbXbXbXbXbXbXwXqX5X5X3X3X3X9X0X.X&X                                                                                                                                                                                                                                                                                                                                                                                                                                                                                                                                                                                                                                                                                                                                                                                                                                                                                                                                                                                                    =X|.@X@XqX5XxXnXZXZXZXCXCXCXCXbXbXxXvXbXbXnXZXbXbXzXcXxXxXxXxXxXxXxXnXcXxXxXxXcXcXcXcXxXxXxXxXxXxXxX5X5X5XxXxXxXxXcXcXnXcXxXxXcXcXkXkXOXOXxXxXbXbXNXcXMXMXeX:X                          ",
"                  LX;X#XBXNXZXCXSXSXbXxXcXcXJXJXmXbX5X+X+XxXcXnXcXcXcXcXxXxXxXxXxXxXxXxXxXxXxXxXxXcXnXnXnXcXxXxXxXxXxXxXxXxXxXxXbXvXxXbXnXnXbXvXxX3XvXbXbXbXbXbXbXDXbXbXbXzX5X#X@X%X                                                                                                                                                                                                                                                                                                                                                                                                                                                                                                                                                                                                                                                                                                                                                                                                                                                                                                                                                                                                          LX;X.X@X4XwXbXZXZXZXCXCXCXbXbXxXxXbXbXbXnXZXnXbXxXcXxXxXxXcXxXxXcXnXcXcXcXcXnXnXcXcXxXxXxXxXxXxXxXxXkXxXxXxXxXxXcXxXcXcXxXcXcXcXkXkXkXzX5XvXxXMXbXbXbXmXnXqX:X=X                      ",
"              LX*X:XeXMXMXbXbXbXnXbXcXcXcXnXnXnXZXZXnXzXzXxXkXkXxXcXcXxXxXxXxXxXxXxXxXxXxXxXxXxXcXcXnXNXnXcXxXxXxXxXxXxXxXbXcXxXbXbXbXbXbXbXbXbXbXvXvXbXbXbXbXbXCXZXZXZXSXbX4X.X).                                                                                                                                                                                                                                                                                                                                                                                                                                                                                                                                                                                                                                                                                                                                                                                                                                                                                                                                                                                                                *X.X@XqXbXCXAXCXCXCXVXbXbXcXcXcXbXbXbXbXbXbXbXcXcXcXnXnXxXxXnXcXxXxXcXnXNXNXnXcXcXxXxXxXxXxXxXkXkXkXcXcXxXzXxXxXxXxXxXcXcXcXmXmXcXxXxXqXMXbXbXFXbXxXxXBXwXwX@X-X                  ",
"            -X:XeXMXMXFXbXvXxXxXxXxXcXcXcXbXnXFXvXcXmXxXxXxXkXkXcXxXxXzXzXxXxXxXxXxXxXxXxXxXxXxXxXxXnXnXnXnXcXcXxXxXxXxXcXnXnXxXbXbXnXnXcXxXbXbXbXbXbXCXCXbXbXbXSXZXZXZX9X@X;X).                                                                                                                                                                                                                                                                                                                                                                                                                                                                                                                                                                                                                                                                                                                                                                                                                                                                                                                                                                                                                    %X.X@XwXCXCXAXAXCXCXbXnXcXnXcXbXbXbXbXbXbXbXnXnXnXJXnXxXxXnXcXxXcXcXnXNXnXnXxXxXxXxXxXxXxXxXkXkXkXcXxXzXzXxXxX5X5XxXBXcXxXkXmXmXnXNXMXMXMXNXnXbXxXMXMXbXZXNX:X;X&X              ",
"        -XhXeXMXnXnXNXNXbXxXxXcXxXxXxXxXbXnXnXnXxXxXxXxXxXxXkXkXxXxXxXxXxXxXxXxXxXzXzXxXxXzXzXzXxXxXnXNXNXNXnXbXbXnXnXxXbXFXFXFXNXnXmXZXJXmXcXxXbXCXAXAXSXvXbXnXmXJXNX#XXX).                                                                                                                                                                                                                                                                                                                                                                                                                                                                                                                                                                                                                                                                                                                                                                                                                                                                                                                                                                                                                          ).|.eXGXAXAXDXCXbXZXZXZXbXvXvXCXZXFXZXbXbXbXFXJXFXnXcXnXnXcXcXcXnXNXNXnXcXbXxXxXxXxXxXxXzXzXxXxXxXxXxXxXxXxXxXcXcXxXxXxXxXxXxXcXnXNXNXnXnXcXxXxXxXbXnXnXZXbXBXeX:X-X          ",
"    LXgXhXwXnXmXmXnXcXBXbXcXbXbXcXxXxXxXxXxXcXcXxXxXxXxXxXxXxXxXxXxXxXxXxXxXcXcXxXxXzXxXxXzXzXzXxXxXxXnXnXnXbXbXbXnXNXnXnXFXnXbX5XvXmXSXZXmXnXbXCXAXAXVXSXSXcXxXNXqX$X;X&X                                                                                                                                                                                                                                                                                                                                                                                                                                                                                                                                                                                                                                                                                                                                                                                                                                                                                                                                                                                                                                %X0XsXsXwXvX3XvXSXbXbXCXCXCXZXZXCXbXbX3XbXnXnXnXnXnXbXbXcXcXNXNXNXnXcXxXxXzXzXzXzXzX3XzXxXxXxXxXxXxXxXxXxXxXxXxXxXxXxXxXxXxXcXnXnXnXcXcXcXcXcXbXcXnXnXZXZXFXwXhX-X        ",
">X>X:X#XqXbXmXmXcXxXxXBXxXMXbXcXcXxXzXzXxXxXcXcXcXcXxXxXxXxXxXxXxXxXxXxXxXcXnXnXcXxXxXxXxXzXzXzXxXxXxXnXNXNXNXnXbXnXnXNXNXnXbXvX4X5XCXZXnXnXbXMXvXVXVXyXvXbXqX#X@X*X&X                                                                                                                                                                                                                                                                                                                                                                                                                                                                                                                                                                                                                                                                                                                                                                                                                                                                                                                                                                                                                                      =X*X@XqXMXCXvXvX3XbXbXCXCXZXZXbXbXbX3XxXbXbXnXNXnXcXnXnXnXNXNXNXbXxXxXxXzXzXzXxXxXzXxXxXcXnXcXxXxXxXxXxXxXxXxXxXxXxXxXxXxXcXcXcXcXcXxXxXxXxXbXbXcXbXbXbXbXDXeX:X:X-X    ",
"lXlXlXxXcXmXmXmXbXxXqXqXxXBXnXcXxXzXzXzXxXcXnXnXnXnXcXxXxXxXxXxXxXxXxXxXxXxXnXNXNXbXxXxXxXzX3X3XzXzXxXcXnXNXFXFXnXnXnXnXnXbXbXMX9XwXbXCXbXbXbXbX3XvXvX7X5X#X@X*X%X                                                                                                                                                                                                                                                                                                                                                                                                                                                                                                                                                                                                                                                                                                                                                                                                                                                                                                                                                                                                                                              ;X@XqXMXSXvX3X9XbXCXCXCXZXbXbXnXbXnXnXbXnXNXnXxXNXNXNXNXNXbXxX3XxXxXzXxXxXxXxXxXbXnXNXnXcXxXxXxXxXxXxXxXxXxXxXxXxXxXxXxXcXcXcXxXxXxXxXxXxXbXcXbXbX4X5XMXBXBXeX:X:X>X",
"NXcXcXmXmXmXmXbXxX5X+XkXxXNXmXcXxXzXzXxXxXcXcXnXnXnXcXcXcXcXcXxXxXxXxXzXzXxXcXnXNXnXcXcXbXzXzXzX3XOXzXzXxXcXbXbXFXFXFXnXnXnXNXFXFXDXCXbXbXbXbXbXbXvXbX9X@X.X;X&X                                                                                                                                                                                                                                                                                                                                                                                                                                                                                                                                                                                                                                                                                                                                                                                                                                                                                                                                                                                                                                                  &X.X@XbXZXbXbXbXCXCXCXbXbXnXnXFXFXFXnXnXnXnXNXNXNXnXnXbXcXxXzXzX3XOXzXxXxXxXxXnXnXnXcXxXzXzXxXxXxXxXcXcXcXcXxXcXcXcXcXnXnXcXxXxXxXxXxXxXbXcXbXBXqXxXbXJXJXNXxXBXBX",
"mXmXmXmXmXvXbXbXxXxXkXkXcXcXcXcXxXzXzXxXxXcXcXcXcXcXxXxXcXcXxXxXxXxXxXzX3XzXxXcXbXxXxXxXbXxXzXzXzXzXzXzXxXxXzXzXnXnXFXFXnXnXnXNXFXMXbXbXbXbXbXbXbXbXbXeX:X-X                                                                                                                                                                                                                                                                                                                                                                                                                                                                                                                                                                                                                                                                                                                                                                                                                                                                                                                                                                                                                                                        &X:XeXbXbXbXCXZXZXCXbXbXnXnXNXFXFXnXnXnXNXNXnXxXxXxXxXxXxXzXOXOXzX3XzXxXxXxXbXbXbXxX3XOX3XxXxXxXcXcXcXcXcXxXcXnXnXnXnXnXcXxXxXxXxXxXxXbXbXcXxXMXNXnXmXJXJXmXnXNX",
"mXcXvXvXvXbXbXcXcXcXkXkXkXcXcXxXzXzXzXxXxXcXxXxXxXxXxXxXcXcXxXxXxXxXxXzX3X3XxXxXxXzXzXbXbXxXzXzXxXxXxXxXxXxXzX3X3XbXnXnXnXnXnXnXnXnXbXbXnXbXbXbXvXbX9X0X*X                                                                                                                                                                                                                                                                                                                                                                                                                                                                                                                                                                                                                                                                                                                                                                                                                                                                                                                                                                                                                                                              hX8XiXCXCXZXZXCXbXbXnXnXnXnXFXFXNXNXNXNXzX3X3X3XzXxXxXzXxXxXxXxXxXxXxXbXxXxXxXxX3X3X3XxXxXxXcXcXbXbXbXcXcXcXnXnXnXnXcXcXxXxXxXxXxXxXbXbXxXnXnXmXmXmXZXZXZXnX"
};
