/* XPM */
static char *a48d900774fa4bf4c37f293d9fd2d63cBAQPJiDTDKMh5rl2[] = {
/* columns rows colors chars-per-pixel */
"666 375 256 2 ",
"   c None",
".  c #0D0C0B",
"X  c #0A0704",
"o  c #120D0C",
"O  c #150904",
"+  c #091708",
"@  c #13120D",
"#  c #18150A",
"$  c #0D0D11",
"%  c #160D14",
"&  c #0D1412",
"*  c #141414",
"=  c #1A1515",
"-  c #151A14",
";  c #1B1A16",
":  c #161519",
">  c #1A161A",
",  c #151A1A",
"<  c #1C1B1C",
"1  c #25140B",
"2  c #211D1D",
"3  c #271917",
"4  c #2D130D",
"5  c #012B01",
"6  c #062503",
"7  c #14270B",
"8  c #023702",
"9  c #1D221C",
"0  c #182616",
"q  c #1B3618",
"w  c #0F320F",
"e  c #23221E",
"r  c #28251C",
"t  c #38251B",
"y  c #2E3415",
"u  c #1D1D21",
"i  c #1B1621",
"p  c #231E22",
"a  c #271B25",
"s  c #2F1F26",
"d  c #1E2222",
"f  c #1D2B25",
"g  c #242323",
"h  c #2A2525",
"j  c #252924",
"k  c #2B2A25",
"l  c #252529",
"z  c #2A262A",
"x  c #252B2B",
"c  c #2C2B2B",
"v  c #322D2D",
"b  c #352827",
"n  c #2D322C",
"m  c #283527",
"M  c #32322E",
"N  c #38352B",
"B  c #2D2D31",
"V  c #2A2832",
"C  c #332E31",
"Z  c #392A34",
"A  c #2E3332",
"S  c #2B3635",
"D  c #343333",
"F  c #3A3535",
"G  c #353A34",
"H  c #3B3A35",
"J  c #353539",
"K  c #3B353A",
"L  c #3B3B3B",
"P  c #363A3A",
"I  c #432A1B",
"U  c #442B24",
"Y  c #493429",
"T  c #423C3D",
"R  c #443738",
"E  c #533930",
"W  c #623F34",
"Q  c #014700",
"!  c #035801",
"~  c #15510F",
"^  c #2B4D17",
"/  c #0A6F09",
"(  c #2A7018",
")  c #3C4438",
"_  c #33502D",
"`  c #36702C",
"'  c #1D4B24",
"]  c #43423D",
"[  c #44483A",
"{  c #46563B",
"}  c #574938",
"|  c #674738",
" . c #754F3A",
".. c #456738",
"X. c #497437",
"o. c #6F7031",
"O. c #4B6818",
"+. c #3D3C41",
"@. c #373440",
"#. c #332E40",
"$. c #433C42",
"%. c #493A45",
"&. c #513E4B",
"*. c #3E4343",
"=. c #434343",
"-. c #4B4443",
";. c #4B4A45",
":. c #4B4B4B",
">. c #474649",
",. c #54494B",
"<. c #4A5545",
"1. c #54554C",
"2. c #574A54",
"3. c #595755",
"4. c #4D5052",
"5. c #664C44",
"6. c #795849",
"7. c #625A59",
"8. c #795B53",
"9. c #6D5246",
"0. c #4B6446",
"q. c #57684C",
"w. c #596755",
"e. c #52764A",
"r. c #6F6755",
"t. c #676563",
"y. c #76726E",
"u. c #675864",
"i. c #86653D",
"p. c #875B47",
"a. c #865D54",
"s. c #945D4D",
"d. c #89644B",
"f. c #96664C",
"g. c #896757",
"h. c #9B6B55",
"j. c #966856",
"k. c #997459",
"l. c #8A7354",
"z. c #A46D5A",
"x. c #A66B56",
"c. c #A4735C",
"v. c #AB735C",
"b. c #AC7A5E",
"n. c #A47759",
"m. c #B47C5E",
"M. c #B3765D",
"N. c #A96D50",
"B. c #9C7663",
"V. c #916E65",
"C. c #A47562",
"Z. c #AC7562",
"A. c #A47B63",
"S. c #AC7B63",
"D. c #AA796A",
"F. c #B27563",
"G. c #B37C64",
"H. c #B57C6A",
"J. c #BB7D6C",
"K. c #BA7965",
"L. c #AF7A71",
"P. c #C37869",
"I. c #C67971",
"U. c #2A871B",
"Y. c #36902E",
"T. c #1E971B",
"R. c #458639",
"E. c #4B9537",
"W. c #739233",
"Q. c #49AD38",
"!. c #75AE37",
"~. c #5E8F19",
"^. c #518C49",
"/. c #51A845",
"(. c #79B745",
"). c #77AB48",
"_. c #71934A",
"`. c #78C54A",
"'. c #74C43B",
"]. c #86923A",
"[. c #87AD3D",
"{. c #879846",
"}. c #96994A",
"|. c #9A8A57",
" X c #999856",
".X c #8C8F4E",
"XX c #A88A5B",
"oX c #B9865D",
"OX c #A7975A",
"+X c #B4975B",
"@X c #A6974E",
"#X c #88A848",
"$X c #87B849",
"%X c #98A857",
"&X c #96B856",
"*X c #91B04E",
"=X c #A5A55A",
"-X c #AAAC55",
";X c #9B8C6E",
":X c #AD8264",
">X c #AB8867",
",X c #B58264",
"<X c #BD8565",
"1X c #BD8B64",
"2X c #B4846B",
"3X c #BC856B",
"4X c #B58B6C",
"5X c #BD8B6B",
"6X c #B48B64",
"7X c #AA9664",
"8X c #BC936B",
"9X c #B79666",
"0X c #B58472",
"qX c #BB8573",
"wX c #BB8B74",
"eX c #BD8C7A",
"rX c #B58A76",
"tX c #BD9274",
"yX c #B89478",
"uX c #AA8474",
"iX c #A7A464",
"pX c #B1A96C",
"aX c #9BA963",
"sX c #C38A5D",
"dX c #C5875E",
"fX c #C4925E",
"gX c #C28663",
"hX c #CA8664",
"jX c #C48A64",
"kX c #C98B65",
"lX c #C2866B",
"zX c #CB866B",
"xX c #C38B6B",
"cX c #CA8D6B",
"vX c #C4926C",
"bX c #CB916C",
"nX c #C59366",
"mX c #C28572",
"MX c #C48C72",
"NX c #CA8C72",
"BX c #C28C7A",
"VX c #CA8775",
"CX c #C49273",
"ZX c #CA9273",
"AX c #C2927B",
"SX c #C99779",
"DX c #D18E71",
"FX c #C2A376",
"GX c #89C555",
"HX c #8EC54F",
"JX c #96C160",
"KX c #8AC33F",
"LX c #BA8D82",
"PX c #BDAE80",
"IX c #C89382",
"UX c #CCA081",
/* pixels */
"                                                                                                                                                                                                                                                                                                                                                                                                                                                                                                                                                                                                                                                                                                                                                                                                                                                                                                                                                                                                                                                                                                                                                                                                                                                                                                                                                                                    ",
"                                                                                                                                                                                                                                                                                                                                                                                                                                                                                                                                                                                                                                                                                                                                                                                                                                                                                                                                                                                                                                                                                                                                                                                                                                                                                                                                                                                    ",
"                                                                                                                                                                                                                                                                                                                                                                                                                                                                                                                                                                                                                                                                                                                                                                                                                                                                                                                                                                                                                                                                                                                                                                                                                                                                                                                                                                                    ",
"                                                                                                                                                                                                                                                                                                                                                                                                                                                                                                                                                                                                                                                                                                                                                                                                                                                                                                                                                                                                                                                                                                                                                                                                                                                                                                                                                                                    ",
"                                                                                                                                                                                                                                                                                                                                                                                                                                                                                                                                                                                                                                                                                                                                                                                                                                                                                                                                                                                                                                                                                                                                                                                                                                                                                                                                                                                    ",
"                                                                                                                                                                                                                                                                                                                                                                                                                                                                                                                                                                                                                                                                                                                                                                                                                                                                                                                                                                                                                                                                                                                                                                                                                                                                                                                                                                                    ",
"                                                                                                                                                                                                                                                                                                                                                                                                                                                                                                                                                                                                                                                                                                                                                                                                                                                                                                                                                                                                                                                                                                                                                                                                                                                                                                                                                                                    ",
"                                                                                                                                                                                                                                                                                                                                                                                                                                                                                                                                                                                                                                                                                                                                                                                                                                                                                                                                                                                                                                                                                                                                                                                                                                                                                                                                                                                    ",
"                                                                                                                                                                                                                                                                                                                                                                                                                                                                                                                                                                                                                                                                                                                                                                                                                                                                                                                                                                                                                                                                                                                                                                                                                                                                                                                                                                                    ",
"                                                                                                                                                                                                                                                                                                                                                                                                                                                                                                                                                                                                                                                                                                                                                                                                                                                                                                                                                                                                                                                                                                                                                                                                                                                                                                                                                                                    ",
"                                                                                                                                                                                                                                                                                                                                                                                                                                                                                                                                                                                                                                                                                                                                                                                                                                                                                                                                                                                                                                                                                                                                                                                                                                                                                                                                                                                    ",
"                                                                                                                                                                                                                                                                                                                                                                                                                                                                                                                                                                                                                                                                                                                                                                                                                                                                                                                                                                                                                                                                                                                                                                                                                                                                                                                                                                                    ",
"                                                                                                                                                                                                                                                                                                                                                                                                                                                                                                                                                                                                                                                                                                                                                                                                                                                                                                                                                                                                                                                                                                                                                                                                                                                                                                                                                                                    ",
"                                                                                                                                                                                                                                                                                                                                                                                                                                                                                                                                                                                                                                                                                                                                                                                                                                                                                                                                                                                                                                                                                                                                                                                                                                                                                                                                                                                    ",
"                                                                                                                                                                                                                                                                                                                                                                                                                                                                                                                                                                                                                                                                                                                                                                                                                                                                                                                                                                                                                                                                                                                                                                                                                                                                                                                                                                                    ",
"                                                                                                                                                                                                                                                                                                                                                                                                                                                                                                                                                                                                                                                                                                                                                                                                                                                                                                                                                                                                                                                                                                                                                                                                                                                                                                                                                                                    ",
"                                                                                                                                                                                                                                                                                                                                                                                                                                                                                                                                                                                                                                                                                                                                                                                                                                                                                                                                                                                                                                                                                                                                                                                                                                                                                                                                                                                    ",
"                                                                                                                                                                                                                                                                                                                                                                                                                                                                                                                                                                                                                                                                                                                                                                                                                                                                                                                                                                                                                                                                                                                                                                                                                                                                                                                                                                                    ",
"                                                                                                                                                                                                                                                                                                                                                                                                                                                                                                                                                                                                                                                                                                                                                                                                                                                                                                                                                                                                                                                                                                                                                                                                                                                                                                                                                                                    ",
"                                                                                                                                                                                                                                                                                                                                                                                                                                                                                                                                                                                                                                                                                                                                                                                                                                                                                                                                                                                                                                                                                                                                                                                                                                                                                                                                                                                    ",
"                                                                                                                                                                                                                                                                                                                                                                                                                                                                                                                                                                                                                                                                                                                                                                                                                                                                                                                                                                                                                                                                                                                                                                                                                                                                                                                                                                                    ",
"                                                                                                                                                                                                                                                                                                                                                                                                                                                                                                                                                                                                                                                                                                                                                                                                                                                                                                                                                                                                                                                                                                                                                                                                                                                                                                                                                                                    ",
"                                                                                                                                                                                                                                                                                                                                                                                                                                                                                                                                                                                                                                                                                                                                                                                                                                                                                                                                                                                                                                                                                                                                                                                                                                                                                                                                                                                    ",
"                                                                                                                                                                                                                                                                                                                                                                                                                                                                                                                                                                                                                                                                                                                                                                                                                                                                                                                                                                                                                                                                                                                                                                                                                                                                                                                                                                                    ",
"                                                                                                                                                                                                                                                                                                                                                                                                                                                                                                                                                                                                                                                                                                                                                                                                                                                                                                                                                                                                                                                                                                                                                                                                                                                                                                                                                                                    ",
"                                                                                                                                                                                                                                                                                                                                                                                                                                                                                                                                                                                                                                                                                                                                                                                                                                                                                                                                                                                                                                                                                                                                                                                                                                                                                                                                                                                    ",
"                                                                                                                                                                                                                                                                                                                                                                                                                                                                                                                                                                                                                                                                                                                                                                                                                                                                                                                                                                                                                                                                                                                                                                                                                                                                                                                                                                                    ",
"                                                                                                                                                                                                                                                                                                                                                                                                                                                                                                                                                                                                                                                                                                                                                                                                                                                                                                                                                                                                                                                                                                                                                                                                                                                                                                                                                                                    ",
"                                                                                                                                                                                                                                                                                                                                                                                                                                                                                                                                                                                                                                                                                                                                                                                                                                                                                                                                                                                                                                                                                                                                                                                                                                                                                                                                                                                    ",
"                                                                                                                                                                                                                                                                                                                                                                                                                                                                                                                                                                                                                                                                                                                                                                                                                                                                                                                                                                                                                                                                                                                                                                                                                                                                                                                                                                                    ",
"                                                                                                                                                                                                                                                                                                                                                                                                                                                                                                                                                                                                                                                                                                                                                                                                                                                                                                                                                                                                                                                                                                                                                                                                                                                                                                                                                                                    ",
"                                                                                                                                                                                                                                                                                                                                                                                                                                                                                                                                                                                                                                                                                                                                                                                                                                                                                                                                                                                                                                                                                                                                                                                                                                                                                                                                                                                    ",
"                                                                                                                                                                                                                                                                                                                                                                                                                                                                                                                                                                                                                                                                                                                                                                                                                                                                                                                                                                                                                                                                                                                                                                                                                                                                                                                                                                                    ",
"                                                                                                                                                                                                                                                                                                                                                                                                                                                                                                                                                                                                                                                                                                                                                                                                                                                                                                                                                                                                                                                                                                                                                                                                                                                                                                                                                                                    ",
"                                                                                                                                                                                                                                                                                                                                                                                                                                                                                                                                                                                                                                                                                                                                                                                                                                                                                                                                                                                                                                                                                                                                                                                                                                                                                                                                                                                    ",
"                                                                                                                                                                                                                                                                                                                                                                                                                                                                                                                                                                                                                                                                                                                                                                                                                                                                                                                                                                                                                                                                                                                                                                                                                                                                                                                                                                                    ",
"                                                                                                                                                                                                                                                                                                                                                                                                                                                                                                                                                                                                                                                                                                                                                                                                                                                                                                                                                                                                                                                                                                                                                                                                                                                                                                                                                                                    ",
"                                                                                                                                                                                                                                                                                                                                                                                                                                                                                                                                                                                                                                                                                                                                                                                                                                                                                                                                                                                                                                                                                                                                                                                                                                                                                                                                                                                    ",
"                                                                                                                                                                                                                                                                                                                                                                                                                                                                                                                                                                                                                                                                                                                                                                                                                                                                                                                                                                                                                                                                                                                                                                                                                                                                                                                                                                                    ",
"                                                                                                                                                                                                                                                                                                                                                                                                                                                                                                                                                                                                                                                                                                                                                                                                                                                                                                                                                                                                                                                                                                                                                                                                                                                                                                                                                                                    ",
"                                                                                                                                                                                                                                                                                                                                                                                                                                                                                                                                                                                                                                                                                                                                                                                                                                                                                                                                                                                                                                                                                                                                                                                                                                                                                                                                                                                    ",
"                                                                                                                                                                                                                                                                                                                                                                                                                                                                                                                                                                                                                                                                                                                                                                                                                                                                                                                                                                                                                                                                                                                                                                                                                                                                                                                                                                                    ",
"                                                                                                                                                                                                                                                                                                                                                                                                                                                                                                                                                                                                                                                                                                                                                                                                                                                                                                                                                                                                                                                                                                                                                                                                                                                                                                                                                                                    ",
"                                                                                                                                                                                                                                                                                                                                                                                                                                                                                                                                                                                                                                                                                                                                                                                                                                                                                                                                                                                                                                                                                                                                                                                                                                                                                                                                                                                    ",
"                                                                                                                                                                                                                                                                                                                                                                                                                                                                                                                                                                                                                                                                                                                                                                                                                                                                                                                                                                                                                                                                                                                                                                                                                                                                                                                                                                                    ",
"                                                                                                                                                                                                                                                                                                                                                                                                                                                                                                                                                                                                                                                                                                                                                                                                                                                                                                                                                                                                                                                                                                                                                                                                                                                                                                                                                                                    ",
"                                                                                                                                                                                                                                                                                                                                                                                                                                                                                                                                                                                                                                                                                                                                                                                                                                                                                                                                                                                                                                                                                                                                                                                                                                                                                                                                                                                    ",
"                                                                                                                                                                                                                                                                                                                                                                                                                                                                                                                                                                                                                                                                                                                                                                                                                                                                                                                                                                                                                                                                                                                                                                                                                                                                                                                                                                                    ",
"                                                                                                                                                                                                                                                                                                                                                                                                                                                                                                                                                                                                                                                                                                                                                                                                                                                                                                                                                                                                                                                                                                                                                                                                                                                                                                                                                                                    ",
"                                                                                                                                                                                                                                                                                                                                                                                                                                                                                                                                                                                                                                                                                                                                                                                                                                                                                                                                                                                                                                                                                                                                                                                                                                                                                                                                                                                    ",
"                                                                                                                                                                                                                                                                                                                                                                                                                                                                                                                                                                                                                                                                                                                                                                                                                                                                                                                                                                                                                                                                                                                                                                                                                                                                                                                                                                                    ",
"                                                                                                                                                                                                                                                                                                                                                                                                                                                                                                                                                                                                                                                                                                                                                                                                                                                                                                                                                                                                                                                                                                                                                                                                                                                                                                                                                                                    ",
"                                                                                                                                                                                                                                                                                                                                                                                                                                                                                                                                                                                                                                                                                                                                                                                                                                                                                                                                                                                                                                                                                                                                                                                                                                                                                                                                                                                    ",
"                                                                                                                                                                                                                                                                                                                                                                                                                                                                                                                                                                                                                                                                                                                                                                                                                                                                                                                                                                                                                                                                                                                                                                                                                                                                                                                                                                                    ",
"                                                                                                                                                                                                                                                                                                                                                                                                                                                                                                                                                                                                                                                                                                                                                                                                                                                                                                                                                                                                                                                                                                                                                                                                                                                                                                                                                                                    ",
"                                                                                                                                                                                                                                                                                                                                                                                                                                                                                                                                                                                                                                                                                                                                                                                                                                                                                                                                                                                                                                                                                                                                                                                                                                                                                                                                                                                    ",
"                                                                                                                                                                                                                                                                                                                                                                                                                                                                                                                                                                                                                                                                                                                                                                                                                                                                                                                                                                                                                                                                                                                                                                                                                                                                                                                                                                                    ",
"                                                                                                                                                                                                                                                                                                                                                                                                                                                                                                                                                                                                                                                                                                                                                                                                                                                                                                                                                                                                                                                                                                                                                                                                                                                                                                                                                                                    ",
"                                                                                                                                                                                                                                                                                                                                                                                                                                                                                                                                                                                                                                                                                                                                                                                                                                                                                                                                                                                                                                                                                                                                                                                                                                                                                                                                                                                    ",
"                                                                                                                                                                                                                                                                                                                                                                                                                                                                                                                                                                                                                                                                                                                                                                                                                                                                                                                                                                                                                                                                                                                                                                                                                                                                                                                                                                                    ",
"                                                                                                                                                                                                                                                                                                                                                                                                                                                                                                                                                                                                                                                                                                                                                                                                                                                                                                                                                                                                                                                                                                                                                                                                                                                                                                                                                                                    ",
"                                                                                                                                                                                                                                                                                                                                                                                                                                                                                                                                                                                                                                                                                                                                                                                                                                                                                                                                                                                                                                                                                                                                                                                                                                                                                                                                                                                    ",
"                                                                                                                                                                                                                                                                                                                                                                                                                                                                                                                                                                                                                                                                                                                                                                                                                                                                                                                                                                                                                                                                                                                                                                                                                                                                                                                                                                                    ",
"                                                                                                                                                                                                                                                                                                                                                                                                                                                                                                                                                                                                                                                                                                                                                                                                                                                                                                                                                                                                                                                                                                                                                                                                                                                                                                                                                                                    ",
"                                                                                                                                                                                                                                                                                                                                                                                                                                                                                                                                                                                                                                                                                                                                                                                                                                                                                                                                                                                                                                                                                                                                                                                                                                                                                                                                                                                    ",
"                                                                                                                                                                                                                                                                                                                                                                                                                                                                                                                                                                                                                                                                                                                                                                                                                                                                                                                                                                                                                                                                                                                                                                                                                                                                                                                                                                                    ",
"                                                                                                                                                                                                                                                                                                                                                                                                                                                                                                                                                                                                                                                                                                                                                                                                                                                                                                                                                                                                                                                                                                                                                                                                                                                                                                                                                                                    ",
"                                                                                                                                                                                                                                                                                                                                                                                                                                                                                                                                                                                                                                                                                                                                                                                                                                                                                                                                                                                                                                                                                                                                                                                                                                                                                                                                                                                    ",
"                                                                                                                                                                                                                                                                                                                                                                                                                                                                                                                                                                                                                                                                                                                                                                                                                                                                                                                                                                                                                                                                                                                                                                                                                                                                                                                                                                                    ",
"                                                                                                                                                                                                                                                                                                                                                                                                                                                                                                                                                                                                                                                                                                                                                                                                                                                                                                                                                                                                                                                                                                                                                                                                                                                                                                                                                                                    ",
"                                                                                                                                                                                                                                                                                                                                                                                                                                                                                                                                                                                                                                                                                                                                                                                                                                                                                                                                                                                                                                                                                                                                                                                                                                                                                                                                                                                    ",
"                                                                                                                                                                                                                                                                                                                                                                                                                                                                                                                                                                                                                                                                                                                                                                                                                                                                                                                                                                                                                                                                                                                                                                                                                                                                                                                                                                                    ",
"                                                                                                                                                                                                                                                                                                                                                                                                                                                                                                                                                                                                                                                                                                                                                                                                                                                                                                                                                                                                                                                                                                                                                                                                                                                                                                                                                                                    ",
"                                                                                                                                                                                                                                                                                                                                                                                                                                                                                                                                                                                                                                                                                                                                                                                                                                                                                                                                                                                                                                                                                                                                                                                                                                                                                                                                                                                    ",
"                                                                                                                                                                                                                                                                                                                                                                                                                                                                                                                                                                                                                                                                                                                                                                                                                                                                                                                                                                                                                                                                                                                                                                                                                                                                                                                                                                                    ",
"                                                                                                                                                                                                                                                                                                                                                                                                                                                                                                                                                                                                                                                                                                                                                                                                                                                                                                                                                                                                                                                                                                                                                                                                                                                                                                                                                                                    ",
"                                                                                                                                                                                                                                                                                                                                                                                                                                                                                                                                                                                                                                                                                                                                                                                                                                                                                                                                                                                                                                                                                                                                                                                                                                                                                                                                                                                    ",
"                                                                                                                                                                                                                                                                                                                                                                                                                                                                                                                                                                                                                                                                                                                                                                                                                                                                                                                                                                                                                                                                                                                                                                                                                                                                                                                                                                                    ",
"                                                                                                                                                                                                                                                                                                                                                                                                                                                                                                                                                                                                                                                                                                                                                                                                                                                                                                                                                                                                                                                                                                                                                                                                                                                                                                                                                                                    ",
"                                                                                                                                                                                                                                                                                                                                                                                                                                                                                                                                                                                                                                                                                                                                                                                                                                                                                                                                                                                                                                                                                                                                                                                                                                                                                                                                                                                    ",
"                                                                                                                                                                                                                                                                                                                                                                                                                                                                                                                                                                                                                                                                                                                                                                                                                                                                                                                                                                                                                                                                                                                                                                                                                                                                                                                                                                                    ",
"                                                                                                                                                                                                                                                                                                                                                                                                                                                                                                                                                                                                                                                                                                                                                                                                                                                                                                                                                                                                                                                                                                                                                                                                                                                                                                                                                                                    ",
"                                                                                                                                                                                                                                                                                                                                                                                                                                                                                                                                                                                                                                                                                                                                                                                                                                                                                                                                                                                                                                                                                                                                                                                                                                                                                                                                                                                    ",
"                                                                                                                                                                                                                                                                                                                                                                                                                                                                                                                                                                                                                                                                                                                                                                                                                                                                                                                                                                                                                                                                                                                                                                                                                                                                                                                                                                                    ",
"                                                                                                                                                                                                                                                                                                                                                                                                                                                                                                                                                                                                                                                                                                                                                                                                                                                                                                                                                                                                                                                                                                                                                                                                                                                                                                                                                                                    ",
"                                                                                                                                                                                                                                                                                                                                                                                                                                                                                                                                                                                                                                                                                                                                                                                                                                                                                                                                                                                                                                                                                                                                                                                                                                                                                                                                                                                    ",
"                                                                                                                                                                                                                                                                                                                                                                                                                                                                                                                                                                                                                                                                                                                                                                                                                                                                                                                                                                                                                                                                                                                                                                                                                                                                                                                                                                                    ",
"                                                                                                                                                                                                                                                                                                                                                                                                                                                                                                                                                                                                                                                                                                                                                                                                                                                                                                                                                                                                                                                                                                                                                                                                                                                                                                                                                                                    ",
"                                                                                                                                                                                                                                                                                                                                                                                                                                                                                                                                                                                                                                                                                                                                                                                                                                                                                                                                                                                                                                                                                                                                                                                                                                                                                                                                                                                    ",
"                                                                                                                                                                                                                                                                                                                                                                                                                                                                                                                                                                                                                                                                                                                                                                                                                                                                                                                                                                                                                                                                                                                                                                                                                                                                                                                                                                                    ",
"                                                                                                                                                                                                                                                                                                                                                                                                                                                                                                                                                                                                                                                                                                                                                                                                                                                                                                                                                                                                                                                                                                                                                                                                                                                                                                                                                                                    ",
"                                                                                                                                                                                                                                                                                                                                                                                                                                                                                                                                                                                                                                                                                                                                                                                                                                                                                                                                                                                                                                                                                                                                                                                                                                                                                                                                                                                    ",
"                                                                                                                                                                                                                                                                                                                                                                                                                                                                                                                                                                                                                                                                                                                                                                                                                                                                                                                                                                                                                                                                                                                                                                                                                                                                                                                                                                                    ",
"                                                                                                                                                                                                                                                                                                                                                                                                                                                                                                                                                                                                                                                                                                                                                                                                                                                                                                                                                                                                                                                                                                                                                                                                                                                                                                                                                                                    ",
"                                                                                                                                                                                                                                                                                                                                                                                                                                                                                                                                                                                                                                                                                                                                                                                                                                                                                                                                                                                                                                                                                                                                                                                                                                                                                                                                                                                    ",
"                                                                                                                                                                                                                                                                                                                                                                                                                                                                                                                                                                                                                                                                                                                                                                                                                                                                                                                                                                                                                                                                                                                                                                                                                                                                                                                                                                                    ",
"                                                                                                                                                                                                                                                                                                                                                                                                                                                                                                                                                                                                                                                                                                                                                                                                                                                                                                                                                                                                                                                                                                                                                                                                                                                                                                                                                                                    ",
"                                                                                                                                                                                                                                                                                                                                                                                                                                                                                                                                                                                                                                                                                                                                                                                                                                                                                                                                                                                                                                                                                                                                                                                                                                                                                                                                                                                    ",
"                                                                                                                                                                                                                                                                                                                                                                                                                                                                                                                                                                                                                                                                                                                                                                                                                                                                                                                                                                                                                                                                                                                                                                                                                                                                                                                                                                                    ",
"                                                                                                                                                                                                                                                                                                                                                                                                                                                                                                                                                                                                                                                                                                                                                                                                                                                                                                                                                                                                                                                                                                                                                                                                                                                                                                                                                                                    ",
"                                                                                                                                                                                                                                                                                                                                                                                                                                                                                                                                                                                                                                                                                                                                                                                                                                                                                                                                                                                                                                                                                                                                                                                                                                                                                                                                                                                    ",
"                                                                                                                                                                                                                                                                                                                                                                                                                                                                                                                                                                                                                                                                                                                                                                                                                                                                                                                                                                                                                                                                                                                                                                                                                                                                                                                                                                                    ",
"                                                                                                                                                                                                                                                                                                                                                                                                                                                                                                                                                                                                                                                                                                                                                                                                                                                                                                                                                                                                                                                                                                                                                                                                                                                                                                                                                                                    ",
"                                                                                                                                                                                                                                                                                                                                                                                                                                                                                                                                                                                                                                                                                                                                                                                                                                                                                                                                                                                                                                                                                                                                                                                                                                                                                                                                                                                    ",
"                                                                                                                                                                                                                                                                                                                                                                                                                                                                                                                                                                                                                                                                                                                                                                                                                                                                                                                                                                                                                                                                                                                                                                                                                                                                                                                                                                                    ",
"                                                                                                                                                                                                                                                                                                                                                                                                                                                                                                                                                                                                                                                                                                                                                                                                                                                                                                                                                                                                                                                                                                                                                                                                                                                                                                                                                                                    ",
"                                                                                                                                                                                                                                                                                                                                                                                                                                                                                                                                                                                                                                                                                                                                                                                                                                                                                                                                                                                                                                                                                                                                                                                                                                                                                                                                                                                    ",
"                                                                                                                                                                                                                                                                                                                                                                                                                                                                                                                                                                                                                                                                                                                                                                                                                                                                                                                                                                                                                                                                                                                                                                                                                                                                                                                                                                                    ",
"                                                                                                                                                                                                                                                                                                                                                                                                                                                                                                                                                                                                                                                                                                                                                                                                                                                                                                                                                                                                                                                                                                                                                                                                                                                                                                                                                                                    ",
"                                                                                                                                                                                                                                                                                                                                                                                                                                                                                                                                                                                                                                                                                                                                                                                                                                                                                                                                                                                                                                                                                                                                                                                                                                                                                                                                                                                    ",
"                                                                                                                                                                                                                                                                                                                                                                                                                                                                                                                                                                                                                                                                                                                                                                                                                                                                                                                                                                                                                                                                                                                                                                                                                                                                                                                                                                                    ",
"                                                                                                                                                                                                                                                                                                                                                                                                                                                                                                                                                                                                                                                                                                                                                                                                                                                                                                                                                                                                                                                                                                                                                                                                                                                                                                                                                                                    ",
"                                                                                                                                                                                                                                                                                                                                                                                                                                                                                                                                                                                                                                                                                                                                                                                                                                                                                                                                                                                                                                                                                                                                                                                                                                                                                                                                                                                    ",
"                                                                                                                                                                                                                                                                                                                                                                                                                                                                                                                                                                                                                                                                                                                                                                                                                                                                                                                                                                                                                                                                                                                                                                                                                                                                                                                                                                                    ",
"                                                                                                                                                                                                                                                                                                                                                                                                                                                                                                                                                                                                                                                                                                                                                                                                                                                                                                                                                                                                                                                                                                                                                                                                                                                                                                                                                                                    ",
"                                                                                                                                                                                                                                                                                                                                                                                                                                                                                                                                                                                                                                                                                                                                                                                                                                                                                                                                                                                                                                                                                                                                                                                                                                                                                                                                                                                    ",
"                                                                                                                                                                                                                                                                                                                                                                                                                                                                                                                                                                                                                                                                                                                                                                                                                                                                                                                                                                                                                                                                                                                                                                                                                                                                                                                                                                                    ",
"                                                                                                                                                                                                                                                                                                                                                                                                                                                                                                                                                                                                                                                                                                                                                                                                                                                                                                                                                                                                                                                                                                                                                                                                                                                                                                                                                                                    ",
"                                                                                                                                                                                                                                                                                                                                                                                                                                                                                                                                                                                                                                                                                                                                                                                                                                                                                                                                                                                                                                                                                                                                                                                                                                                                                                                                                                                    ",
"                                                                                                                                                                                                                                                                                                                                                                                                                                                                                                                                                                                                                                                                                                                                                                                                                                                                                                                                                                                                                                                                                                                                                                                                                                                                                                                                                                                    ",
"                                                                                                                                                                                                                                                                                                                                                                                                                                                                                                                                                                                                                                                                                                                                                                                                                                                                                                                                                                                                                                                                                                                                                                                                                                                                                                                                                                                    ",
"                                                                                                                                                                                                                                                                                                                                                                                                                                                                                                                                                                                                                                                                                                                                                                                                                                                                                                                                                                                                                                                                                                                                                                                                                                                                                                                                                                                    ",
"                                                                                                                                                                                                                                                                                                                                                                                                                                                                                                                                                                                                                                                                                                                                                                                                                                                                                                                                                                                                                                                                                                                                                                                                                                                                                                                                                                                    ",
"                                                                                                                                                                                                                                                                                                                                                                                                                                                                                                                                                                                                                                                                                                                                                                                                                                                                                                                                                                                                                                                                                                                                                                                                                                                                                                                                                                                    ",
"                                                                                                                                                                                                                                                                                                                                                                                                                                                                                                                                                                                                                                                                                                                                                                                                                                                                                                                                                                                                                                                                                                                                                                                                                                                                                                                                                                                    ",
"                                                                                                                                                                                                                                                                                                                                                                                                                                                                                                                                                                                                                                                                                                                                                                                                                                                                                                                                                                                                                                                                                                                                                                                                                                                                                                                                                                                    ",
"                                                                                                                                                                                                                                                                                                                                                                                                                                                                                                                                                                                                                                                                                                                                                                                                                                                                                                                                                                                                                                                                                                                                                                                                                                                                                                                                                                                    ",
"                                                                                                                                                                                                                                                                                                                                                                                                                                                                                                                                                                                                                                                                                                                                                                                                                                                                                                                                                                                                                                                                                                                                                                                                                                                                                                                                                                                    ",
"                                                                                                                                                                                                                                                                                                                                                                                                                                                                                                                                                                                                                                                                                                                                                                                                                                                                                                                                                                                                                                                                                                                                                                                                                                                                                                                                                                                    ",
"                                                                                                                                                                                                                                                                                                                                                                                                                                                                                                                                                                                                                                                                                                                                                                                                                                                                                                                                                                                                                                                                                                                                                                                                                                                                                                                                                                                    ",
"                                                                                                                                                                                                                                                                                                                                                                                                                                                                                                                                                                                                                                                                                                                                                                                                                                                                                                                                                                                                                                                                                                                                                                                                                                                                                                                                                                                    ",
"                                                                                                                                                                                                                                                                                                                                                                                                                                                                                                                                                                                                                                                                                                                                                                                                                                                                                                                                                                                                                                                                                                                                                                                                                                                                                                                                                                                    ",
"                                                                                                                                                                                                                                                                                                                                                                                                                                                                                                                                                                                                                                                                                                                                                                                                                                                                                                                                                                                                                                                                                                                                                                                                                                                                                                                                                                                    ",
"                                                                                                                                                                                                                                                                                                                                                                                                                                                                                                                                                                                                                                                                                                                                                                                                                                                                                                                                                                                                                                                                                                                                                                                                                                                                                                                                                                                    ",
"                                                                                                                                                                                                                                                                                                                                                                                                                                                                                                                                                                                                                                                                                                                                                                                                                                                                                                                                                                                                                                                                                                                                                                                                                                                                                                                                                                                    ",
"                                                                                                                                                                                                                                                                                                                                                                                                                                                                                                                                                                                                                                                                                                                                                                                                                                                                                                                                                                                                                                                                                                                                                                                                                                                                                                                                                                                    ",
"                                                                                                                                                                                                                                                                                                                                                                                                                                                                                                                                                                                                                                                                                                                                                                                                                                                                                                                                                                                                                                                                                                                                                                                                                                                                                                                                                                                    ",
"                                                                                                                                                                                                                                                                                                                                                                                                                                                                                                                                                                                                                                                                                                                                                                                                                                                                                                                                                                                                                                                                                                                                                                                                                                                                                                                                                                                    ",
"                                                                                                                                                                                                                                                                                                                                                                                                                                                                                                                                                                                                                                                                                                                                                                                                                                                                                                                                                                                                                                                                                                                                                                                                                                                                                                                                                                                    ",
"                                                                                                                                                                                                                                                                                                                                                                                                                                                                                                                                                                                                                                                                                                                                                                                                                                                                                                                                                                                                                                                                                                                                                                                                                                                                                                                                                                                    ",
"                                                                                                                                                                                                                                                                                                                                                                                                                                                                                                                                                                                                                                                                                                                                                                                                                                                                                                                                                                                                                                                                                                                                                                                                                                                                                                                                                                                    ",
"                                                                                                                                                                                                                                                                                                                                                                                                                                                                                                                                                                                                                                                                                                                                                                                                                                                                                                                                                                                                                                                                                                                                                                                                                                                                                                                                                                                    ",
"                                                                                                                                                                                                                                                                                                                                                                                                                                                                                                                                                                                                                                                                                                                                                                                                                                                                                                                                                                                                                                                                                                                                                                                                                                                                                                                                                                                    ",
"                                                                                                                                                                                                                                                                                                                                                                                                                                                                                                                                                                                                                                                                                                                                                                                                                                                                                                                                                                                                                                                                                                                                                                                                                                                                                                                                                                                    ",
"                                                                                                                                                                                                                                                                                                                                                                                                                                                                                                                                                                                                                                                                                                                                                                                                                                                                                                                                                                                                                                                                                                                                                                                                                                                                                                                                                                                    ",
"                                                                                                                                                                                                                                                                                                                                                                                                                                                                                                                                                                                                                                                                                                                                                                                                                                                                                                                                                                                                                                                                                                                                                                                                                                                                                                                                                                                    ",
"                                                                                                                                                                                                                                                                                                                                                                                                                                                                                                                                                                                                                                                                                                                                                                                                                                                                                                                                                                                                                                                                                                                                                                                                                                                                                                                                                                                    ",
"                                                                                                                                                                                                                                                                                                                                                                                                                                                                                                                                                                                                                                                                                                                                                                                                                                                                                                                                                                                                                                                                                                                                                                                                                                                                                                                                                                                    ",
"                                                                                                                                                                                                                                                                                                                                                                                                                                                                                                                                                                                                                                                                                                                                                                                                                                                                                                                                                                                                                                                                                                                                                                                                                                                                                                                                                                                    ",
"                                                                                                                                                                                                                                                                                                                                                                                                                                                                                                                                                                                                                                                                                                                                                                                                                                                                                                                                                                                                                                                                                                                                                                                                                                                                                                                                                                                    ",
"                                                                                                                                                                                                                                                                                                                                                                                                                                                                                                                                                                                                                                                                                                                                                                                                                                                                                                                                                                                                                                                                                                                                                                                                                                                                                                                                                                                    ",
"                                                                                                                                                                                                                                                                                                                                                                                                                                                                                                                                                                                                                                                                                                                                                                                                                                                                                                                                                                                                                                                                                                                                                                                                                                                                                                                                                                                    ",
"                                                                                                                                                                                                                                                                                                                                                                                                                                                                                                                                                                                                                                                                                                                                                                                                                                                                                                                                                                                                                                                                                                                                                                                                                                                                                                                                                                                    ",
"                                                                                                                                                                                                                                                                                                                                                                                                                                                                                                                                                                                                                                                                                                                                                                                                                                                                                                                                                                                                                                                                                                                                                                                                                                                                                                                                                                                    ",
"                                                                                                                                                                                                                                                                                                                                                                                                                                                                                                                                                                                                                                                                                                                                                                                                                                                                                                                                                                                                                                                                                                                                                                                                                                                                                                                                                                                    ",
"                                                                                                                                                                                                                                                                                                                                                                                                                                                                                                                                                                                                                                                                                                                                                                                                                                                                                                                                                                                                                                                                                                                                                                                                                                                                                                                                                                                    ",
"                                                                                                                                                                                                                                                                                                                                                                                                                                                                                                                                                                                                                                                                                                                                                                                                                                                                                                                                                                                                                                                                                                                                                                                                                                                                                                                                                                                    ",
"                                                                                                                                                                                                                                                                                                                                                                                                                                                                                                                                                                                                                                                                                                                                                                                                                                                                                                                                                                                                                                                                                                                                                                                                                                                                                                                                                                                    ",
"                                                                                                                                                                                                                                                                                                                                                                                                                                                                                                                                                                                                                                                                                                                                                                                                                                                                                                                                                                                                                                                                                                                                                                                                                                                                                                                                                                                    ",
"                                                                                                                                                                                                                                                                                                                                                                                                                                                                                                                                                                                                                                                                                                                                                                                                                                                                                                                                                                                                                                                                                                                                                                                                                                                                                                                                                                                    ",
"                                                                                                                                                                                                                                                                                                                                                                                                                                                                                                                                                                                                                                                                                                                                                                                                                                                                                                                                                                                                                                                                                                                                                                                                                                                                                                                                                                                    ",
"                                                                                                                                                                                                                                                                                                                                                                                                                                                                                                                                                                                                                                                                                                                                                                                                                                                                                                                                                                                                                                                                                                                                                                                                                                                                                                                                                                                    ",
"                                                                                                                                                                                                                                                                                                                                                                                                                                                                                                                                                                                                                                                                                                                                                                                                                                                                                                                                                                                                                                                                                                                                                                                                                                                                                                                                                                                    ",
"                                                                                                                                                                                                                                                                                                                                                                                                                                                                                                                                                                                                                                                                                                                                                                                                                                                                                                                                                                                                                                                                                                                                                                                                                                                                                                                                                                                    ",
"                                                                                                                                                                                                                                                                                                                                                                                                                                                                                                                                                                                                                                                                                                                                                                                                                                                                                                                                                                                                                                                                                                                                                                                                                                                                                                                                                                                    ",
"                                                                                                                                                                                                                                                                                                                                                                                                                                                                                                                                                                                                                                                                                                                                                                                                                                                                                                                                                                                                                                                                                                                                                                                                                                                                                                                                                                                    ",
"                                                                                                                                                                                                                                                                                                                                                                                                                                                                                                                                                                                                                                                                                                                                                                                                                                                                                                                                                                                                                                                                                                                                                                                                                                                                                                                                                                                    ",
"                                                                                                                                                                                                                                                                                                                                                                                                                                                                                                                                                                                                                                                                                                                                                                                                                                                                                                                                                                                                                                                                                                                                                                                                                                                                                                                                                                                    ",
"                                                                                                                                                                                                                                                                                                                                                                                                                                                                                                                                                                                                                                                                                                                                                                                                                                                                                                                                                                                                                                                                                                                                                                                                                                                                                                                                                                                    ",
"                                                                                                                                                                                                                                                                                                                                                                                                                                                                                                                                                                                                                                                                                                                                                                                                                                                                                                                                                                                                                                                                                                                                                                                                                                                                                                                                                                                    ",
"                                                                                                                                                                                                                                                                                                                                                                                                                                                                                                                                                                                                                                                                                                                                                                                                                                                                                                                                                                                                                                                                                                                                                                                                                                                                                                                                                                                    ",
"                                                                                                                                                                                                                                                                                                                                                                                                                                                                                                                                                                                                                                                                                                                                                                                                                                                                                                                                                                                                                                                                                                                                                                                                                                                                                                                                                                                    ",
"                                                                                                                                                                                                                                                                                                                                                                                                                                                                                                                                                                                                                                                                                                                                                                                                                                                                                                                                                                                                                                                                                                                                                                                                                                                                                                                                                                                    ",
"                                                                                                                                                                                                                                                                                                                                                                                                                                                                                                                                                                                                                                                                                                                                                                                                                                                                                                                                                                                                                                                                                                                                                                                                                                                                                                                                                                                    ",
"                                                                                                                                                                                                                                                                                                                                                                                                                                                                                                                                                                                                                                                                                                                                                                                                                                                                                                                                                                                                                                                                                                                                                                                                                                                                                                                                                                                    ",
"                                                                                                                                                                                                                                                                                                                                                                                                                                                                                                                                                                                                                                                                                                                                                                                                                                                                                                                                                                                                                                                                                                                                                                                                                                                                                                                                                                                    ",
"                                                                                                                                                                                                                                                                                                                                                                                                                                                                                                                                                                                                                                                                                                                                                                                                                                                                                                                                                                                                                                                                                                                                                                                                                                                                                                                                                                                    ",
"                                                                                                                                                                                                                                                                                                                                                                                                                                                                                                                                                                                                                                                                                                                                                                                                                                                                                                                                                                                                                                                                                                                                                                                                                                                                                                                                                                                    ",
"                                                                                                                                                                                                                                                                                                                                                                                                                                                                                                                                                                                                                                                                                                                                                                                                                                                                                                                                                                                                                                                                                                                                                                                                                                                                                                                                                                                    ",
"                                                                                                                                                                                                                                                                                                                                                                                                                                                                                                                                                                                                                                                                                                                                                                                                                                                                                                                                                                                                                                                                                                                                                                                                                                                                                                                                                                                    ",
"                                                                                                                                                                                                                                                                                                                                                                                                                                                                                                                                                                                                                                                                                                                                                                                                                                                                                                                                                                                                                                                                                                                                                                                                                                                                                                                                                                                    ",
"                                                                                                                                                                                                                                                                                                                                                                                                                                                                                                                                                                                                                                                                                                                                                                                                                                                                                                                                                                                                                                                                                                                                                                                                                                                                                                                                                                                    ",
"                                                                                                                                                                                                                                                                                                                                                                                                                                                                                                                                                                                                                                                                                                                                                                                                                                                                                                                                                                                                                                                                                                                                                                                                                                                                                                                                                                                    ",
"                                                                                                                                                                                                                                                                                                                                                                                                                                                                                                                                                                                                                                                                                                                                                                                                                                                                                                                                                                                                                                                                                                                                                                                                                                                                                                                                                                                    ",
"                                                                                                                                                                                                                                                                                                                                                                                                                                                                                                                                                                                                                                                                                                                                                                                                                                                                                                                                                                                                                                                                                                                                                                                                                                                                                                                                                                                    ",
"                                                                                                                                                                                                                                                                                                                                                                                                                                                                                                                                                                                                                                                                                                                                                                                                                                                                                                                                                                                                                                                                                                                                                                                                                                                                                                                                                                                    ",
"                                                                                                                                                                                                                                                                                                                                                                                                                                                                                                                                                                                                                                                                                                                                                                                                                                                                                                                                                                                                                                                                                                                                                                                                                                                                                                                                                                                    ",
"                                                                                                                                                                                                                                                                                                                                                                                                                                                                                                                                                                                                                                                                                                                                                                                                                                                                                                                                                                                                                                                                                                                                                                                                                                                                                                                                                                                    ",
"                                                                                                                                                                                                                                                                                                                                                                                                                                                                                                                                                                                                                                                                                                                                                                                                                                                                                                                                                                                                                                                                                                                                                                                                                                                                                                                                                                                    ",
"                                                                                                                                                                                                                                                                                                                                                                                                                                                                                                                                                                                                                                                                                                                                                                                                                                                                                                                                                                                                                                                                                                                                                                                                                                                                                                                                                                                    ",
"                                                                                                                                                                                                                                                                                                                                                                                                                                                                                                                                                                                                                                                                                                                                                                                                                                                                                                                                                                                                                                                                                                                                                                                                                                                                                                                                                                                    ",
"                                                                                                                                                                                                                                                                                                                                                                                                                                                                                                                                                                                                                                                                                                                                                                                                                                                                                                                                                                                                                                                                                                                                                                                                                                                                                                                                                                                    ",
"                                                                                                                                                                                                                                                                                                                                                                                                                                                                                                                                                                                                                                                                                                                                                                                                                                                                                                                                                                                                                                                                                                                                                                                                                                                                                                                                                                                    ",
"                                                                                                                                                                                                                                                                                                                                                                                                                                                                                                                                                                                                                                                                                                                                                                                                                                                                                                                                                                                                                                                                                                                                                                                                                                                                                                                                                                                    ",
"                                                                                                                                                                                                                                                                                                                                                                                                                                                                                                                                                                                                                                                                                                                                                                                                                                                                                                                                                                                                                                                                                                                                                                                                                                                                                                                                                                                    ",
"                                                                                                                                                                                                                                                                                                                                                                                                                                                                                                                                                                                                                                                                                                                                                                                                                                                                                                                                                                                                                                                                                                                                                                                                                                                                                                                                                                                    ",
"                                                                                                                                                                                                                                                                                                                                                                                                                                                                                                                                                                                                                                                                                                                                                                                                                                                                                                                                                                                                                                                                                                                                                                                                                                                                                                                                                                                    ",
"                                                                                                                                                                                                                                                                                                                                                                                                                                                                                                                                                                                                                                                                                                                                                                                                                                                                                                                                                                                                                                                                                                                                                                                                                                                                                                                                                                                    ",
"                                                                                                                                                                                                                                                                                                                                                                                                                                                                                                                                                                                                                                                                                                                                                                                                                                                                                                                                                                                                                                                                                                                                                                                                                                                                                                                                                                                    ",
"                                                                                                                                                                                                                                                                                                                                                                                                                                                                                                                                                                                                                                                                                                                                                                                                                                                                                                                                                                                                                                                                                                                                                                                                                                                                                                                                                                                    ",
"                                                                                                                                                                                                                                                                                                                                                                                                                                                                                                                                                                                                                                                                                                                                                                                                                                                                                                                                                                                                                                                                                                                                                                                                                                                                                                                                                                                    ",
"                                                                                                                                                                                                                                                                                                                                                                                                                                                                                                                                                                                                                                                                                                                                                                                                                                                                                                                                                                                                                                                                                                                                                                                                                                                                                                                                                                                    ",
"                                                                                                                                                                                                                                                                                                                                                                                                                                                                                                                                                                                                                                                                                                                                                                                                                                                                                                                                                                                                                                                                                                                                                                                                                                                                                                                                                                                    ",
"                                                                                                                                                                                                                                                                                                                                                                                                                                                                                                                                                                                                                                                                                                                                                                                                                                                                                                                                                                                                                                                                                                                                                                                                                                                                                                                                                                                    ",
"                                                                                                                                                                                                                                                                                                                                                                                                                                                                                                                                                                                                                                                                                                                                                                                                                                                                                                                                                                                                                                                                                                                                                                                                                                                                                                                                                                                    ",
"                                                                                                                                                                                                                                                                                                                                                                                                                                                                                                                                                                                                                                                                                                                                                                                                                                                                                                                                                                                                                                                                                                                                                                                                                                                                                                                                                                                    ",
"                                                                                                                                                                                                                                                                                                                                                                                                                                                                                                                                                                                                                                                                                                                                                                                                                                                                                                                                                                                                                                                                                                                                                                                                                                                                                                                                                                                    ",
"                                                                                                                                                                                                                                                                                                                                                                                                                                                                                                                                                                                                                                                                                                                                                                                                                                                                                                                                                                                                                                                                                                                                                                                                                                                                                                                                                                                    ",
"                                                                                                                                                                                                                                                                                                                                                                                                                                                                                                                                                                                                                                                                                                                                                                                                                                                                                                                                                                                                                                                                                                                                                                                                                                                                                                                                                                                    ",
"                                                                                                                                                                                                                                                                                                                                                                                                                                                                                                                                                                                                                                                                                                                                                                                                                                                                                                                                                                                                                                                                                                                                                                                                                                                                                                                                                                                    ",
"                                                                                                                                                                                                                                                                                                                                                                                                                                                                                                                                                                                                                                                                                                                                                                                                                                                                                                                                                                                                                                                                                                                                                                                                                                                                                                                                                                                    ",
"                                                                                                                                                                                                                                                                                                                                                                                                                                                                                                                                                                                                                                                                                                                                                                                                                                                                                                                                                                                                                                                                                                                                                                                                                                                                                                                                                                                    ",
"                                                                                                                                                                                                                                                                                                                                                                                                                                                                                                                                                                                                                                                                                                                                                                                                                                                                                                                                                                                                                                                                                                                                                                                                                                                                                                                                                                                    ",
"                                                                                                                                                                                                                                                                                                                                                                                                                                                                                                                                                                                                                                                                                                                                                                                                                                                                                                                                                                                                                                                                                                                                                                                                                                                                                                                                                                                    ",
"                                                                                                                                                                                                                                                                                                                                                                                                                                                                                                                                                                                                                                                                                                                                                                                                                                                                                                                                                                                                                                                                                                                                                                                                                                                                                                                                                                                    ",
"                                                                                                                                                                                                                                                                                                                                                                                                                                                                                                                                                                                                                                                                                                                                                                                                                                                                                                                                                                                                                                                                                                                                                                                                                                                                                                                                                                                    ",
"                                                                                                                                                                                                                                                                                                                                                                                                                                                                                                                                                                                                                                                                                                                                                                                                                                                                                                                                                                                                                                                                                                                                                                                                                                                                                                                                                                                    ",
"                                                                                                                                                                                                                                                                                                                                                                                                                                                                                                                                                                                                                                                                                                                                                                                                                                                                                                                                                                                                                                                                                                                                                                                                                                                                                                                                                                                    ",
"                                                                                                                                                                                                                                                                                                                                                                                                                                                                                                                                                                                                                                                                                                                                                                                                                                                                                                                                                                                                                                                                                                                                                                                                                                                                                                                                                                                    ",
"                                                                                                                                                                                                                                                                                                                                                                                                                                                                                                                                                                                                                                                                                                                                                                                                                                                                                                                                                                                                                                                                                                                                                                                                                                                                                                                                                                                    ",
"                                                                                                                                                                                                                                                                                                                                                                                                                                                                                                                                                                                                                                                                                                                                                                                                                                                                                                                                                                                                                                                                                                                                                                                                                                                                                                                                                                                    ",
"                                                                                                                                                                                                                                                                                                                                                                                                                                                                                                                                                                                                                                                                                                                                                                                                                                                                                                                                                                                                                                                                                                                                                                                                                                                                                                                                                                                    ",
"                                                                                                                                                                                                                                                                                                                                                                                                                                                                                                                                                                                                                                                                                                                                                                                                                                                                                                                                                                                                                                                                                                                                                                                                                                                                                                                                                                                    ",
"                                                                                                                                                                                                                                                                                                                                                                                                                                                                                                                                                                                                                                                                                                                                                                                                                                                                                                                                                                                                                                                                                                                                                                                                                                                                                                                                                                                    ",
"                                                                                                                                                                                                                                                                                                                                                                                                                                                                                                                                                                                                                                                                                                                                                                                                                                                                                                                                                                                                                                                                                                                                                                                                                                                                                                                                                                                    ",
"                                                                                                                                                                                                                                                                                                                                                                                                                                                                                                                                                                                                                                                                                                                                                                                                                                                                                                                                                                                                                                                                                                                                                                                                                                                                                                                                                                                    ",
"                                                                                                                                                                                                                                                                                                                                                                                                                                                                                                                                                                                                                                                                                                                                                                                                                                                                                                                                                                                                                                                                                                                                                                                                                                                                                                                                                                                    ",
"                                                                                                                                                                                                                                                                                                                                                                                                                                                                                                                                                                                                                                                                                                                                                                                                                                                                                                                                                                                                                                                                                                                                                                                                                                                                                                                                                                                    ",
"                                                                                                                                                                                                                                                                                                                                                                                                                                                                                                                                                                                                                                                                                                                                                                                                                                                                                                                                                                                                                                                                                                                                                                                                                                                                                                                                                                                    ",
"                                                                                                                                                                                                                                                                                                                                                                                                                                                                                                                                                                                                                                                                                                                                                                                                                                                                                                                                                                                                                                                                                                                                                                                                                                                                                                                                                                                    ",
"                                                                                                                                                                                                                                                                                                                                                                                                                                                                                                                                                                                                                                                                                                                                                                                                                                                                                                                                                                                                                                                                                                                                                                                                                                                                                                                                                                                    ",
"                                                                                                                                                                                                                                                                                                                                                                                                                                                                                                                                                                                                                                                                                                                                                                                                                                                                                                                                                                                                                                                                                                                                                                                                                                                                                                                                                                                    ",
"                                                                                                                                                                                                                                                                                                                                                                                                                                                                                                                                                                                                                                                                                                                                                                                                                                                                                                                                                                                                                                                                                                                                                                                                                                                                                                                                                                                    ",
"                                                                                                                                                                                                                                                                                                                                                                                                                                                                                                                                                                                                                                                                                                                                                                                                                                                                                                                                                                                                                                                                                                                                                                                                                                                                                                                                                                                    ",
"                                                                                                                                                                                                                                                                                                                                                                                                                                                                                                                                                                                                                                                                                                                                                                                                                                                                                                                                                                                                                                                                                                                                                                                                                                                                                                                                                                                    ",
"                                                                                                                                                                                                                                                                                                                                                                                                                                                                                                                                                                                                                                                                                                                                                                                                                                                                                                                                                                                                                                                                                                                                                                                                                                                                                                                                                                                    ",
"                                                                                                                                                                                                                                                                                                                                                                                                                                                            Y.` ( ( ~ ~ ~ ( Y.                                                                                                                                                                                                                                                                                                                                                                                                                                                                                                                                                                                                                                                                                                                                                                                                                                                                                                      ",
"                                                                                                                                                                                                                                                                                                                                                                                                                                                    Y.( ` ` _ ) <.) ) ) ) ' ~ /                                                                                                                                                                                                                                                                                                                                                                                                                                                                                                                                                                                                                                                                                                                                                                                                                                                                                                     ",
"                                                                                                                                                                                                                                                                                                                                                                                                                                                  R.` ..0.1.-.] n c D K =.=.) _ /                                                                                                                                                                                                                                                                                                                                                                                                                                                                                                                                                                                                                                                                                                                                                                                                                                                                                                   ",
"                                                                                                                                                                                                                                                                                                                                                                                                                                              ` ..0.<.<.=.T K F c k z V Z $.>.) ' ~                                                                                                                                                                                                                                                                                                                                                                                                                                                                                                                                                                                                                                                                                                                                                                                                                                                                                                 ",
"                                                                                                                                                                                                                                                                                                                                                                                                                                          ^...<.3.3.=.H L L P G G G C V z c H G S ' _ Y.                                                                                                                                                                                                                                                                                                                                                                                                                                                                                                                                                                                                                                                                                                                                                                                                                                                                                            ",
"                                                                                                                                                                                                                                                                                                                                                                                                                                        ` ..1.3.-.%.$.H D n A P H ) D V p < g k L G ' '                                                                                                                                                                                                                                                                                                                                                                                                                                                                                                                                                                                                                                                                                                                                                                                                                                                                                             ",
"                                                                                                                                                                                                                                                                                                                                                                                                                                  Y./ ^ { w.7.2.T Z v c c D H D ] H c p : % < c c n G ' /                                                                                                                                                                                                                                                                                                                                                                                                                                                                                                                                                                                                                                                                                                                                                                                                                                                                                           ",
"                                                                                                                                                                                                                                                                                                                                                                                                                                ( ` ..0.w.7.2.%.L v c M k k k 2 ; ; 2 p i : < k k c G _ Q Y.                                                                                                                                                                                                                                                                                                                                                                                                              Y.Y.Y.                                                                                                                                                                                                                                                                                                                                                                                                                                                                    ",
"                                                                                                                                                                                                                                                                                                                                                                                                                            ` ..<.1.3.3.2.2.2.-.] c k k = ; v R M b h 2 % $ . @ 2 e C P w ~                                                                                                                                                                                                                                                                                                                                                                                                       / Q ~ ^ ^ ^ _ ^ ^ ^ ( (                                                                                                                                                                                                                                                                                                                                                                                                                                                           ",
"                                                                                                                                                                                                                                                                                                                                                                                                                        U.` ..1.3.2.7.u.2.%.$.;.H r # + @ v 2.,.b v R Z a p < = o ; z J f q (                                                                                                                                                                                                                                                                                                                                                                                                   Q q m m k z b a p e e q ~ ~ ( U.                                                                                                                                                                                                                                                                                                                                                                                                                                                    ",
"                                                                                                                                                                                                                                                                                                                                                                                                                    Y.` 0.q.3.3.3.3.2.$.K T H M e - + # g T %.b D D $.v > z c k ; < s a V f w                                                                                                                                                                                                                                                                                                                                                                                                 Q q j c c h < 2 p g r e 0 q q ^ ^ ( Y.                                                                                                                                                                                                                                                                                                                                                                                                                                                ",
"                                                                                                                                                                                                                                                                                                                                                                                                                T.` ..q.7.3.2.,.,.-.T L H H M r # + 0 n M z Z Z F K -.Z p C L D g < a a C d q ~                                                                                                                                                                                                                                                                                                                                                                                           T.Q 8 j c z < > < g j e e 9 0 9 e m m _ _ ` Y.Q.                                                                                                                                                                                                                                                                                                                                                                                                                                          ",
"                                                                                                                                                                                                                                                                                                                                                                                                              R...q.3.3.,.,.-.T ] ) ) H M k 9 e 0 9 j m j g z C J J $.T v L L D j 2 a b z e 9 8 T.                                                                                                                                                                                                                                                                                                                                                                                      U.Q w q K C p < < d j 9 j e e j h h v D R [ [ { e.^./.                                                                                                                                                                                                                                                                                                                                                                                                                                      ",
"                                                                                                                                                                                                                                                                                                                                                                                                          Y...q.7.2.,.-.-.-.$.T ] [ ) M r e r k e ; 9 e g k k k C K @.J k D G c z p a s 2 e g w !                                                                                                                                                                                                                                                                                                                                                                                       Q q m k K z l g g g j m j j k c v Z Z R R R F N [ 0.e.^.Y.Q.                                                                                                                                                                                                                                                                                                                                                                                                                                ",
"                                                                                                                                                                                                                                                                                                                                                                                                      Y...q.w.3.1.;.;.;.-.T T ] L H v k v v D C h g 2 g j D G A k +.C z g c m j l l 2 3 1 e l f 8 Y.                                                                                                                                                                                                                                                                                                                                                                                  ~ m z v H L n G n G G G ) ) ) H D v v Z C Z v v v D ] 3.1.w.e.X.Y.                                                                                                                                                                                                                                                                                                                                                                                                                            ",
"                                                                                                                                                                                                                                                                                                                                                                                                    Y.X.q.7.2.-.] -.;.] H L ] T v h h v R -.T Z s p 2 2 g c G P l J p p h k x x l l e 3 1 3 c x q ~                                                                                                                                                                                                                                                                                                                                                                                 Y.~ J Z %.3.3.1.t.w.w.w.3.4.4.:.-.F v z z h v g k H H H %.-.2.7.r.e.` U.                                                                                                                                                                                                                                                                                                                                                                                                                        ",
"                                                                                                                                                                                                                                                                                                                                                                                                R.X...{ 1.1.-.T T ] -.) G M v h a z Z K R T T Z s a 2 2 < g m G j c > h D c x x l g e 3 # ; l x m 8 U.                                                                                                                                                                                                                                                                                                                                                                              ~ m p %.u.t.3.<.:.F k k C Z J L T L K F D c D 9 j H H M F R F T { q.w.e.e.^.                                                                                                                                                                                                                                                                                                                                                                                                                    ",
"                                                                                                                                                                                                                                                                                                                                                                                            /.X.q.1.<.{ ) H H $.-.L H G k e < < z z C F v D L F v p p g g g k n j r = v F C l d d 9 e e 3 < g c A w !                                                                                                                                                                                                                                                                                                                                                                             Y.8 r L 2.2.>.=.P H P j : % : : p z c C c k k D j D G D M D M c M F H :.7.t.w.X.E.                                                                                                                                                                                                                                                                                                                                                                                                                ",
"                                                                                                                                                                                                                                                                                                                                                                                          ^.e.q.1.;.-.] ] ] ] ] L M h e < < h v z g g g e m G M k g 2 h g g g g r # # b v C z l 9 9 g z z z l h c m 8 T.                                                                                                                                                                                                                                                                                                                                                                          ! q m 1.=.J J >.+.D L l : < j j k n n c c c c z b K D c A c l c c c D F H ;.w.w.e.X.E.                                                                                                                                                                                                                                                                                                                                                                                                            ",
"                                                                                                                                                                                                                                                                                                                                                                                      /.e.w.3.:.-.T T -.-.K D D g < > < z F F c g - - ; - 9 m n k k z z h g g g e @ # r a Z C c j j z C V V j 2 h M q Q                                                                                                                                                                                                                                                                                                                                                                         ( w m ;.N n S *.>.>.k D < < x D D D D A x e g k v Z T F c A x l l l z z v v N H :.w.w.e.R.E.                                                                                                                                                                                                                                                                                                                                                                                                        ",
"                                                                                                                                                                                                                                                                                                                                                                                    ^.e.w.:.T T L $.T K v j < : * < j c C c k k g < : * ; r k j g h h h z z h g ; - @ e h Z C v j c B S J J k 2 # r r y E.                                                                                                                                                                                                                                                                                                                                                                      8 _ ] -.L D J +.D J B < l x x B D P H D c d d k z L =.L D x c l g l l z z k z c M L :.3.r.e.^.E.                                                                                                                                                                                                                                                                                                                                                                                                    ",
"                                                                                                                                                                                                                                                                                                                                                                                /.^.q.1.-.L K T K H F k g < : : g j k c k j j j < - = : < g g g 2 2 < < 2 g p 9 , 9 ; e g v C z g B B B J D g r # O U 6._.                                                                                                                                                                                                                                                                                                                                                                    / 8 H T $.L F J V B u u u x D L L D J D B x d g x D =.:.=.F k c j g j j j z z k k n c v T 2.3.w.e.R.Q.                                                                                                                                                                                                                                                                                                                                                                                                ",
"                                                                                                                                                                                                                                                                                                                                                                              ^.0.0.{ [ H H H H F c j < < < < g j j j g g g g g < - - < e g g 2 < > = : : > < < . 9 < 2 g h g j g x A B C M b 3 # E 8.d.o.).                                                                                                                                                                                                                                                                                                                                                                  ! q N D $.D D x g u * u l A +.=.D c c l d d < g x F =.:.=.F k k j g j j j k k k c x c n n M H ;.w.w.e.^.                                                                                                                                                                                                                                                                                                                                                                                              ",
"                                                                                                                                                                                                                                                                                                                                                                          E.X.0.<.;.H H H ) G n j < < < j k k j u < < < < < < < < < < < e e < < < = : * * * * * * j < < 2 < = g n x k k h h t 4 5.8.a.g.7X_.                                                                                                                                                                                                                                                                                                                                                                Y.~ ' k z $.c x j l . $ g l D =.=.L D D x g d g x c D L L H D c k j g l j j k k k c A A m j j k D $.2.3.w.^.Y.                                                                                                                                                                                                                                                                                                                                                                                          ",
"                                                                                                                                                                                                                                                                                                                                                                      /.X.e.q.] L L P P P G k g : < g k D B j < < < < < < < < < < < < < < < : * * * * . . . . $ : C g = ; < - e ; c k r h 4 I 9.a.B.D.H.A. X).                                                                                                                                                                                                                                                                                                                                                              / _ m r h T k l g g $ . * : l j j B J H D j j k k c D F D D D c c g g j j l k c c c Z C k k n n c C K $.>.w.^.Y.Y.                                                                                                                                                                                                                                                                                                                                                                                      ",
"                                                                                                                                                                                                                                                                                                                                                                    Y.` 0.;.T R F H P L G x g < < j c D D c g < < < < > < < < < < < < e e < * $ . . . . . . . . > L c = = 3 # # ; # e 3 O I 6.j.L.D.H.qXwX9X XGX                                                                                                                                                                                                                                                                                                                                                            ( _ m k z K z l 9 . . . . . < : $ , < u g j c c k k F F c A D A c j g g j l k c c c b Z D n m x x F Z Z J ) <.q.^.^./.                                                                                                                                                                                                                                                                                                                                                                                  ",
"                                                                                                                                                                                                                                                                                                                                                                Q.^.0.{ H Z Z v v n m j j g a a c c D c k k j < < : : : < < < g e e e e < < * * * $ & & . . . $ D :.K 2 % 1 1 3 1 3 O O E g.V.D.0XqXAXqXBX2X7X*X                                                                                                                                                                                                                                                                                                                                                            ^ k c k z v p < - X X . < > j c c B < : < g k l k F L F x c D D B k j j j l k c c z b Z v v M n n n m G H M F L 4.t.w.^./.                                                                                                                                                                                                                                                                                                                                                                              ",
"                                                                                                                                                                                                                                                                                                                                                              U.X._ ) H v b b c z k e 0 - < z V z j j g j c j < < < < < < < < < e < < < < : * * * . . . . . & * :.4.K h 3 t Y 5.5.Y Y | a.j.D.H.qXBXeXIXeXBXyX}.(.                                                                                                                                                                                                                                                                                                                                                        U.q k z g 2 h > $ - < < * l c c c L >.=.k : : , : j =.L F k c A c D c k k k k c c c k h b z z v M M G m m m N H R %.%.4.w.^.E.                                                                                                                                                                                                                                                                                                                                                                            ",
"                                                                                                                                                                                                                                                                                                                                                          E.X.q.{ ) M v a a a C V g ; 9 k h a a < < < g j k j < < < < < < < < g g 2 < < < , * * $ . . $ = . . < >.:.H b Y a.6.a.a.p.p.p.j.D.0XqXeXBXyXyXLXeXqX7X{.                                                                                                                                                                                                                                                                                                                                                        Q q e h h p p : p j F g u g J F B D =.4.=.< * . . j D F D c A D B c D c k l c c c k k j r k k b v v M M n G G H R R R L =.0.e.^.Q.                                                                                                                                                                                                                                                                                                                                                                        ",
"                                                                                                                                                                                                                                                                                                                                                      Q.R.e.1.[ T K b h a p i p p p j k k g ; @ - < < < j k j g < < < < < < < g g g < < ; , - * - * & & . X X g P D D Y 6.a.s.s.s.s.j.h.Z.2XwXwXBXAXyXyXLXIXBX4X}.                                                                                                                                                                                                                                                                                                                                                      / 8 0 c z a g < 2 a B L c u u =.L C c k D P c k < . < k F H F D D D F J D c k z c c c k f 9 j k b b b v M A G G L L T T L H L ;.q.e./.                                                                                                                                                                                                                                                                                                                                                                      ",
"                                                                                                                                                                                                                                                                                                                                                    R.X.{ [ R R Z F v p > < p p v Z J V l 9 # + * : : < p g j g < < < < < < < g g g g < < ; , , * * @ * @ . . k D 9 r E V.V.z.h.x.z.z.S.H.2XwXwXBXwXyXyXLXIXIXwXOX[.                                                                                                                                                                                                                                                                                                                                                    Q q q k s p g < 2 a C +.L j u :.L F F g g c D F k : < e j c D F H L L H c c k k c c c j f f j k z z c z C B D F G H ) ) ) H F T -.1.w.^.E.                                                                                                                                                                                                                                                                                                                                                                  ",
"                                                                                                                                                                                                                                                                                                                                                R...{ ;.-.K b b Z Z z > * < c D J K C l < - + + @ * : : < < < < < < < < < < < g g g g < < < , , * * * = . o X g c g r 9.j.h.x.x.x.v.F.G.H.2XwXwXwXwXtXyXLXIXIXBX9X{.                                                                                                                                                                                                                                                                                                                                                  / ' m j 9 p > < : p z V F =.c j =.F J D k g j j c c e e e < d l k F =.=.L D D c k k c c x j j l l l z z z z c k c n A G ) ] ] T $.%.&.3.w.e.R.Y.                                                                                                                                                                                                                                                                                                                                                              ",
"                                                                                                                                                                                                                                                                                                                                            E.X.{ ;.-.$.K D v k z a < @ @ r D L C z a 2 < - & & * * : : > < < < < < < < < < g g g g g d < < ; < ; - * = $ @ % g z z b 8.V.C.z.x.F.F.G.H.2X2XqXwXwXwXtXyXeXBXIXBX8X.X(.                                                                                                                                                                                                                                                                                                                                              Y.~ m B x d < : : u p v c D K c h v c F g z h h g j e - e h k j g j k c D F H F D k j c D D c c l l l l l g l j g j c A P L ] ] L H L T -.=.1.w.e.^.                                                                                                                                                                                                                                                                                                                                                            ",
"                                                                                                                                                                                                                                                                                                                                        E.` ..) -.%.%.%.K v k k u > * ; e k c c z p < 2 e < , : * : : : < < < g < < < < < g g j j j j g 9 < < < < < = = @ o 3 2 h z R g.V.C.C.v.v.G.G.H.H.2XqX3XwXwXwXwXBXBXBXqX4X|.!.                                                                                                                                                                                                                                                                                                                                              ~ m C v B g , , > p g c z c z k j g D L g c v c k g < = < j D D D D k g g k D D D c c c c v D C c c x x l g g e g j k c A J P L L H P L K C J $.4.w.^.E.                                                                                                                                                                                                                                                                                                                                                        ",
"                                                                                                                                                                                                                                                                                                                                      Y...{ [ T T L D M M c g : = : < e k c j 9 < > > > > > = = : : : : < < < < < < < < < g j j k z j j d d < < < g < < @ @ T Z b b ,.V.g.j.h.Z.c.C.S.D.H.H.J.J.3X3XqXBXMXBXmXqX>X|.].                                                                                                                                                                                                                                                                                                                                            / q Z R Z C l 9 , p p g l g z k h g < F F k J F c j e < < 2 g D H L H D j g g g g j x c c k l D D M M M n k g g g g z l l j c D H L H H ) H D F C M ] <.e.e.E.                                                                                                                                                                                                                                                                                                                                                    ",
"                                                                                                                                                                                                                                                                                                                                  E.` _ ) ) L K L M k n c < : $ * < g j l j g < * : > : : > ; = < : : : < < < < < < < < < p g j c c k x l d d d < g 2 2 3 Z V.V.,.b Y a.g.B.j.k.C.C.C.S.Z.G.H.G.2X2XqXmXlXmX3XH.>XXX].                                                                                                                                                                                                                                                                                                                                          Q.~ N Z Z Z a l f 9 z p g d g h v c g < c j k J J c j < - < e k F H L F D A k g < : < g l k k k v D D H H N c g h j l z j g 9 g x D F G P ) H v C v h k H <.q.e.U.T.                                                                                                                                                                                                                                                                                                                                                ",
"                                                                                                                                                                                                                                                                                                                              Y.e.{ ) G G L D L F M k g < : * * < e j k k g < : : = : : < < > : : : - < < < < 2 p g g g g g g l k B D k g g l j d j < e 3 } L.D.L.9.4 | j.k.j.B.D.C.Z.Z.v.v.M.M.G.,X2XwXlXlXzXK.3X|.{.                                                                                                                                                                                                                                                                                                                                          R.{ b b h 2 2 k l x l g j j e 2 z Z c < < j D D c z g p e g j c F F J D c j 2 < < g g < = < < 2 j k c M F F c j c c c l g u < < l c D H L L F v v z v M M M ] 1.q.e.R.                                                                                                                                                                                                                                                                                                                                              ",
"                                                                                                                                                                                                                                                                                                                          E.` ..<.:.L J F K F v c z g > * o : < g g j j g < < : : : = : < < < < - - < < < < p p g j k k j g l l x B c k g g k x n n g h 3 E B.L.D.H. .I  .k.k.C.D.D.Z.Z.v.v.M.M.G.2X2X3X3XlXzXP.lXXXW.                                                                                                                                                                                                                                                                                                                                        ).r.8.t 3 3 ; 2 j c B k g g g e p c Z z < : g z D k g u g g r k n F D c z g 2 2 g z D J z < > = = < < g j k k j j c c c l g g < < u l B H $.L J c D z k c v c v D $.3.w.e.E./.                                                                                                                                                                                                                                                                                                                                        ",
"                                                                                                                                                                                                                                                                                                                    /.Y.` ..{ [ ;.:.L F F D D z h g < < = < 2 h e e e < < < : : : * = : < < < < < < < < d g g g g j k k x j l l x x c k h h c x x x k k r U 8.D.L.F.qXp.4 | C.C.Z.Z.Z.Z.Z.F.M.M.K.J.3XJ.2X3XP.J.5X XW.                                                                                                                                                                                                                                                                                                                                      (.{.|.V.5.1 3 # h k D D x l j j h c V z g , * < j k l < < j z r g c M c h p < > < g z v J D z g < * * * * < < < g j k k k k j g u < < d k D F F C z v z j k c c k j m m ) w.w.e.^.                                                                                                                                                                                                                                                                                                                                      ",
"                                                                                                                                                                                                                                                                                                                Y.Y.` .._ ) T R ] L C D D h g g < < < p g p < < < < < - : : : : : : : - < < < < ; ; < < g l g g p g j k l l j j x x n c k k c c A n A M b b } V.L.F.F.Z.p.c.z.S.Z.Z.Z.Z.Z.F.H.J.K.P.mXJ.2XqXJ.mX8X.X(.                                                                                                                                                                                                                                                                                                                                      #X XB.j.6.Y 1 3 h D D B x x x x c D c < u . & & 9 d j g z v v h g k k z g < = : < 2 g h c v v z p = * . . : : : < g g j l k k l g g u u g k z z h h z z z z c c M n k M D M ] 1.q.e.E.                                                                                                                                                                                                                                                                                                                                  ",
"                                                                                                                                                                                                                                                                                                          ^.X._ _ _ <.<.) k N H c z C v c g < p < 2 g z h < : $ : : : : : : : : : : < < < < < < < < < g g h h j g j h z k k c x x D D M v v z c S S D c N b Y 8.D.Z.H.F.Z.v.v.v.Z.Z.Z.Z.F.H.J.qXP.J.3X2X0X0XJ.VX9X].                                                                                                                                                                                                                                                                                                                                      (.}.6XS.D.a.6.U 4 b v c B B B B x x A x d d & & - ; 9 k c D D v k h g k h g < = : = < < h c c h g 2 < < < < < < * * : < u j k c c k k g d g g g < > < 2 h z z z c M D R v b v M M ) <.e.^./.                                                                                                                                                                                                                                                                                                                              ",
"                                                                                                                                                                                                                                                                                                  Q.Y.X..._ { 1.H L ;.:.] M k r c D K z g g < p h c v v g < : = < < < < < , : : : - < < < < < < < < g g j h h h k k k z c c D A D F F F D v v c A D F H L F N E j.H.H.Z.v.v.F.v.F.F.F.F.H.J.qXqXmXqX2X4X0X2XJ.MX.X~.                                                                                                                                                                                                                                                                                                                                      {.XXlXBX0XC.V.8.Y t 3 b C B B B l d l d l ; ; - c ; < e g z g g g e e z h g < = : > < < p g g g p 2 2 g < < g g < > : < < g k c D D c l g g g < * o $ = 2 g h k c v v b Z F F D M D ) <.1.0.R./.                                                                                                                                                                                                                                                                                                                          ",
"                                                                                                                                                                                                                                                                                            /.^.e.0.{ { <.] R N M k H 1.;.k e c c c j < - < 2 g z c z h < = : > < < < < < < < : : < < < g < < < < e g j h h h k k k z c c M M n F F H H F D D D D J L =.-.T R U E a.C.0XZ.S.G.F.G.G.J.2XqXqXqXqXeXeX4X4XqXqX3XXXW.                                                                                                                                                                                                                                                                                                                                      #X X<XzXmXqXH.L.V.g.U 3 3 b z c k l u u = - = 2 R 1.k @ = = : : : = ; < g g g 2 < = < < < < < < < < < < < < g j c k j g < < g j k D D M k l g g < o . o = = < g h z z z b N v b M D H L K ) <.0.e.R./.                                                                                                                                                                                                                                                                                                                      ",
"                                                                                                                                                                                                                                                                                        /.X...0.1.3.3.,.%.T F b b k M -.;.F g g g < . = g h c c c k g g g 2 < < < < < < < < < < - < < < g g g 9 9 g k k h h k k k z c M D D D M F F F F F D F F K D J $.+.L T N Y 5.g.B.2XS.S.G.G.H.qXwXwXwXeXeXeXLXtXCXVXlX6XW.                                                                                                                                                                                                                                                                                                                                      (.{.XXmXmXBXBXBXqXuXB.g.U 1 3 2 2 g g 2 2 = = 3 t y.;X-.# # o . * = = = < 2 2 g p < < = < < 2 g < > * : > : < g k D F c j < < < g l k c c x l g g > . . * = < < 2 p g g h r r k k M F K T :.=.) ) <.0.0.X.U.T.                                                                                                                                                                                                                                                                                                                ",
"                                                                                                                                                                                                                                                                                    ^.^.q.<.<.3.3.2.,.%.K v b r r r k ] ,.$.Z a g ; e D L L F k g g g p < < < < < < < < < < < < < < < p g j j j g g h k k z v v M M M D F H H F G G D F F F F D J K J L F F D T ,.5.9.6.p.C.S.G.G.3XwXwXeXAXeXeXeXyXwXNXDX<X.X).                                                                                                                                                                                                                                                                                                                                      ].@X4XBXBXMXMXAXeXrXuXV.g.U 4 O 4 3 1 # # 1 1 t g.uXuXV.1 O o o * * < : * > < < 2 2 < < < p 2 < < > = : : : < g c D D c k g < : < < < g k j l j g * . o * = = < < < < < < 0 9 d g z c C D ) ) { <.<.;.-.1.0.0.0.e.^.^./.                                                                                                                                                                                                                                                                                                      ",
"                                                                                                                                                                                                                                                                                E.^.w.1.,.3.3.:.2.-.%.R F v h 2 ; ; r T ,.-.Z a H D L ] F v h < g g g g p 2 < < < < < < < d < < < < g j j k k c M M M c z c v D D M M D D F F F F F D D F F D F K J +.K P F =.;.T T E Y W  .D.c.S.2X0XwXeXIXIXAXyXyXAXDXDX8X X                                                                                                                                                                                                                                                                                                                                      !.}.XX5XeXeXBXCXCXwXwX0XA.V.g.Y 1 1 t U t 4 4 4 5.B.uXuXLXY O O . = : : * : = < 2 g g 2 < < < < < < > = : : : < j k c c k j j g < < * . : g l l k g * . . o @ * : < < < > : , , u p p p g e r r n [ 1.,.&.%.:.4.4.3.0._ _ ` ( ( ` U.E.E.Q.Q.                                                                                                                                                                                                                                                                                    ",
"                                                                                                                                                                                                                                                                            Q.E.e.{ -.7.7.,.-.,.] L H F Z z a : @ = e G -.;.H 2 M M D c 2 - < e e g g g g g 2 < < < < < u g g g g g j k c c D D D D D v z k v D D D D D D D D F F F D D D D D D J C L D c D =.L D N b t W p.j.c.c.C.S.2X2XwXeXeXLXLXSXSXSXFXpX                                                                                                                                                                                                                                                                                                                                      ].@X5XBXyXyXtXCXCXwXtXrX0XD.j.a.6.6.6.6.6.6.a.g.B.j.V.B.L.8.O O X = $ * . : * < p g g p 2 < < < < < < > = = < < j k k k j g j g < < : $ . * , < g < o X . o @ * * = > < > > : < < ; ; ; ; - e e h ; z :.T P ) ) ) <.1.<.) _ [ { { { { { { ..` E.                                                                                                                                                                                                                                                                                ",
"                                                                                                                                                                                                                                                                          Y.` { { 3.7.2.&.2.,.K H D D C z a u : * @ ; n ] 1.[ ; ; e g h e < 2 g g g h h h g g 2 < < < u < g g g j j z k c c A D M D M v k k v M D D D D M D D F F J D D D D D D J J J F c L T D v r 3 E g.g.j.j.c.C.S.2X2XwXwXwXyXyXAXCX8X8XpXaXGX                                                                                                                                                                                                                                                                                                                                  ].oXMXBXyXyXAXCXtXwXtXtX0X2XD.h.p.p.a.g.j.g.a.B.h.h.h.C.B.g.4 O o * . : $ * * > p g g p 2 p 2 < 2 < < > > = < g j k j g < < < < < < < : : * $ * : * . X o * * = : : = > < < > < < ; - ; ; ; = 2 a v F D D A G D k D :.:.-.=.T T T T &.,.,.2.<._ ` E.                                                                                                                                                                                                                                                                            ",
"                                                                                                                                                                                                                                                                        ` ..{ 3.,.-.;.:.-.R R Z Z Z Z Z s u < - + + - m [ 7.3.e k r e r k g e g g j h h j g g p < u g g g g g j j k k c c c c c c M D D v v M D F F F F D D D D F F D D M M M D v D v C F -.T D b t U g.p.j.z.h.C.S.D.2X2X0XwXwXeXrXtXwX4X4X8X7X%X&X                                                                                                                                                                                                                                                                                                                                ].sXMXBXeXyXAXAXCXwXwXwXwX2XZ.C.C.h.j.j.j.j.j.j.j.z.j.s.C.V.} O # . . : * $ : > < g 2 2 2 g p p < < < < < < < g j j g < < < : > < - : : < j - * . . X . $ * * > < = : : > = - - ; ; # ; - ; 2 > p : k =.A k H Z b Z ,.,.$.K T L K H H H T T -.;.<...X.E.                                                                                                                                                                                                                                                                        ",
"                                                                                                                                                                                                                                                                      Y.` [ ,.2.,.=.H G D F K Z Z Z Z z a > < = + X + j [ t.7.k b k k k v k g g j j h j g g g g d g j j j j j k k k c c c c A A v D F F D D D F F F H F D D D D K F D D M M M M v c z z T T H b t I g.g.h.h.v.v.v.Z.D.2X2X2X3X3XwXwXAXwX4XrXwXtX7XiXGX                                                                                                                                                                                                                                                                                                                              .XgXmXBXBXAXAXAXAXCXwXwXwX3X3XG.v.c.z.c.C.C.j.j.h.z.G.j.D.uXV.O # * * * : : : > < < < < p g g g < < < > < < g j j j u < : : * : < < < < j j j ; * . . o * $ * < p < > = = = @ # ; ; ; ; - > o : : g k g g v b s 3 Z %.R Z z Z J J F L L ] -.,.-.-.;.{ ..R.Y.                                                                                                                                                                                                                                                                    ",
"                                                                                                                                                                                                                                                                    Q.( { ] R %.%.L A m m D J V n x B z a p > = = . * g L t.t.c < M H H D k e e h h h j j j g g g j k k k k c c c c c D D D D D M D D D D D D D F F F F F F F F K F D M M n n M D z C C T L H N t 6.p.j.v.x.M.v.Z.S.2X0XwXqXlXlX3X3XmXqXqXwXeXeXeXyXaX                                                                                                                                                                                                                                                                                                                              }.gX3XeXBXBXBXBXBXBXwXqX3X3X2XG.G.Z.v.v.v.c.C.n.c.f.G.z.k.uX;Xt o * : * : > > > < < < 2 g g g g 2 < < < < < g g j g < < : * : : : < 9 j j < c g < : @ . o . o > u < > > > = ; ; 2 e g g < < e : : * h F r 3 b r r T -.v g h c c k v D F H T -.-.-.;.;.{ { ..` /.                                                                                                                                                                                                                                                                ",
"                                                                                                                                                                                                                                                                    ( ` ) v R $.K B n m n n C B x f x k l a a 2 2 o = h F t.t.c k ] -.v < = ; g k h k h z h h h j k c c c c B D D C D D D D A c M M M M v v D D D D D F F H H H F F D M M n n c c j c T D R F U | j.h.f.z.K.M.F.Z.G.2XwXwXqXlXlXlX3XJ.J.mXBXeXeXIXyX9X&X                                                                                                                                                                                                                                                                                                                            }.oXJ.mXVXVXBXeXBXwXqX2X2X2XG.S.G.G.G.G.G.S.S.c.G.v.z.G.Z.0XD.E O o : : > : > = < < < p g g g g 2 < < < < < g g g g < < : * * : : : : e j j j g e < * . o . . * > : : > < < g h h j j g g < : < 2 2 3 2 3 3 3 # r ,.,.z g z z g p g z z v F T T -.,.,.-.[ <.{ _ `                                                                                                                                                                                                                                                               ",
"                                                                                                                                                                                                                                                                  ` _ _ G M F J B B n A D D J C B P A c c z h h < = o e L t.t.M e b 3 ; = 2 2 e h h h h z z z z j k c D D D D F D D D D D D D D D c c c v C C D C D D F F F F J J J D c c v c k j p K v K R b U d.f.f.h.v.F.F.F.G.J.3XwXwX3XMXMX4XwXmXVXVXmXwXwXwXtXAX=X                                                                                                                                                                                                                                                                                                                            }.oXP.VXmXBXqXwXwXqX3XG.G.S.v.v.Z.Z.S.G.G.H.H.J.G.c.v.H.P.H.L.8.# @ & u : > < < < g g g g g j g < < < < < < g g g e < < : * * * : : < < < g g < < < : = . X . . . . * : , < g j k k h e e 2 < 2 2 h v h r 3 ; @ e ;.;.k g z z k c c B C c c c D T %.-.,.<.<.;.<._ ` Y.                                                                                                                                                                                                                                                          ",
"                                                                                                                                                                                                                                                                R._ _ ) n c K c B A S D D D F K L >.+.H H B k g h < @ e D 4.t.] e e 3 r = = e e h h h h j j j j k c c D D F F F F F D D D D D A A n c c v C C v C C D F F H F F J D C v v v z j g j D h b h 3 U g.s.s.f.z.v.v.v.H.J.qXwXwXqXqXwXrXwXqXVXVXqX8X8XwXeXBX X                                                                                                                                                                                                                                                                                                                            ].+XP.I.J.eXqXqXqX3XG.F.Z.Z.z.z.c.c.c.v.G.H.J.H.Z.c.x.M.K.K.L.D.1 = : , : u < < < g g g g g j g < < < < < < < < g < < < : : * : : : - < ; < < < - < < : @ . . . . . . $ : < g k k j k j e e 2 e ; 2 v v e = = - z -.L g 2 p < g c F H J D B c c C K T ] [ [ :.=.L _ `                                                                                                                                                                                                                                                           ",
"                                                                                                                                                                                                                                                              )._ _ ) <.M h J g l c S D F J K T =.>.=.+.+.J c g j > . < k L 4.;.h r r r 3 ; e e j h h h g g g j k c c D D D F F F F F F D D D A n n c c v v v v v C D F F H F F D D v c z z h g < c z g h 3 3 | j.s.s.s.z.Z.D.Z.D.qXqXeXwX0XwXrXeXeXqXeXLXrXrXyXeXeXtX.X                                                                                                                                                                                                                                                                                                                            W.XX<XlX:XtX2XqXqXJ.F.v.v.v.z.z.c.h.z.c.G.J.J.H.Z.v.v.v.F.K.L.rXU 1 > u < u u < < g g j j j j g < < < < < < < < < < < < : : * : : < - < < < : : : < < < : * . . . . X . . * < g g g k j e g ; 2 2 2 F F e ; . - D :.F < < < = < j B J L L H G M C F F F H ] -.>.K m _ /                                                                                                                                                                                                                                                         ",
"                                                                                                                                                                                                                                                            _.e._ [ ;.3.v a z h g k D G J H L $.+.*.L L L F c p < * . - g M 4.3.k N r 3 2 2 ; e g h h h g g g j k k c D D D D D F F F F D D D A n c c c v v v v v v C D F F F D v c c z k h g < : C h g h 3 t 8.a.s.p.s.z.Z.Z.C.Z.0XqXqXrXrXwX0XeXeXrXeXrXuXrXyXeXeXtXW.                                                                                                                                                                                                                                                                                                                            ). X5X3X>X4X2XqXqXJ.F.v.v.v.c.v.c.c.c.c.F.H.J.G.G.,XG.F.F.K.L.L.5.3 > g l u d g p g g g j l j j g 9 < < < < < < < < < < : : * * : - - - : : : : : < < < ; < : * . . X X . . @ - g c g g 2 < 2 2 e e h e o @ . - F :.M = < 2 < < g l c F L L ) L L K J c v M F -.$.c _ ( /                                                                                                                                                                                                                                                       ",
"                                                                                                                                                                                                                                                        )._.e.<.N H ] ,.b a a z z c D G H L +.$.>.=.H H J D c 2 < < @ - g D 3.y.h k 2 # ; ; = 2 g g g g g p g j k c c B A A D D D D D D D D C C c c c c v v v v v v v D J F D D c c k k h g < < > D g h 3 4 4 8.g.s.s.f.z.z.z.v.v.H.3XwX4X4XrX4XwXrXrXrXrXuXrXeXIXBX8X].                                                                                                                                                                                                                                                                                                                              {.7X,X2X2X2X3X3XJ.G.F.v.v.v.Z.Z.C.c.c.v.Z.J.J.G.,XG.F.F.F.L.D.5.3 3 g l p g g g g g g j k j j j g g < < < < < < < < < : : * * : : , < : : : * : < < g g g e < * . . . . . o . < c e h g = g 3 2 # O @ @ o = g F L e . < g g g l c c D D F G H L L $.T H M v K Z C G _ !                                                                                                                                                                                                                                                       ",
"                                                                                                                                                                                                                                                      )..Xl.r.R N N R T s z z c C M D D P *.>.:.:.=.L L J D C g h h = * < D 3.y.b o # 3 = = 2 2 g g g g g g g j k k k k k k c A c c D D D D D C n c c c v C v v v v v C D J D v k l h h h g < = g C g h 3 1 4 8.g.f.h.x.x.x.v.F.v.J.3X3X3X2XwX4X0XwX4XrXrXuXrXeXIXAX9X}.                                                                                                                                                                                                                                                                                                                              ). XXXqXJ.2X2X3X3XJ.G.Z.v.v.v.Z.Z.v.v.v.v.H.J.G.F.M.F.K.F.D.D.Y 3 a p p l g g g g g j k c j j j g g < < < 9 g g < < < - : * * : : < < : : * * * : < g j j g < : * * * * * = X X < @ g k < e 3 e ; @ e h # < D L v - * < p g g l c c D D F M F J J +.-.=.T R Z Z Z M { _ (                                                                                                                                                                                                                                                     ",
"                                                                                                                                                                                                                                                  GX.X.Xl.V.8.b b Z Z &.b s b c v v c M F L >.4.>.=.L L J D D l g g @ . = j 4.y.H # 3 e ; = p 2 g g g g g g j j j j l k k k k x x c c c B c c c n n c c v v v v v v v v C C v c l j j h h p > = z z h g 3 1 t g.f.s.s.x.x.x.x.F.F.J.P.mXqX3XqXqX3XlX3X3X3X2XrXeXyXyXOX$X                                                                                                                                                                                                                                                                                                                                #XXXI.I.qX3X3X3XqXJ.G.Z.Z.Z.Z.Z.Z.Z.Z.v.G.G.K.K.M.K.K.F.D.g.t 2 h z a z g j l g j k c c g g g g g < < < g g g g < < < - : : : : < > : : * * * * < < g g g ; : * : < < < 2 = X o X - 2 e h h h h h k h @ g ] =.c - : < 2 p g l c D J L L L L L J B B M M R N Z b v ;.{ ~                                                                                                                                                                                                                                                     ",
"                                                                                                                                                                                                                                                *X X|.k.d.8.8.E b b b ,.K > z z v v c c D F +.>.>.=.=.=.J B c l o < . . : g ;.t.-.h r 2 < = < 2 g p p g g g j j j l c c c c k k x x c c c c c c n n c c v v v v z z z z c v c k j g g h h p > = z 2 2 2 3 1 t g.j.f.f.x.x.x.x.M.K.P.P.mXqXJ.qXqX3XmX3X5X3X3XeXyXyXyX{.                                                                                                                                                                                                                                                                                                                                     XG.I.qX3X3X3XqX3XH.F.Z.Z.v.Z.S.S.Z.v.Z.F.K.P.P.P.K.H.D.| t e z V z z z j j j k C c k g g g g g g p g g g g g < < < < : : : : : < : : * * * * : < < < < < : * : < g j e h < < . . X @ e 2 = k M e 2 # D ;.] k : . : p p h B F L L +.=.=.L +.+.+.P M k h N Z s h :.=.' T.                                                                                                                                                                                                                                                  ",
"                                                                                                                                                                                                                                            &XOX7X:Xk.g.g.g.6.} 3 2 h 2.+.: B j k n F D v v K >.>.>.+.H J B c g . : X X . g ] y.-.r h = = < 2 2 < p p p g j k k k c D D D c c k k k c c c c k k x x x c c c z z h h g z v C c k j < 2 g g 2 < < c z h h 3 1 U g.j.h.z.h.x.x.x.v.F.G.J.3X2X0X0XqX0X0XrXrXwXwXBXeXyX X).                                                                                                                                                                                                                                                                                                                                    $XOX8X4X4XwXwXqX3XqXJ.S.S.Z.S.S.S.G.G.Z.G.K.P.P.P.P.Z.g.U k x x B V V z j g k c D c k l j g g j j g < g g g g 2 < < < > > > < < < = = * * * * * : < ; < : : * : < g j k z h < = = @ . o # o = = = o e -.4.L g @ . = < 2 j c D D F J L L K @.+.@.+.F c h r h 2 C -.L ' !                                                                                                                                                                                                                                                   ",
"                                                                                                                                                                                                                                          aX9X6X:XA.k.l.g.g.a.9.3 = 2 :.+.: d l x c D D D C K =.=.>.=.L D B c j : : X X = j D 7.,.r 2 = = < < 2 p g g p g j j k k c c c k k k k k k k z x j l z k k k c c c z k h h h k c v k k < < g g g < * * g h h r 1 O I g.j.f.h.h.h.x.z.v.v.G.H.2X0X0X0XrX0X0XrXrX0X2XqXrX7X.X                                                                                                                                                                                                                                                                                                                                        $X}.9XtXtXwX3XqXqXqX2XH.S.S.S.S.G.G.Z.H.K.P.I.I.K.D.| b k x x S c c l j j k c D c k l j j l k l g g g g g g g 2 < < > < < < < > = = : * * * * * : : - : * * : < < g g j j e < - = @ @ @ @ o o # @ v -.,.H < X X * < < g c B B B D F K K K @.J J D z b k h < F >.=.) ~ (                                                                                                                                                                                                                                                 ",
"                                                                                                                                                                                                                                      &XiX9X6X2Xn.k.k.l.g.g.a.6.3 o = =.*.u , x x k c c v v J L =.:.=.L J B c k < < = . . e z 7.,.; = = < 2 < 2 p p g g g j j j k k k l j j j j k k k l j j j j j x k k k z j g g g h z k k j g < < < < = = : = c J F N r # I d.p.s.z.v.x.z.z.v.Z.S.D.H.2X2X0XrXrXrXLXLXqX3X4X7X X).                                                                                                                                                                                                                                                                                                                                          KXiXtXtXtXwXBXBXwXqX2XH.S.G.S.G.G.G.F.P.P.P.P.L.a.Y k n n x S c c j j z c D D c k k k k k k l j g g g g g g p < < < < < < < < < = : : * * * * : : : : * * : < < < < 2 e g 2 < - ; ; ; = @ r H M H ;.:.D < . X . o o > j c c c B C K Z J J B B B k k k r - D =.) H y ^ _.                                                                                                                                                                                                                                              ",
"                                                                                                                                                                                                                                  HX&XOX9X5X,XS.c.k.k.V.g.g.a.6.Y o * L >.l , V x j g g h z C K L =.=.+.L D D k j g < @ . - h t.,.# o = > < < 2 < u p p g g g l j j j j j g g g g j l k j j g g l l j l h h g g < < p g j j g < < g h g 2 < < : v c e ; O O I g.p.s.x.x.h.x.z.b.A.:X:X:X:X>X>X>XwXeXLXrX2XXX X{.).                                                                                                                                                                                                                                                                                                                                              iXyXyXtXwXwXBXBXwX0XH.H.G.G.F.F.Z.Z.K.P.K.J.j.E v n S S A D c c l k c C D D B c k k k k l j j g g g g g j g < < < < < < < < < < : * * * : : : : : = * * : : < < < < < < < - ; 2 2 h M b k k e H ;.] z = . . . . X $ u k B B c c Z Z J D V x c h h k e @ m G P F b y o._.                                                                                                                                                                                                                                            ",
"                                                                                                                                                                                                                                aXpXiX+X9X6XA.B.B.B.k.k.g.g.g.8.5.o o M :.B u x x j p p g z C D C J J L L H D k j g g : @ < h 7.3.2 2 > = = > > < < < < < < g g g g g g g g g < < g l j j g g g d g j j h j g p p 2 < g g g , $ : < j g < < : $ < ; ; @ # O Y g.p.p.s.h.h.n.k.XX|.|.|.|. XOX;X7XXX1XtX4X@X}.(.                                                                                                                                                                                                                                                                                                                                                    PXyX4X4XwXAXAXeXqX2X2XJ.G.F.v.z.G.v.F.J.V.} b M D P J F D c c k c D D F D D B k c k k j g g j j j j j j g p < < < < < < < < < : : : : - < < < : = = : : - < < < < - - - = - 2 h 2 v N v 2 e 1.:.F e . X o : : $ : < l B D c c v v V B x j j g h c j 0 ) G D k b Y r.r._.).                                                                                                                                                                                                                                        ",
"                                                                                                                                                                                                                            GX%X8XCX8X9X>X:XA.A.B.B.c.h.f.g.g.8.9.4 O 2 =.S u u l p p g j l c B B J D H L L D x g g < : . = h t.t.b h p < > > > : > > < < < < g g g u p g g g < < g g j g g g g d d g g g p < > $ o * < g j g < * = < > : * * * j g - # O O Y r. .i.i.i.i.].W.W.{.#X#X$X      $X[.}.%X%X#X                                                                                                                                                                                                                                                                                                                                                      pXPXyXyXtXtXAXAXBXqX0X0X3XH.M.v.v.H.F.D.V.| b c A J L +.$.F M n c D F F F F D D c c c k k l z k k h j j h j g p < < < < < < < < < < < < < < < < : : : : < < < < e 2 2 < ; - - ; 2 h v e # X k 7.:.H g @ X . $ : > > < g c D B c v z k x j l g p z z j n 3.:.H h r N 8.8.l.|..X$X                                                                                                                                                                                                                                    ",
"                                                                                                                                                                                                                          &X=X9XCXZXwX2X2XD.D.D.S.S.D.C.j.g.d.6.9.Y O # L +., , < < < p g j k c F K F H L L F k d 9 - = . . h t.t.g 2 2 = > < > : : > < < < < e g g g g u < < < < u g g g < < < < < g g g < > : < < < < < < * * . : < g g < : * - , - # O O y o.o.O.O.~.W.                                                                                                                                                                                                                                                                                                                                                                                  &XpXpXpXyXyXyXyXIXAXAXeXqXqX3XH.v.x.v.Z.Z.j.| t k x B @.%.%.%.R D n D F P H F D D D D D D c c c c c c z h h z z h g p p 2 2 2 < < < < < < < < < < < - - < < < < < e g g g e < < ; ; 2 g 2 = r k ,.y.1.H h * . o * * < < < g c D D C v z j j j l a a a p d x 3.>.F h 3 b 7.8.V.V.k..X X$X                                                                                                                                                                                                                                ",
"                                                                                                                                                                                                                      HX%XOX9XvXMX5XqXqXqX0X2XH.2XH.D.D.k.j.d.6.9.5.1 O F >.< u > < < p g j c A D F F H L L H B j e * = * o < ,.7.3 % = * = : * : : > < < < < g g j l j < < < - : ; 9 g < - * * : < < j j g e < : : : < < < : * : - < < 2 < < - , 0 7 6 5 8 (                                                                                                                                                                                                                                                                                                                                                                                             (.iXFXPXyXyXyXrXtXAXIXIXeXwXqXqXH.v.z.Z.C.p.| Y b x f B +.,.&.R R H A F J H H F F D D D D D D D D D D C c k z z z k z j g g g g g p 2 9 < < < < < < < < < < < < < g g g h g e < < 2 ; 2 e e b N r ;.y.7.D < . X = < < < < g c D J D C Z z j x x x g a 2 > > g 4.F z r 3 R 8.8.a.a.D.n.>X X#X`.                                                                                                                                                                                                                            ",
"                                                                                                                                                                                                                  HX=X+X9X1X5X8XwX5X5X5X3X2X2X:X:XS.S.A.B.k.g.g.p.9.t O g =.z : : % > p g g l x A A S J L L K D c g = = p * * Z ,.3 = 2 * = * * : : : : : > u g g z c j < : * & + + & - , ; 9 g g g g 9 ; - @ & * * : < u < < < & @ - < 2 = = ; 7 5 8 !                                                                                                                                                                                                                                                                                                                                                                                                 $XaXyXUXUXSXyXtXwXwXAXUXAXAXwX2X2XG.S.c.A.g.E Y ] =.c x D T %.-.R T J A D F H F F F H F F F D D D D M M D D C c z k z k h h h h h g g p < < < < < < < < < < < < < p g g j g g g e < < e h e k e e h 7.y.,.k 2 @ O = - e < g c D J +.*.+.J B B x x j g g p > > V -.c e 2 = R 8.9.a.a.f.c.k.:X X%X$X                                                                                                                                                                                                                          ",
"                                                                                                                                                                                                                &X=X9X1XcXxXxXxXZXMXMX5X3X2X2X:X:XS.A.A.k.k.k.k.k.V.} 1 o >.$.: : = < p h h c D G A S D J J D C c g > < g : $ p K 3 = p * : * : * * = : > < p p g z k j < * & . @ * 9 d d < * * : = = < < - - * , , : < p g 2 : & - - - 7 7 7 8 ~                                                                                                                                                                                                                                                                                                                                                                                                       %X9XSXUXUXAXAXtXtXtXAXSXAXAXwX4X2X2XS.C.g.8.U N H ) =.k c H -.-.L K D J D D F F D D H H H H F F D D M M D D D c z z c v C c z z h h g p < g g g g < < < < < < < < < g g g g g g e 2 < < e h e v r 2 7.t.-.k = X o 2 < < h z D H +.>.=.+.+.J D D A n g g j 2 > J $.< : = o } 8.8.d.g.j.k.C.A.>X7XaX%X&X                                                                                                                                                                                                                      ",
"                                                                                                                                                                                                            &X%XiX9X9X9X8X5XjXlXZXZXMXMX5X3X2X,XS.A.A.A.A.B.k.j.k.g.8.t O z :.* : p g g h c D H G G D D D D D D C j e j k ; & $ J p . : * : : * @ * * = = = ; ; < < ; - ; : - < < < > < i i i i % % % : > 2 < > : < u , : , - - < 0 7 5 5 Q T.                                                                                                                                                                                                                                                                                                                                                                                                          %XyXSXUXUXAXAXAXAXAXAXAXwXwX2X2XG.Z.c.h.d.I t N F n L =.D v H H L K B D v D F H F D F H F F F F D D D M F D C z z z D K H J v z z z j g g g g g g p g g < < < < < < g g e g j e < 2 < ; 2 v M T e r 7.t.T h @ X = v h h c D H L >.>.=.P +.J P F D D k k z p > =.=.: : @ # 7.r.l.g.g.k.h.k.C.A.>X7XOXOX%XHX                                                                                                                                                                                                                  ",
"                                                                                                                                                                                                          &XiX9XCXvX8X8X1X1XhXzXMXMXMXMX5X5X4X2XS.S.A.A.A.B.k.g.j.d.g.E O * -.c < z k j z v D J D D D D D F J H F c k c k 9 & . D k . $ * : = @ = : * * * = = = ; - < 9 < - @ . $ $ : u p i i i : > > > 2 p p i p u < < , - - 7 w 5 Q                                                                                                                                                                                                                                                                                                                                                                                                                   %XSXSXIXIXAXAXAXAXAXtXwX2X2XS.Z.v.c.h.j.6.I t 3 k c A >.=.k D D L F v k c D H H F F F D D D D D D D D D F D v z z v F L H F D v c z h g g g g g g g g g g g d d u p g g g j j g 2 2 < < ; g H F ; N 7.t.H e o o g v h D D F L L $.>.=.+.+.L L D c c x F z p u 3.>.* * o b r.r.V.g.k.k.k.B.C.B.:X4X>X+X9XiXiX                                                                                                                                                                                                                ",
"                                                                                                                                                                                                      GX%X7XyXAXwXwX5XxXxXjXhXcXlXMXMX5X5X3X4X4X:X:XA.A.A.A.B.k.j.l.g.9.O o D =.< j k j l c C D C C D D D J P G M m m k g 0 & X e k @ = = % % > % % % : > < d d d u < : * * * * . @ < g g < = * : : : = > 2 p p u < < & + 6 6 5 /                                                                                                                                                                                                                                                                                                                                                                                                                       =XtXtXAXAXAXAXwXeXwXwXwX2X2XG.S.Z.c.z.j.p.| t 4 r D c +.4.c D L F D D D M D H F D D D D D D D D D D D F J D c z c C D D D D D D v z z h j j j g g g g g g g g g g g j j h g g g e < < 2 e = 2 3 ; T 7.3.D g @ o < < < v J H L L +.>.>.>.$.L L D c j x A l g l 3.$.$ . X E 8.8.g.V.k.k.B.B.C.C.S.2X,X<X5XSXyXiX&X                                                                                                                                                                                                            ",
"                                                                                                                                                                                                    $X%X9X8XAXAXwXwXMXxXcXzXzXlXcXMXMXMX5X5X2X2X2X:XS.:X:X:XA.B.j.d.6.8.N O - >.; < < g g j B C C J J J J J G D n n n c g ; * X - k @ o @ % % % p p p u < : & $ $ * : < < < : * - - < < < < - = - - - < > < 2 2 < & 7 5 5 Q (                                                                                                                                                                                                                                                                                                                                                                                                                           7XwXwXeXeXBXeXwXwXwXwXwX2X2XG.S.Z.c.z.h.j.p.W 4 r v c L 4.J C F F D H D D F D D M D D D D D D M D D D D J D v v C D v c z v D D C c c z k k k j j j j j j j j j j j j j k j g j g < < e e 3 = e k T 3.T k h @ O * - < z J H L H L >.:.:.=.H F D A n x c l p c 4.B . X = 9.8.g.g.V.k.l.B.B.D.D.H.J.J.J.3XSXCX9X=X*XGX                                                                                                                                                                                                        ",
"                                                                                                                                                                                                $X%XOX9X8XZXBXwXwXtXMXcXxXlXlXlXMXMXMXMX5X3X2X2X2X2X2X>X>X:XA.k.k.p.6.8.5.3 o M g & , u < u c B Z J J K H H F D n A n k d : $ . 2 z = $ o @ + + + & - - , - : > < < = : = - < < - = > < < < , - - - , < < 2 2 ; 0 6 5 8 /                                                                                                                                                                                                                                                                                                                                                                                                                               OXMXeXwXwXwXwXwXwXwXwXwX3X2XH.S.Z.v.z.z.f.p.g.I 4 b D x =.=.c z F F F M D D D v v D J J J D D D D J J F F J D D J D D v c v C D D C C v v c c c c k z z z z k k k z h h j j h h g < < < 2 h h M F 1.3.M h e @ . < e z D D L L H +.>.:.>.L D D D F D c c g < D 4.g . X R a.g.g.j.j.k.k.B.D.H.2X0X0XqXqXmXlXcXAX9X7X%X&X                                                                                                                                                                                                      ",
"                                                                                                                                                                                            $X%XOX9X8XxXcXxXMXMXxXcXxX5X5X5XlXlX3XlXwX5X3X,X,X,X2X2X2X2X2X>X:XC.k.f.6.9.5.b O = x * * u : < c V C D J J F F D D D D c g < : o $ % a u < * $ + & & & - = = : = > = = = = ; ; 2 2 < < - < < , , - 0 - - - 7 7 6 5 5 Q                                                                                                                                                                                                                                                                                                                                                                                                                                   $XXXmXBXrXwXwXwXqXwXwXwXwXwXqX2XG.G.v.v.z.h.f.p.8.4 r v g D 2.J h D M v F c v v v C D D D D D D D F F F F F F F F F F F F D C C C D D D D C C D C v c z z z z z z k z h h g h k g e e < - = h v k D y.7.v k < . - k k c F D L L L +.>.:.>.D B D D D c z c u : L 4.< X X 5.a.j.g.k.j.k.A.A.>X0X0X2X0XqX0XqXlXxXMXtXtXyXiX%X                                                                                                                                                                                                    ",
"                                                                                                                                                                                        GX%XaX7X5XlX5XxXxXxXhXhXzXcXxX5X5X5X5X5XxXxX5X5X5X5X3X,XS.:X2X2X2XS.C.C.k.j.d.6.9.} # X c n , , l g z z l B D F H L H H D V u u > $ % % : < g g < : : g 2 > > < 2 2 2 < 2 ; = ; 2 2 ; ; ; ; - 0 0 0 7 7 0 7 6 5 8 Q !                                                                                                                                                                                                                                                                                                                                                                                                                                         $X9XNXeXrXwXwXwXwXwXwXwX3XqXqXqXG.G.v.v.z.z.j.j.g.| 3 r v v >.:.z v v H v M D D D D C C D D D F F F F F F F F F F F F F F D D C C D D D D C C D D J D B c c c c c k z j g j k z h g g < : = 2 v h H y.7.v v * = g h z c c B J L =.:.>.>.+.S A J C g g k l u d =.J o X 3 9.a.a.j.j.k.D.S.S.2X2X2XD.2XwXtXCXNXMXmXMXwXtX9X7X=X&X                                                                                                                                                                                                ",
"                                                                                                                                                                                    `.#X%X7X7XyXBXVXMXcXxXkXhXkXkXcXcX5X8X8X1X1X<X<X<X<X3XMXwX5X5X5XwXwX2XZ.c.k.k.j.d.p.6.5.t O o ;.d < d c z j l c c D L ] D c u p i u a p a > < : g k h z c p g 2 < ; ; 0 0 0 7 7 7 7 7 7 7 7 7 7 6 5 5 5 5 5 8 ~                                                                                                                                                                                                                                                                                                                                                                                                                                                   $XvXSXBXeXwXwXqX3X2X0XqX3XqX3XqXG.G.v.Z.v.z.z.j.g.g.E 3 b -.T $.D v b v v M C D D D D D D D F F F F F F J F J J J D D D D D D D D D D D D D D J J J D B c c c c c z z z g j k z h g 2 < = = = = = T y.1.v g @ = < = < j D D F D L >.>.$.F c x k k g h k j c d >.k X O Y 5.8.g.j.k.C.C.Z.Z.S.:X,X:X2XtXtXtXAXMXmXlX5X5X8X8X9XiX%X$X                                                                                                                                                                                            ",
"                                                                                                                                                                                  %X7X7X>X6X6X5XwXBXNXcXcXkXkXjXxXcXcXMXxXjX1X1X1X3X<X<X3X3X5X5X4X2X2X2XS.c.h.h.j.f.p.p.6.| } O X F H l < < z < g c c M M M k g p p i p z h e ; = + 2 h # - k e 0 0 6 5 5 5 5 5 8 5 8 8 8 8 8 8 8 8 8 Q ! /                                                                                                                                                                                                                                                                                                                                                                                                                                                           [.9XSXBXeXwXwX0X0X0X0XrXrXqXqXqXJ.J.F.F.Z.z.v.h.j.j.8.I t N v L K k k c M v D D D D D D D F F F F F F J D D D D C C v v v v D D J J J J D F F F K J D c c c c z z z z l l j z h g < < < - = @ O = ,.y.] v < . . . $ < l A D D D +.:.>.+.D l d d p 2 g g < : x ) = X 1 5.9.g.g.V.B.C.C.C.c.,X,X2X3X5XtXCXwXBXBXmX3X<XjX5X5X9X9X7X=X&X                                                                                                                                                                                          ",
"                                                                                                                                                                              GX%X4XwXBXBX5X1X8XtXCXZXbXbXkXjX1X5X5XmXcXxXkXoXoXxXcXlX3X3X,X2X3X3X2X2X,XS.Z.c.c.j.d.p.p. .| | 1 O = -.j < * j < g k k r e e 2 2 u u u l x k r e # + # 7 + 5 Q Q ~ / U.                                                                                                                                                                                                                                                                                                                                                                                                                                                                                                !.OXMXBXeXeXwXwX0XrXwXwXwXwXqXqX2XqXH.H.Z.v.v.Z.h.p.g.| t Y R -.T M k c c v D D D D D J J D D D J F J D D D D v v c c c c v v D D J J J J K K K K K J C c c c z z l g g l j h h g < < - < 2 = o g 3.y.L g = . . . * g k c B J L =.:.=.L c d d d 2 2 2 p < < =.D O O t 6.V.V.V.B.B.A.A.S.S.3X3X3X5XxXCXMXwXBXBXwX3X<XxXxXxX5XCXCXpX=X%XGX                                                                                                                                                                                      ",
"                                                                                                                                                                          $X%X X>X2XqXMXNXlXjXvXvXZXCXvXvXnX8X5X4X5X5XxXjXjXgXgXcXMXZXMX5X<X3X3X2X2X,XS.S.S.S.n.j.j.d.p.p. .| U O O z k < < < g g u : @ - e g g u l x d 9 q w 7 7 6 5 5 !                                                                                                                                                                                                                                                                                                                                                                                                                                                                                                             !.OXCXeXwXeXwXwXwXwXwXwXeXeXqXqXqXqXJ.H.F.H.F.G.z.s.j.g.Y U N N M H g k n v D D C v D J F J D J J F J D D C v v c c c c c v v D D D D D J F F F K K J C c c c z j g g g g g j j p < < < < 2 < = z 1.t.L g : . : : < l c B D L =.=.+.D B l l l g p g h g u u =.9 o # | V.B.B.B.B.B.B.A.:X:X2X2X3X5XMXMXMXMXMXMXlX5X5XxXxXxXcXxX8X9XpXiXOX%X`.                                                                                                                                                                                  ",
"                                                                                                                                                                      $X#X X>X4XwXwXlXxXcXcXcXbXbXbXbXZXCXCXCX5X5X5X5XxXxXxXxXxXxXMXZXZX5X<X3X3X,XG.S.S.S.Z.c.h.h.j.f.p.p. .W W 1 O . D < - ; < : : * + - e k c k l x m q w 8 Q Q ! (                                                                                                                                                                                                                                                                                                                                                                                                                                                                                                                 '. XtXtXeXeXwXwXeXwXwXwXwXBXwXwXqXmX3XJ.H.J.F.v.z.z.f.j.| I Y R D T j g g c D D v v D J F F J J F F J D v v v v v c v v v v D D D D D D D J J J J J D C c c z z j g g g g g g g p < < < < = < 2 F 3.7.H e * . : < k D c B F L L L D c B x k j < < 2 p > : j :.o O N g.j.j.k.k.n.B.B.A.A.A.2X2X4XMXMXMXmXMXlXlXlXlXlXlXxXcXzXcX5X9XyXyX9XOX%X$X                                                                                                                                                                                ",
"                                                                                                                                                                  HX*X XXX>X5XMXxXvXvXvXCXZXDXNXDXbXZXZXSXSXZXCXxXxXjXxXxXMXMXMXxXcXCXMX5X,XG.G.,X,X:XS.:XS.Z.c.k.j.d.p.p. .| | E O X h g @ - . . * : @ = 2 j c A f 9 w 8 8 Q /                                                                                                                                                                                                                                                                                                                                                                                                                                                                                                                          XyXtXAXeXwXwXeXeXwXwXwXeXwXwXqXBXqXqXJ.F.Z.v.v.z.f.p.p.t t N v M v g g h c v c c v D D D D D J F D v c c c v v v v C C C D D D C C C D D D D D C C C c z z z l g g g p g g g p 2 < < < = = 2 T 3.3.v < $ $ , g c D B D J L P J D B D x j j < = = = @ * :.:.. # ,.g.g.h.h.n.n.C.A.A.>X>X>X4XwXwXBXMXmXmXlXxXlXxXxXxXxXNXNXNXNXmXMXMXCX8X9X=X%XHX                                                                                                                                                                            ",
"                                                                                                                                                                #X X7X6X4X3XMXMXxXvXvXvXnXZXSXSXDXbXZXZXSXSXZXZXxXjXjXxXxXMXwXwXxXcXMXMXlX<X,X,X,X,XG.S.:X,XS.n.C.k.j.f.p.p. .| E t O o g 2 O o : : * * - e e 9 0 w w 8 !                                                                                                                                                                                                                                                                                                                                                                                                                                                                                                                               #XpXyXtXeXwXwXwXeXwXeXeXeXqXwXqXBXqXqX3XF.v.F.M.f.s.p.g.E 4 t k k D < g e k c z z v C v v v v D J D v c c c c c v C C D C D D D M v v C C C C C C C c c g l j g l g g g p p p p p < > = = = * D 3.;.2 < . : l x k z c K L L K L H F c 9 < j g < = : : g :.g X r 8.g.k.h.n.b.:X:X2X>XrXrX>X4X4X4X3X3X3XlX3XgXxXxXxXxXxXmXmXmXVXNXNXNXMX5XxX8X7X%X$X                                                                                                                                                                          ",
"                                                                                                                                                            $X%XOX6X6X6X5XMXMXMXCXZXSXZXvXvXZXZXZXZXZXZXZXZXCXxXxXgXjXxXxX5X5XxXlXxXxXxX3X<X<X,X,XG.b.b.G.G.b.c.z.h.j.g.d.p. .| | Y 1 X O p a o = * = : * & 0 7 8 8 !                                                                                                                                                                                                                                                                                                                                                                                                                                                                                                                                     %X7XtXwXeXrXqXqXqXeXeXqXqXqXwXqX3X2XJ.Z.F.F.v.x.s.p.d.6.t # r r k D < < 9 k c k c c c c v D J D D v c c c c c c c M M D M M v v k v v C c c k c c c k k k z z l l p p a a p a p > = : @ . @ L t.,.v $ X @ 9 g g v K T $.$.K F F D M j j ; j j < u : $.] X O } 6.d.g.f.n.n.S.>X2X2X2X4XS.S.,X2X<X<X<X<X<X<X<XxXxXxXxXlXxXxXxXxXxXxXcXcXlXxX5X8X7XaX&X                                                                                                                                                                      ",
"                                                                                                                                                          #X}.7X6X<X3X5X5XxXvXvXCXZXSXSXZXvXvXvXZXZXZXZXZXZXCXxXxX<X<XxX5X5XxXcXlXxXxXlX<X<X<X<X,XG.b.b.v.n.z.z.h.h.j.f.d.p. .| | E Y 3 O = b c o . @ 7 6 + 5 Q /                                                                                                                                                                                                                                                                                                                                                                                                                                                                                                                                         GX%X9XrXrXeXeXqXqXqXqXeXeXeXeXqX2XJ.G.v.v.v.x.x.s.f.d.8.Y 3 e k k v 2 ; ; k k k z z c c C D J J D v c c c c c c c M M D D M M v v v v c c c c c B C B c c z z l g g p s p p p < > < < g e r ] y.3.p o . @ - e g v K +.K K K J F F F M j c d x u l g 4.< X t 5.6.p.g.n.n.n.:X>X2X,X2X2X2X3X3X3X3X<X<X<X5X5X5XxXxXxXxXxXcXcXxXcXcXcXcXcXcXlXMXMXwX9XiX%XGX                                                                                                                                                                  ",
"                                                                                                                                                        %X X|.XX,X5XxXMXMXMXvXCXZXZXZXZXZXZXvXxXcXbXZXZXZXZXMXxXxXxXxXcXcXcXxX5X3XxX5X3X<X<X<X,X,XG.G.b.v.n.v.b.k.h.j.j.f.p. .| | E E Y t 1 2 F * + + + 5 !                                                                                                                                                                                                                                                                                                                                                                                                                                                                                                                                                 *XOX7X4X4X4X0XqXwXeXqXqXqXqXqXqXJ.G.M.v.v.x.x.f.f.f.g.E 4 1 r 3 b b > < h z z z z z c C C D D C C c z v v v v v v v v v C C C C c c V c z z c V C D v c z z h h g g < u u u < < < < < < e c y.4.= = 3 = ; g k m A S A S S S J J @.J C c g u d u D T X O E | 6.d.f.n.n.n.S.>X2X2X2X4X5XwXwX3X<X<X<X<XxXxXxXxXxXxXxXxXxXxXxXxXcXcXZXZXvXnX5X5X5X4X9X7X7X%XGX                                                                                                                                                              ",
"                                                                                                                                                      %XXX7X>X>X5XxXZXZXCXxXvXCXZXCXxXxXvXCXxXxXcXcXcXcXcXCXcXcXxXxXcXZXZXZXxX<XlXlXlXxX3X<X<X<XG.G.G.b.v.n.v.b.n.k.h.h.f.f.p. . .| | E E t # + w Q Q /                                                                                                                                                                                                                                                                                                                                                                                                                                                                                                                                                       #XiX4X>X4X4X4X2X3XwXwXqXmXqXJ.J.H.v.v.x.x.x.x.x.f.g.| O 1 3 3 s b 2 > g z z z z l z c C B c c c c v v v v v v z c c c c c B B V c z z z z z z z c c z z h g g g g ; , < < < > > : = < = - 4.c . = a 2 g z n n m m m S S S S #.#.B V u l i : , F = X t |  .d.f.h.k.k.k.n.:X2X4X5XwX5XwX5X,X<X3XxXxXxXxXxXxXxXxXxXxX5XxXxXxXcXvXZXCXZXvX8X8X8X5X5XwX5X4X7X%X                                                                                                                                                            ",
"                                                                                                                                                  $X}.XX4X5X4XtXxXCXZXZXcXlXcXZXZXcXxXxXcXZXcXxXbXvXcXcXcXZXCXcXcXcXxXxXcXcXxXxXxX5X5X5X5X3X<X<X,X,XG.G.b.v.v.n.k.h.f.f.f.f.p.p.9.W 5.9.} [ ^ ~                                                                                                                                                                                                                                                                                                                                                                                                                                                                                                                                                               HX%X7XXX7X8X4X4X2X2X2X2XJ.J.J.J.J.H.D.Z.x.x.x.x.h.j.6.O 1 3 3 s z < = 2 g g k l j l k x x x j x k z z z z z c c c V c l l x x x l l l g g g g g j g g g g e 2 ; ; ; , : * * : > > a g = < T = * : l l B B S P G A A A S J J J B l > < u u $ x j X O E 6.d.d.d.f.f.k.n.n.:X2X4X5X5X5X5X3X,X<XcXcXcXxXxXxXxXxXxXxXxX<XxXxXcXCXZXZXZXSXSXCXvX8X1XcXZXVXmX4X7X%X$X                                                                                                                                                        ",
"                                                                                                                                                #X@XXXoX3XMXwXBXMXMXMXMXlXlXcXZXCXxXxXxXcXcXcXxXZXZXcXcXcXcXcXxXcXcXcXxXcXcXxXxX5X5X5X5X<X<X<X<X3X3X3X3X,XG.v.v.n.h.f.f.f.f.s.s.a.a.9.} ..^ (                                                                                                                                                                                                                                                                                                                                                                                                                                                                                                                                                                     %X}.}. X X XOX|.|.XXXX>X>X>X>Xn.n.n.z.N.N.N.h.f.g.4 1 # < j j < = - < g k j j j l k k x l l j z z h h z z z l c l g d d d d g p p p p g g g g p p p u < ; < < , < : * % : > > > > @ e H : < < l V S A A P P D D D D D F F c g < p > * d D @ O t | 9.p.p.d.h.h.n.n.:X:X:X2X2X2X3X3X3X3XlXZXZXcXcXxXxXxXxXxXxXxXxXxXcXZXZXZXZXZXSXSXSXvX8XnXvXZXDXVXMX4XXX X%X$X                                                                                                                                                    ",
"                                                                                                                                            $X}.XX1XjX<XgXxXMXmXMXcXcXxXxXxXcXZXZXcXxX<X5XxXxXxXcXxXxXxXxXcXxXxXxXxXcXcXcXcXxX<X3X3X<X<X<X,X,X,X,XG.,X,XG.m.v.v.b.n.z.h.h.f.f.s.a.6.6.o.O.~.                                                                                                                                                                                                                                                                                                                                                                                                                                                                                                                                                                          '.!.!.(.(.(.(.).).).!.!.W.].].].i.f.N.N.f.p.g.I O @ 0 f f e @ = - e j g g p j k k l g g p p p p g h z h g g e e 9 9 9 9 2 2 2 2 2 p p p g p a p p u u u i > > > > > > : $ @ @ o e c . * * p j c D D D L P J J D c c c h g g 2 < * ) j O 1 } 6.6.p.s.j.B.k.n.b.:X:X:X,X,X,X,X,X2X5XMXZXZXcXcXcXxXxXxXxXxXxXxXcXZXZXZXZXZXZXAXAXSXAXCXvXZXZXZXCXvX8X5X6X>XOX=X&X                                                                                                                                                ",
"                                                                                                                                          $X XXX5XmXlXxXxXxXlXNXcXcXcXxXxXcXcXZXZXcX5X<X,X<X<X<XxXxXxXxXxXcXcXlXxXxXxX5X<XxXxXxX3X3X<X,X,X,X,X,X,X,X3X3X<XG.b.b.v.c.z.z.h.j.j.j.8.r.O.~.                                                                                                                                                                                                                                                                                                                                                                                                                                                                                                                                                                                                                W.W.o.o.o.r.^ + + 7 q q e # @ # ; e < < < e h z h p p < < < < g j h g g e e e e e e e e 2 2 2 < 2 p p p z l a a u u u u p p > : * * & + + + + 7 0 X X - = ; h D D J H L L J D z k h j h h 2 g M ) @ X b |  .p.p.j.j.k.k.c.b.:X,X:X,X,X2X,X,X3X5XMXMXcXxXZXcXxXxXxXxXxXxXcXcXcXZXZXZXZXZXSXAXZXZXSXZXZXCXSX8X8X8X8XMXBXwXoX@X#X`.                                                                                                                                            ",
"                                                                                                                                        *X@XoX3XMXwX4X5X1XxXcXcXcXxXxX<X<XxXxXcXZXZXcXxXxX<X<XxXxXxX<X<XcXcXxXxXxXcXcX5X<X<X5XxX5X5X3X<X,X,X,X,X3X3X3X3X3XG.m.M.v.x.c.c.B.k.g.6.o.X.                                                                                                                                                                                                                                                                                                                                                                                                                                                                                                                                                                                                                                U.Q 5 + 5 6 7 + + + # 0 0 ; ; ; 2 g h 2 2 > , , & , d d d < e g h z g 2 e p < < < < < u p p z l l u u < , < > > = + + + + + + 5 8 w 5 + 6 + - 9 e ; ; h N T H F C k l d u u < < c =.; @ 1 |  .6.p.p.p.f.k.B.c.Z.S.:XG.G.G.,XG.,X<X3XlXlXlXxXxXcXcX<X<XxXxXxX<XxXZXZXZXZXZXCXvXvXvXZXSXSXSXSXSXCX8X8XvXSXNXmX1X9XOX}.).                                                                                                                                          ",
"                                                                                                                                      }.XX<XlXlXlX5X5X5X5XxXcXcXcXxXxX<X<X<X<X<XxXxX<X<X<X<X<XgXxXcXxX5XxXcXxXxX<XxXcXxX3X<X5X<X5X5X5X<X<X<X<X3X5X3X3X,X,XG.m.v.G.G.c.C.k.d.l.o.W.                                                                                                                                                                                                                                                                                                                                                                                                                                                                                                                                                                                                                                            / ! Q 8 8 8 8 5 5 6 6 + 6 7 6 + + + + + - 9 9 0 0 & - < g p < < : : * $ $ $ : < u < 9 0 0 - & + + + 6 5 5 5 8 ! /           ! Q 8 w 5 6 0 0 0 9 e z v v c l d u u < < j k o O E |  .p.p.f.j.j.k.c.Z.S.S.S.S.S.b.b.G.,X<X3XxXxXxXxXxXxX<X<X<XxXxX<X<XcXCXZXZXZXZXvXnXnXvXZXDXIXIXUXSXCX8X8XvXZXZXZXcX1X,X6XOX#X(.                                                                                                                                      ",
"                                                                                                                                  &X%XXX,XlXlXxX1X1X1X1X5XxXxXxXxXlXxX5X<X<X<X<X<X<X<X<X<X<X,X<XxXcXxX5XxXcXcXcX<XxXxX<X<XxXxX<X5X<X<X<X<X<X5X5X3X,XG.G.G.G.b.b.C.C.S.z.f.o.W.                                                                                                                                                                                                                                                                                                                                                                                                                                                                                                                                                                                                                                                                      T./ / ! Q 8 5 5 6 5 6 6 6 6 + & , < < u g d u , & & $ - , 0 0 7 7 7 7 6 6 5 Q ! /                             / ! 8 5 w 0 k p i : : i d 9 , & d D : O b 5.|  .p.p.f.h.h.h.z.z.z.c.v.b.G.G.G.,X<X<X3XlXlXxXxXxX<X<XxXxXcXcXxX<XxXvXZXZXZXCXxXnXjXcXcXVXDXSXSXSXSXvXvXvXvXbXbXCX5X3X3X,XXX X#X                                                                                                                                    ",
"                                                                                                                                #XOX7X5XmXMX5X5XjXjX1X1X1X5XxXxXxXxXxXxXxX<X<XxX5X5X<X<X3X<Xm.G.<XxX5X<X5XxXxXcXcXcXxX<X<X<X<X<X5X<X<X<X<X<X<X3X,X,XG.G.b.b.v.v.c.A.k.|.o.W.                                                                                                                                                                                                                                                                                                                                                                                                                                                                                                                                                                                                                                                                                          ( / ! Q Q 8 8 5 5 5 5 5 5 5 5 5 5 5 5 5 5 5 5 5 Q ! (                                             U.! 8 5 0 - & & & & . & , f g X o E W 9. .p.p.f.f.f.h.z.b.v.n.v.G.,XG.G.<X<X<X3XlXxXxXlXcXxXxXcXCXCXcXCXxXxXcXZXZXZXcXxXkXcXcXcXcXNXZXSXZXZXZXSXZXbXkXvXcXZXSXMX3X3X6XXX}.$X                                                                                                                                ",
"                                                                                                                            $X}.XXoX1X4X4X5XxXCXnX1XjXgXgXjX5X5XcXxXcXxXxX<X<X<XxXxX3X3XlX<XG.G.<X<X<X<X<X<X<X<XZXZXcX<X<X<X<XxXxXxXxX3X<X<X,X,X,X3X,XG.b.b.b.b.Z.k..XW.                                                                                                                                                                                                                                                                                                                                                                                                                                                                                                                                                                                                                                                                                                                                                                                                        ! 8 5 + + + $ & 0 0 X # t E | 6. .p.f.f.z.N.z.v.S.v.v.b.G.G.G.m.<X<X3XxXxXxXlXlXxX5XxXcXcXxXxXMXxXcXcXcXZXcXcXxXNXDXzXcXxXxXvXZXZXZXZXSXSXbXxXcXcXSXSXCX5X5X3X<X9X X%X                                                                                                                              ",
"                                                                                                                          &XOXoXgXlX5X5X4X5XxXvXnXjXgXgXgXgX5X5XxXxXxXxXxXxX<X<XgXgX<X3XxXlX<X<X<X<X<X<X<Xm.m.m.<X<XxX<X<X<XxXxXcXlXlXlXxX<X,X,X,X,XG.b.b.S.G.:Xk..XW.                                                                                                                                                                                                                                                                                                                                                                                                                                                                                                                                                                                                                                                                                                                                                                                                                ! 8 + + 6 5 + + y } W  . .p.d.f.f.f.x.z.v.z.x.z.v.G.G.,X<X<X<X<X3XlXlXlXlX3X<XxXcXxXxXxXcXcXcXcXcXcXcXcXcXDXVXcXcXxXvXvXbXxXcXZXSXZXNXcXcXNXZXZXSXwX3X3XmXlX,XOX XGX                                                                                                                          ",
"                                                                                                                      &X-X+X8XcXlX3X<X5X5X5X5XxXMXMXxX<X<X<XjXjXjXgXgXjXxXxX<X<X<X<X<X<XxXlX<X<X<X<X<X<X<X,Xm.,Xm.<X<X<X<X<XxXxXlXlXxXxXxX<X<X,XG.G.b.b.b.,X:XXX}.~.                                                                                                                                                                                                                                                                                                                                                                                                                                                                                                                                                                                                                                                                                                                                                                                                                            ( 8 ^ E |  . .p.p.d.d.d.f.j.z.Z.S.Z.S.2X2X,XG.<X<X<X<X<X<X<XlXlX3X<XxXxXcXcXxXcXcXxXxXcXcXcXcXMXMXMXlXxXxXnXxXcXjXxXMXNXNXMXcXcXMXMXCXCXtX5XmXMXlXlX6XOX}.$X                                                                                                                        ",
"                                                                                                                    *X@X+XjXlXlX3X<XgXxXjX1XxXMXNXMXlX<X<X<XjXjXgX<X<XgXxXxX<Xm.<X<XG.<XxXlX<X<X<X<XxXxXxX5X<X5X5X<X<X<X<X<X<X<X3X3XxXlX5X<X<X,XG.G.m.oX:X>X|.].W.                                                                                                                                                                                                                                                                                                                                                                                                                                                                                                                                                                                                                                                                                                                                                                                                                                  O.O.o. . .i.p.d.d.l.k.c.Z.J.G.G.,X3X3X,Xm.G.G.G.G.G.G.<X3X3X3X<X5XxXcXZXCXcXcXxXxXcXcXcXcXMXCXMX5X5XxXxXxXjXxXcXNXNXZXMXMX5X1XxXxX5X5XMXBXmXmXlX<X6X@X}.%X                                                                                                                      ",
"                                                                                                                $X%XXX6XxXxXlXxXjXgXjXjX<XjXxXcXxXxXxXxXxXxXgXgXxX<XoX<XxXxX<Xm.<X<X<X<X<XxXxXgX<X<X1XxX5X4X4X4X3X5XcXxXxX3X5X5XxX5X5X5X4X:XoXoX<XoXm.XXXX.XW.                                                                                                                                                                                                                                                                                                                                                                                                                                                                                                                                                                                                                                                                                                                                                                                                                                          O.O.o.d.f.f.f.k.h.k.C.C.n.n.n.6X4X<XoXm.G.K.K.K.K.3X3X5XxXcXcXxXxXxXcXcXcXxXxXcXcXcXxXxXMXxX5X<X<XxXxX<X<XxXcXZXZXCXMXcXxXcXcXvXxXxXMXlX5XlX5X6X6X6X+X XGX                                                                                                                  ",
"                                                                                                              $X=X7X4XlXlXxX5X1XjXgXjXjXgXjXxXxXxXgXgXjXxXlXgXlXxX<XoX<XxXxXxX<X<X<X<X<X<X<X3XgXgXgX<X5X5X4X4X5XMXMXcXcXxXlXlXlXxX5X5X4X6X:XoXoXb.oXXX|.{.W.                                                                                                                                                                                                                                                                                                                                                                                                                                                                                                                                                                                                                                                                                                                                                                                                                                              E.O.o.d.i.f.n.h.h.n.c.n.XX6X4X6X6X<X<X3X3XlX3X3X<X3X5XxXxXxX<X<XxXxXxXxX5XxXcXcXcXxXxXxXxXxX<X<XxXxXxXcXZXZXZXCXcXxXxXxXxXcXvXcXcXlXlX5X5X5X5X5X5X5X7X%X&X                                                                                                                ",
"                                                                                                          GX*X X+X6X<X1X5X5X5X5XxXgXgXjXgXxXxXxXxXgXgXgXxXxXlXlXxX<XoX<XxXcXxX<X1X<X<X<X<X<X<XxXjX<X<X1XwXMXMXZXNXxXjXgXgXjXjXlXlXlX<XoXoX<X,X2X,X:XOX{.!.                                                                                                                                                                                                                                                                                                                                                                                                                                                                                                                                                                                                                                                                                                                                                                                                                                                    ~.o.i.f.h.z.Z.c.c.b.:X,X,X<X5X5X3X3X2X3X3X3XgXgXgX1XxX<X<X<X5XxXxX<X<XxXxXxXxX5X5XxXxXxX<X<X<XxXxXxXcXcXxXxXxX<X<X<X<XlXMXZXcXxX3XcXxX5X5X5X5X5X6XXX X%XJX                                                                                                            ",
"                                                                                                        &X X+X1X1XoXoX1X1X1X5XxXxXgXgXjXjXxXcXxXxXgX<XgXxXxXgXgXjX<X<XgXjXxXxXxX5X5X<X<X,X,X<XxX5X5X1XlXNXZXZXSXZXcXgXgXgXgXlXlXP.P.<XoX<X3X3X2X4X|.W.                                                                                                                                                                                                                                                                                                                                                                                                                                                                                                                                                                                                                                                                                                                                                                                                                                                            W.o.h.z.C.S.C.Z.S.b.b.G.<X5X3X2X4X4X4X<X<XoXsX<X<X<X<X<X<XxXxXxXxXxXxXxXxX<X5XxXxX<X<X<X<X<X<X<X<X<X<X<X<X<X<X<X<XxXxXZXcXxX5XlXxX5X5X5X5X5X<X1XoXXXOX&X                                                                                                          ",
"                                                                                                    GX*XOX1XlXlXjXgXoX1X1X<XlXcXxXjXjXjXjXkXxXxXxXgXgXgXxXjXgXgX<X<X<XgX1X<X<XxX5X5X<X<X<X<X<X5X5X5XxXcXZXDXDXNXlX<XoXm.m.m.m.M.K.K.K.<X3XwX3X>X XW.                                                                                                                                                                                                                                                                                                                                                                                                                                                                                                                                                                                                                                                                                                                                                                                                                                                                W.o.l.n.C.S.Z.S.S.v.M.m.G.3X3X2X2X2X2X,X1X<X<X<X<X<X,X<X5XxXcXcXxXxXxX<X<X<XxX<X<Xm.m.,X<X<X<X<X<X<X<X<X<X5XxXxXxXlXcXcXxXxXxXxXxXxX5X5X5XxXlXlXxX6XOX%X                                                                                                        ",
"                                                                                                  *X}.OX6XmXVXzXlXjX1X1X1XjXxXcXcXjXkXkXjXjXxXxXxXgXgXgXjXgXgXgX<X<XgXgX<X<X<X<X5X5XxX<X<X<X3X5X5X5XcXMXNXDXNXcXcXxX5X5X3X<X<X<X<XP.lXlX3X>XXX.X).                                                                                                                                                                                                                                                                                                                                                                                                                                                                                                                                                                                                                                                                                                                                                                                                                                                                      W.l.n.C.D.Z.Z.v.M.F.<X<X3X2X2X2X2X4X<X5X5XxXxX<Xm.,XxXcXcX<X<X<X<X<X<X<X<X<X,Xm.m.<X<X<XxXxXxX<X<X<XxXxXcXcXxXxXxXxXxXxXxXxXxXxX5X5X5XxXzXzXzXlX6XOX%X$X                                                                                                    ",
"                                                                                                %XOX+XoX<XlXcXcXxXxXxXxXxXjXzXzXcXkXcXcXjXjXxXkXxXjXgXgXgXgXgXgXgXgX<XgX<X<X<XxX1X5X<X<X<X<X3X5X5XxXcXcXcXNXNXcX5X5X4X4X4X5X5X<XlXlXmX5X,X|.#X                                                                                                                                                                                                                                                                                                                                                                                                                                                                                                                                                                                                                                                                                                                                                                                                                                                                            W.o.XXS.Z.Z.Z.G.<X<XG.,XoX<X<X3X5XwXwXMXMXcX3X<X<XxXcX3X,Xm.m.G.<X<X<X<X<X,X,X<X<X<X<X<XxXxX<X<X<XxXxXcXcXcXcXxXxXxXxXxXxXxXcXcXxXxXxXzXlXxX5X5X4X9X7XaX                                                                                                  ",
"                                                                                            HX=X7X8X1X<XgXjXkXkXxXxXlXxXcXcXhXhXhXjXcXcXjXkXcXcXxXjXgXgX<X<X<XgXgXgX<X<X1X1X<XxX1X5XxX<X<X<X<X3XBXCXcXxXjXxXxX5X5X4X4X4X4XwX5XlX<X<X6X7X X#X                                                                                                                                                                                                                                                                                                                                                                                                                                                                                                                                                                                                                                                                                                                                                                                                                                                                                W.o.|.2X2XS.Z.S.G.S.m.oXoX<X5X5XBXBXlXlXlXxX3X3X3X3X<XG.m.m.<X<X3X3X<X<X<X<X<XxXjX<X<X<X<X<X<X<XxXxXlXcXcXcXxXxX5X5XxX<XxXcXcXcXxXxXxXxX5X8X5X5X5X8X7X%XGX                                                                                              ",
"                                                                                          $X=X9XtXMXcXkXsXsXsXjXjXlXlXNXcXgXsXkXjXkXcXcXjXgXjXcXcXjXgX<X<X<X<X<XgX<X<X<X1XxXxX<X<X<X<X<XxXxXxXxXlXMXcXcXxXjXxXxXwXtXwXwXBXMXlXlX3X8XOX{.!.                                                                                                                                                                                                                                                                                                                                                                                                                                                                                                                                                                                                                                                                                                                                                                                                                                                                                    !.W.|.>X>XS.S.J.Z.b.b.oX<XxXmXVXmXlX3X3X3X3X<X<X3X<X<X<X<X5XxXlX3X<X<X<X<XxXxXxX<Xm.<X<X<X<X<X<XxXlX5XxXxXxXcXxX<X<X<XjXxXxXxXxXcXxX5X5X9X8X1XjXxX5X4X7XaX                                                                                            ",
"                                                                                        &X=X9XcXcXcXxXkXsXsXsXgXjXlXlXNXxXgXsXjXkXkXxXcXkXgXgXgXjXjXgXgX<X<X<X<X<X<X<X<X1XxXxXxX5X5XxXxXxXxXxXxXlXxXcXcXxX5X5X5XwXwXqXwXmXlXjXxX6X|.{.                                                                                                                                                                                                                                                                                                                                                                                                                                                                                                                                                                                                                                                                                                                                                                                                                                                                                            W..X7X:XS.H.H.S.:X6X6X<X3XzXVXlX3X3X3XxX3XxXxX3X3X3X3XlXcXcXxX<X<X<XxXxXxX<X<X,X<X<X<X<X<XxXxXxX<X<XxXxXxXcXxX<X<XjXxXxXxXxXxXxX5X1X1XjXjXjXjXNXMXwX7X%XGX                                                                                        ",
"                                                                                      &X=X9XxXxXjXjXnXnXjXkXkXkXxXlXlXxXjXoXoXsXkXhXhXcXcXjXgXoXjXjXjXgXgXgXgXgXgX<X<XgXjXjXxX<X<X<X<XxXxXxXlXxXcXcXcXvXxXxXlXMXMXBXmXlXxXxXgXoX}.#X                                                                                                                                                                                                                                                                                                                                                                                                                                                                                                                                                                                                                                                                                                                                                                                                                                                                                                W.].7X2XqXJ.H.S.:X6X6X<XlXNXxXxXxXlXcXcXcXCXxXlXxX3XxXxXxX3X<X<X<X<X<X<X<X<X<X<X<X,X<X<XxXxX<X<X<X3X<XxXcXxX1XjXjXxXkXcXxXxXxXjXgXjXhXsXgXjXxXxXMX1XOX%X&X                                                                                      ",
"                                                                                    &XOX9XxXcXxXjXfXnXnXkXkXxXxXxXxXgXgXgXsXsXsXjXjXhXkXbXcXjXsXgXjXjXjXgXgXgXgX<X<XgXjXxXjX<X<X<X<X<XxXxXxXcXCXCXCXxXxXxXxXcXMXmXVXNXxXjX+XXX}.#X                                                                                                                                                                                                                                                                                                                                                                                                                                                                                                                                                                                                                                                                                                                                                                                                                                                                                                    !.].7X2X2X2XD.S.:X6X<XjX<XlX3X5XxXlXlXlXcXcXcXlX3X<X<X3X3X<XxXxX<X<X<X<X<X<X<X<X,X<X<XgXgX,X,X3XlXxXxXxXxXxXxXxXxXkXkXxXxXxXgXjXjXjXjXgXkXjXxXcXkX1X+X7X=XGX                                                                                  ",
"                                                                                HX=XOXoX1XxXcXhXkXfXnXnXkXxXxXxXxX1XgXgXgXsXsXdXjXjXjXhXcXcXcXjXgXjXjXjXgXdXgXgX<X<X<XgXxXxXxX<X5X5XxXcXcXcXcXMXMXxXxX5X5XxXxXNXNXlXlX8X+X}.].                                                                                                                                                                                                                                                                                                                                                                                                                                                                                                                                                                                                                                                                                                                                                                                                                                                                                                          $X]. XXX4X2XS.S.XX,X1X<X<X3XxXlXlXlXlXlXcXMXMXxXlXxXxXxXxXxXxX<X<X<X<X<XxX<X<X<X<XxXxX<XG.G.3XcXxXxXxXxXxXxXkXjXjXjXcXbXhXhXjXgXgX1XxXxXxXkXfXsXsXgXMXtX=X&X                                                                                ",
"                                                                              &X=X+XoXjXjX<XjXcXbXbXnXkXxXxXxXxXjXjXjXjXjXjXhXhXgXjXjXjXhXcXcXcXgXjXjXjXgXdXgXgXgX<X<X<X<X1XxXxX5X<X<XxXxXxXxXlX5XlXMXvXxXxXxXlXzXxX1XOX}.!.                                                                                                                                                                                                                                                                                                                                                                                                                                                                                                                                                                                                                                                                                                                                                                                                                                                                                                                W..X|.>X2X3X,X,X6X<X<X<X<X3X3X3X<X3XxXcXZXZXZXZXMXlXxXcXcXxX<X<X<XxXxXxXxXxXxXxXxX<X<XG.<XlXxXxXcXcXxXxXjXjXjXjXxXcXhXjXgX1X1X1XxXxXxXkXsXsXsXjXNXMX1XOX%XGX                                                                            ",
"                                                                          &XiX9XnXkXjXjXjXgXjXcXbXbXcXxXjXjXjXkXkXdXhXhXhXcXxXxXgXjXjXjXjXhXcXcXjXjXjXjXgXgXgXgXxXjXjXgX1X1X5XxX<X,X<X<X<X<X5X5XMXMXMXCX5X5XxXlXlX8X+X}.$X                                                                                                                                                                                                                                                                                                                                                                                                                                                                                                                                                                                                                                                                                                                                                                                                                                                                                                                    !.{.|.4XBXMX3X<X<Xm.m.m.G.G.G.G.<X3XlXZXZXZXZXMXlXxXcXxXxX<X<X<XxXxXxXxXxX5XxXxX<X<XG.<XxXxXxXcXcXjXjXgXgXgXjXkXkXjX1X1X1X1XgXgXkXjXxXxX5XxXgXgXjXlX4X7X=X&X                                                                          ",
"                                                                      GX*X7X8XbXcXcXjXgXjXjXjXjXcXNXcXxXjXjXjXfXdXdXhXkXzXcXxXxXjXjXjXgXjXjXhXjXhXjXjXjXgXgXgXgXgXgXxXjXxXxXxX5X5X<X<XxXxXxXlXlXlXlXMX5X3X3XlXxX1XOX}.$X                                                                                                                                                                                                                                                                                                                                                                                                                                                                                                                                                                                                                                                                                                                                                                                                                                                                                                                          {.|.6X4X3X<X3X<X<X<X3X3X3XlXxXxXxXMXCXZXZXMXxXxXxXxX<X<X<X<X<X<XxX<X<X<X<X<X<X<X,X<XxXxX<XxXxXjX<XoXoXgXkXjXjX1X1X1XjXgXgXjXkXxXxX3X3X<X<XsXgXlX3X5X9XOX*XGX                                                                      ",
"                                                                  &X%X=X7X9XnXbXcXxXxXjXjXjXjXjXxXxXxXjXkXkXjXjXhXhXhXkXkXkXhXjXjXjXjXjXjXjXjXxXkXkXgXgXgXgXjXjXxXxXlXcXxXxX1X<X<X1XxXcXcXxXMXxXjXnX5X3XJ.mXVXxXOX#X                                                                                                                                                                                                                                                                                                                                                                                                                                                                                                                                                                                                                                                                                                                                                                                                                                                                                                                                !.{. X6X3XJ.lX3X3X3XmXlXxXcXcXxXcXCXZXSXZXcXcXlX3X<X<X<X<X1XgX<X<X<X<X<X<XxX<X<X<X<XxXxXgX<XjX<X<XgXkXkXjXgXgXjXjXjXjXkXkXcXbXxX1X1X<X<X<XgXhXhXzXmXwXyXiX&X                                                                    ",
"                                                                =X7X9X8X8X8XxXcXcXxXxXgXgXjXjXjXxXxXjXjXjXjXjXjXjXjXjXjXjXhXhXjXkXjXkXkXjXjXjXkXxXkXjXgXgXgXgXgXxXxXcXMXcXcXxXxXxXxXcXcXcXcXxX5XnXvXNXmXmXMX5X X#X                                                                                                                                                                                                                                                                                                                                                                                                                                                                                                                                                                                                                                                                                                                                                                                                                                                                                                                                    !.W. X4XwXK.lXMXlXMXMXxXlXlXxX5X5XxXcXcXcXNXMXlX3X<X<X<X<X<X<X<XxXxXgXxXxX<X<XgXgXgXgXgXgXgX<X<XjXkXjXjXjXjXjXjXjXjXjXkXcXbXkXjXkXxXxXxXbXfXkXcXVXVXBXtXiX*X                                                                  ",
"                                                            &X=XOX9X8XvXvXjXxXcXcXxXjXjXgXgXgXjXxXxXjXjXjXjXjXjXjXjXjXjXjXjXjXjXjXkXcXxXxXkXjXjXkXjXxXxXxXxXxXjXhXhXcXxXMXMXMXlXxXcXcXcXcXxX8X4XCXmXVXDXcXXX}.$X                                                                                                                                                                                                                                                                                                                                                                                                                                                                                                                                                                                                                                                                                                                                                                                                                                                                                                                                          {..X7X5XlXlXxXxX5X5X5XwXMXxXxXkXxXcXNXNXMXlXxX3X3X<X<X<X<X<XgXxXgXgXxX<XgXxXxX<X<X<XgX<X<XgXjXxXjXjXjXjXkXxXxXkXjXkXxXxXjXjXkXxXxXkXjXnXnXkXxXmXMX5X8XOX%XHX                                                              ",
"                                                        HX%XOX9X8X8XvXvXxXjXxXcXcXxXjXgXgXgXgXjXxXxXjXjXjXjXjXgXjXjXjXjXjXjXjXjXjXkXcXcXcXcXkXjXjXjXxXxXcXcXcXcXkXkXcXcXMXMXMXmXxXxXjXjXxXcXxXMXMXmXcXxX+X}.$X                                                                                                                                                                                                                                                                                                                                                                                                                                                                                                                                                                                                                                                                                                                                                                                                                                                                                                                                              !.{.6X3X5X5X1X5X4XwXtXCXCXvXxXcXNXNXcXxXlXxXxX5X<XxX<X<X<XgXxXxXxXxX<X<XgXgX<X<X<X<XoX<XjXcXcXjXjXjXkXcXbXbXcXkXjXjXjXjXgXjXjXgX<X<X1X1X1XjXjXjXxXxX8X9XOX&X                                                            ",
"                                                      -XpX9X8X8XvXkXkXjXhXhXkXcXcXkXjXgXgXgXgXjXxXxXjXjXjXgXjXjXjXjXjXjXjXjXgXgXgXjXcXcXcXbXcXkXjXkXxXcXbXbXcXcXkXkXcXcXMXMXNXNXcXcXnXjX1XxXNXNXNXZX8X@X#X                                                                                                                                                                                                                                                                                                                                                                                                                                                                                                                                                                                                                                                                                                                                                                                                                                                                                                                                                    !.{.XX8X1X4X5X5X5XwXMXxXcXlXxXmXMXcXcXcXlXlXlXxXxXxXgXgXxXxXxXxXxX<X<X<X<X<XgX<X<XoX<XjXcXkXgXgXgXcXcXbXbXbXkXjXjXjXgXgXgXjXgXgX1X1X1XgXsXsXsXjXxXmXMX5XOX%X                                                          ",
"                                                  &X=X9XbXZXZXcXcXhXhXhXhXhXhXhXcXkXkXgXgXgXjXjXjXxXjXjXjXjXjXjXjXjXjXjXgXgXsXdXgXjXkXkXcXbXbXcXcXcXcXcXcXxXxXjXjXjXxXcXcXcXcXcXxXxXxX5X5XxXNXDXZX9X X#X                                                                                                                                                                                                                                                                                                                                                                                                                                                                                                                                                                                                                                                                                                                                                                                                                                                                                                                                                          {. X7X4X3X3X5X5X5XlXmXmXMXMXMXcXMXMXMXcXlXxXxXxX<X<X<X<X<X<XgX<X<X<X<X<XgX<X<XoX<XjXkXjXgXgXgXcXcXbXbXbXkXjXgXjXjXgXjXjXgXjXxXxXxXjXsXsXfXnXxXzXVXVXxXOX%XHX                                                      ",
"                                              HX=XiX8XSXZXNXcXcXzXzXhXhXhXhXhXjXkXkXkXkXjXjXhXhXjXjXjXjXjXjXjXjXjXjXjXjXgXgXdXoX<XgXjXjXxXbXbXcXcXcXcXcXcXxXxXgX3X5XxXxXxXkXkXjXjX1X5X5XxXxXcXxX9X}.(.                                                                                                                                                                                                                                                                                                                                                                                                                                                                                                                                                                                                                                                                                                                                                                                                                                                                                                                                                              {.OX8X3X3XMXxXlXcXNXVXNXtXtXMXMXZXZXcXlXxXxXxX<Xm.m.<X<X<X<X<X<X<X<X<X<XgXgXgXgXgXgXgXgXgXkXhXcXcXcXkXjXgXgXkXjXjXjXjXgXgXjXcXzXcXkXfXfXnXnXxXcXcXcX8X9X=X*X                                                    ",
"                                            &X+XvXZXZXZXMXMXcXzXzXhXhXhXhXjXhXhXkXkXkXkXjXjXhXhXjXjXjXjXjXjXjXjXhXjXjXjXjXgXgXdXoXgXjXjXkXbXbXbXcXcXcXcXcXcXxXxXlXwXcXcXbXxXkXjXxXxXlXlX1X1X+X@X#X                                                                                                                                                                                                                                                                                                                                                                                                                                                                                                                                                                                                                                                                                                                                                                                                                                                                                                                                                                    *X X8XwX3XlXlXlXNXNXMX4X4X5XMXZXCXcXlXxXxXcXxX<X<X<XgXxXcX<X<XgXlX<X<XgXgXjXgXgXgX<XgXkXbXjXhXhXjXjXjXgXjXjXjXkXkXkXkXjXkXzXzXcXcXjXnXnXnXkXhXcXcXxX8X8XiX&X                                                  ",
"                                        &X=X9XCXvXcXvXvXvXcXMXNXcXhXhXjXjXjXjXkXxXxXkXkXkXhXhXhXhXjXjXjXjXgXjXkXkXkXkXjXjXgXgX<XgXgXgXgXjXcXcXcXcXbXcXxXxXbXZXNXMXSXZXxXjXjXnXcXNXNXVXcX9XOX*X(.                                                                                                                                                                                                                                                                                                                                                                                                                                                                                                                                                                                                                                                                                                                                                                                                                                                                                                                                                                        $X X9XBXmXmXlXlXxXxXxXMXZXMXcXxXxXxXxXxXcXcXcXxXxXxXxXxXlX<X<X<XgXgXgXgXjXjXgX<XjXcXcXcXkXcXhXjXgXjXhXkXkXkXkXkXkXkXkXxXcXcXcXcXxXkXbXbXkXhXgXjXcXxXxX8XOX%X                                                ",
"                                    KX%X7XvXZXSXcXxXkXnXkXxXcXcXxXjXjXgXgXgXjXkXxXxXkXkXkXkXkXkXhXjXjXjXjXjXjXjXkXkXhXjXjXjXgXgXgXgXgXgXjXjXgXgXcXZXZXcXcXbXZXNXZXNXcXcXkXbXxXxXVXVXxX9X X#X                                                                                                                                                                                                                                                                                                                                                                                                                                                                                                                                                                                                                                                                                                                                                                                                                                                                                                                                                                              $X X7XBXmX3X5X8XxXxXZXcXlXxX3X5X5X<X<X<X<XxXxXxXxX<X<X<XlXlXxXgXgXgX<XgXjXjXjXjXcXcXkXcXkXjXjXjXjXkXhXkXkXkXkXkXkXkXkXhXcXcXvXxXcXcXDXkXkXkXkXxX5XxXcXxX+X%XHX                                            ",
"                                HX*X%XOX8XZXMXmXcXkXjXjX1X1XxXlXxXjXgX<XsXgXgXgXkXkXkXkXkXkXkXzXhXhXjXjXjXjXsXjXhXjXjXjXjXgXgXgXgXgXgXxXjXjXgX<X<XxXNXcXcXNXZXNXDXNXcXcXcXcXcXVXVXMX9X}.).                                                                                                                                                                                                                                                                                                                                                                                                                                                                                                                                                                                                                                                                                                                                                                                                                                                                                                                                                                                    }.XX4XrX4X6X1XjXhXcXlX3X3X3X3X<X<X<X<X<XxXxXxXgX<XlXlXxXxXgXgX<X<XgXjXhXhXjXhXkXjXkXkXjXjXjXhXkXjXjXjXkXkXkXjXkXjXhXkXxXnXnXxXcXDXDXkXcXvXjX1XgXkXjX1X+X=X&X                                          ",
"                              KX-X+X+X8XvXMXMXxXxXjXoXoX1XjXxXxXjX1X1XoXoXsXsXsXjXjXgXjXjXhXkXzXhXjXjXjXjXgXsXsXjXjXjXgXgXgXgX<XgXgXgXxXxXxXxXgXoXgXxXcXcXNXZXNXZXbXbXcXkXcXzXNXxX7X%X                                                                                                                                                                                                                                                                                                                                                                                                                                                                                                                                                                                                                                                                                                                                                                                                                                                                                                                                                                                          #X X7X4X4X1XdXdXxXxXlXlXlXlXxXxXxXxXgX<X<XxXxXcXxXxXgX<XgXgXgXjXjXjXjXjXjXjXjXjXhXhXjXjXjXhXjXjXjXjXkXjXjXgXjXjXhXhXkXnXnXxXcXzXDXzXcXkX1XoXoXsXgXkXxX9XOX&X                                        ",
"                          &X-X+XnXxXjXjXjXjXjXjXjX1X1X1XjXjXkXkXkX1X1XoXoXsXsXdXjXgXgXgXjXhXhXhXjXgXjXjXjXsXsXsXgXgXgXgXgXgX<X<X<X<XgXgXxXxXxXxXxXcXcXcXNXZXNXcXcXcXvXxXxXcXcX8XOX*X                                                                                                                                                                                                                                                                                                                                                                                                                                                                                                                                                                                                                                                                                                                                                                                                                                                                                                                                                                                              (.{.OX8X1XoXoX1XxXcXMXlXlXxXcXcXcXxX<X<XxXcXZXcXxX<X<XgXxXxXxXjXjXjXjXjXhXjXjXjXhXkXcXhXjXjXjXjXjXjXjXgXgXgXjXdXdXjXkXjXnXcXcXcXxXxXjXgXsXoXsXsXjXjX1X9X7X%X$X                                    ",
"                      GX%X=X+XvXNXVXlXjXkXkXjXgXjXjXgXgXjXjXkXkXkXjXgXsXsXdXjXjXjXgXgXgXgXjXjXkXjXgXgXjXjXsXsXsXgXgXgXgXjXgX<X<X<X<XgXgXxXxXxXxXcXcXcXcXNXNXcXcXcXcXcXcXcX8X9X X#X                                                                                                                                                                                                                                                                                                                                                                                                                                                                                                                                                                                                                                                                                                                                                                                                                                                                                                                                                                                                  $X}.XX1XxXxXlXcXCXCXcXxXcXcXcXxXxXgXxXxXcXZXcXxXlXlXxXcXxXxXjXjXjXhXcXcXjXjXjXhXcXcXhXjXgXjXjXjXjXgXgXgXgXjXdXdXsXjXkXxXxXxXxXxXjXgXgXgXsXoXgXjXjXxXxX8X9X=X&X                                  ",
"                    &X-X9XvXCXMXmXmXlXcXcXjXjXjXhXhXhXhXjXhXhXkXkXjXgXsXdXdXdXdXjXsXgXgXjXjXxXkXjXjXgXjXjXjXjXsXgXgXgXgXgXgXgXgXjXgXjXjXxXxXxXcXcXcXcXcXcXcXcXcXNXMXNXNXxX6X%X$X                                                                                                                                                                                                                                                                                                                                                                                                                                                                                                                                                                                                                                                                                                                                                                                                                                                                                                                                                                                                        }.XXmXVXMXcXMXMXMXcXcXcXxXxXxXxXxXxXxXcXxXxXxXxXxXxXxXxXjXjXjXhXcXhXjXjXkXkXkXkXjXgXgXjXjXjXjXjXgXgXgXgXsXsXjXhXzXzXjXkXkXsXsXsXjXjXxXxXjXcXbXvXkXjXnX9X7XaXJX                              ",
"                HX-X+XfXkXcXVXMXMXMXcXxXgXgXgXhXkXhXhXhXhXjXjXjXgXgXsXdXdXdXdXhXdXsXgXgXjXjXkXkXhXjXjXjXjXjXjXjXgXgXgXgXgXgXjXjXxXxXxXjXxXxXxXcXcXcXcXMXxXcXcXNXmXlXcXvXOX}.                                                                                                                                                                                                                                                                                                                                                                                                                                                                                                                                                                                                                                                                                                                                                                                                                                                                                                                                                                                                              }.XX8XxXxXlXmXMXxXxX5XxXjXxXxXlXxXlXxXxXxXcXxXxXxXcXZXcXhXjXjXjXjXjXcXbXcXkXhXjXgXgXjXjXjXjXjXgXgXgXgX1X1XjXhXhXzXhXjXjXsXsXsXjXjXlXlXcXbXbXkXjXkXcXZX8X9XiX%XGX                          ",
"            JX&X-X9X8XnXxXxXcXcXcXcXxXxXjXgXjXhXkXhXjXjXhXjXjXjXgXgXjXjXjXdXjXgXjXgXgXsXgXgXgXgXjXgXgXgXjXgXgXgXgXgXgXgXgXgXjXxXlXmXhXjXjXxXxXcXcXcXcXMXMXVXVXDXVXcX+X@X#X                                                                                                                                                                                                                                                                                                                                                                                                                                                                                                                                                                                                                                                                                                                                                                                                                                                                                                                                                                                                                  !.].9XxXVXDXMXMXwX<X<XjXkXkXzXzXwXCXcXcXcXcXcXcXbXbXxXxXjXkXkXjXjXkXbXcXcXjXjXgXgX<XgXgXjXjXjXgXgXgXjXjXjXjXjXjXjXjXjXjXjXgXgXjXkXxXbXbXbXcXkXkXcXcXcXvX8X7X=X%X&X                      ",
"          &X-X9XvXZXCXcXcXkXkXhXcXcXhXjXgXgXjXhXhXjXjXjXjXjXjXjXjXjXjXjXjXjXjXjXgXgXgXgXgXgXgXgXgXgXgXjXkXjXgXgXgXgXgXgXgXgXjXxXlXmXkXjXgXxXmXNXcXcXcXwXmXVXzXxXvX+X}.*X                                                                                                                                                                                                                                                                                                                                                                                                                                                                                                                                                                                                                                                                                                                                                                                                                                                                                                                                                                                                                      '.}.>XCXSXZXtXMX5XlXxXcXkXVXVXCXCXvXcXcXxXxXcXcXbXcXxXkXxXxXxXkXbXcXcXkXjXjXjXgXgXgXgXgXgXgXgXgXjXjXjXjXgXgXgXjXjXgXjXgXgXgXjXkXcXbXbXcXkXjXjXcXcXcXcXvX8X8X9XpX=X                    ",
"      HX-X-X+X8XbXNXNXcXcXcXcXcXcXcXhXjXgXgXjXhXhXjXjXjXjXjXjXjXjXjXjXjXjXjXjXjXgXgXgXgXgXgXgXgXgXgXgXkXkXjXjXjXgXgXgXgXgXgXjXxXlXxXhXhXjXxXmXNXzXcXcXlXmXMX8X+X X#X$X                                                                                                                                                                                                                                                                                                                                                                                                                                                                                                                                                                                                                                                                                                                                                                                                                                                                                                                                                                                                                            #X X9X9XvXMXlXlXxXjXxXVXNXCXCXcXcXxXxXgXxXxXcXcXxXxXxXxXxXcXbXbXcXkXjXjXjXgXgXgXgXgXgXgXjXjXkXjXjXgXgXgXgXjXjXgXgXgXgXgXjXkXkXnXnXxXkXgXgXxXcXcXcXjXvXvX8X9X+X-X&X                ",
"  HX&X-X+X+XjXkXcXcXcXcXcXxXcXkXhXhXjXjXjXjXjXjXhXjXjXjXjXjXjXjXjXhXjXhXhXjXjXjXgXgXgXgXgXgXgXgXgXgXgXjXkXjXjXjXjXgXgXgXgXgXjXxXlXxXkXhXjXxXmXNXcXcXcXcXcX8XOX%X).                                                                                                                                                                                                                                                                                                                                                                                                                                                                                                                                                                                                                                                                                                                                                                                                                                                                                                                                                                                                                                  $X%X=X9XxXlXlX3X<X<XlXmXcXxXlXcXxXxXgXxXxXcXcXcXxXxXcXxXcXbXbXcXkXjXjXgXgXgXgXgXjXjXkXkXxXcXjXjXjXgXgXgXjXjXjXjXjXjXgXgXjXjXjXkXkXkXjXgXjXcXcXcXhXcXvXvXvX8X8X+X=X&X            ",
"pX-X+X+XfXkXzXzXzXzXxXcXxXxXkXkXjXjXjXjXjXjXjXjXjXjXjXjXjXjXjXjXhXhXjXjXhXjXjXjXgXgXgXgXgXgXgXgXgXgXgXjXjXgXgXjXjXjXgXgXgXgXgXlXxXxXkXhXjXlXmXmXcXcXcXcXxX+X%X(.                                                                                                                                                                                                                                                                                                                                                                                                                                                                                                                                                                                                                                                                                                                                                                                                                                                                                                                                                                                                                                        &X@X6XNXmXmX5X5XMXMXcXxXlXcXcXcXcXvXbXbXcXcXcXbXbXbXbXbXcXxXjXjXgXgXgXgXgXjXjXkXxXcXcXcXjXjXgXgXgXgXjXjXjXjXkXjXgXgXjXjXjXjXkXkXgXgXjXcXzXzXzXhXhXjXkXkXxX8X9X=X%XHX        ",
"9X9XoXsXjXhXzXzXzXxXxXxXjXkXjXjXgXjXjXjXjXjXgXgXhXhXjXhXjXjXjXjXhXjXjXjXhXjXjXgXgXgXgXgXgXgXgXgXgXgXgXgXjXgXgXjXjXjXjXgXgXgXgXjXxXxXkXhXjXlXmXmXcXzXzXcX8XOX&X                                                                                                                                                                                                                                                                                                                                                                                                                                                                                                                                                                                                                                                                                                                                                                                                                                                                                                                                                                                                                                            &X7X5XBXMXwX8XMXNXcXcXxXcXcXcXbXZXZXZXcXcXbXbXbXcXkXkXjXjXgXgXgXjXjXjXgXgXjXkXxXxXkXkXjXgXgXgXgXgXjXjXjXjXjXjXjXjXkXkXnXnXnXjX<XoXgXxXzXzXkXzXhXhXhXcXMXMXvX8X+X-X*X      ",
"1XxXcXxXlXzXzXzXcXxXxXjXjXjXjXjXgXgXjXjXjXjXgXgXhXhXhXjXjXjXjXjXjXjXjXjXhXjXjXsXgXgXgXgXgXgXgXgXgXgXjXjXjXgXgXjXjXjXjXgXgXgXgXjX1XxXkXhXxXxXMXmXxXhXzXxX9X=X                                                                                                                                                                                                                                                                                                                                                                                                                                                                                                                                                                                                                                                                                                                                                                                                                                                                                                                                                                                                                                                aX>XAXMXwX5XMXNXcXcXlXlXMXMXcXMXZXZXbXcXcXbXcXjXgXgXgXgXgXgXgXjXjXjXgXjXjXjXxXjXjXjXjXgXgX<XgXjXjXkXkXkXjXjXjXjXkXkXnXnXnXjX<XoXgXjXhXzXDXzXkXDXDXcXvXxXkXnXnX+X+X*XGX  "
};
