/* XPM */
static char *f93393c1d21d4406deb3dc7d1070e38eS511FUfe5EyASvhI[] = {
/* columns rows colors chars-per-pixel */
"600 337 247 2 ",
"   c None",
".  c #0C0403",
"X  c #0D0B0C",
"o  c #090806",
"O  c #130503",
"+  c #130D0D",
"@  c #1A0D0B",
"#  c #190703",
"$  c #031D02",
"%  c #091608",
"&  c #13110E",
"*  c #18150D",
"=  c #0F0E12",
"-  c #110F11",
";  c #190E10",
":  c #151314",
">  c #191515",
",  c #1B1916",
"<  c #161519",
"1  c #191719",
"2  c #1C1B1C",
"3  c #151A15",
"4  c #0F1312",
"5  c #230B06",
"6  c #26140D",
"7  c #211D1D",
"8  c #2B1D1B",
"9  c #271814",
"0  c #341C18",
"q  c #2F120C",
"w  c #022402",
"e  c #012C01",
"r  c #0A270A",
"t  c #013301",
"y  c #063806",
"u  c #192618",
"i  c #193718",
"p  c #132B0B",
"a  c #23211E",
"s  c #28251C",
"d  c #37221C",
"f  c #2B3916",
"g  c #1E1D21",
"h  c #211E21",
"j  c #1F2420",
"k  c #242324",
"l  c #292525",
"z  c #2B2926",
"x  c #262429",
"c  c #292629",
"v  c #2D2A2B",
"b  c #252B25",
"n  c #312C2C",
"m  c #362825",
"M  c #283626",
"N  c #33322E",
"B  c #36372B",
"V  c #2E2C31",
"C  c #312E32",
"Z  c #343233",
"A  c #393534",
"S  c #3C3936",
"D  c #353339",
"F  c #3A363A",
"G  c #3C3A3C",
"H  c #373A35",
"J  c #45291D",
"K  c #462C27",
"L  c #423D3C",
"P  c #443834",
"I  c #573A33",
"U  c #4F332C",
"Y  c #643E33",
"T  c #064506",
"R  c #194617",
"E  c #14520E",
"W  c #254A1B",
"Q  c #245A1B",
"!  c #335614",
"~  c #23661D",
"^  c #38621A",
"/  c #284724",
"(  c #34472B",
")  c #2C5826",
"_  c #34572C",
"`  c #3B4634",
"'  c #3B5635",
"]  c #35682B",
"[  c #35772D",
"{  c #3A6834",
"}  c #3B7635",
"|  c #2B6D26",
" . c #1C6317",
".. c #4F6C1D",
"X. c #44423E",
"o. c #45493C",
"O. c #43573C",
"+. c #564B30",
"@. c #684539",
"#. c #764B3B",
"$. c #6E5834",
"%. c #44683A",
"&. c #43753C",
"*. c #59712A",
"=. c #65782B",
"-. c #78783A",
";. c #6F6C33",
":. c #425719",
">. c #3D3B41",
",. c #423E42",
"<. c #454343",
"1. c #4B4544",
"2. c #4B4948",
"3. c #554C49",
"4. c #4A5744",
"5. c #54564A",
"6. c #595654",
"7. c #534F51",
"8. c #684C45",
"9. c #764D42",
"0. c #6B534A",
"q. c #7C5344",
"w. c #78564A",
"e. c #6E5A56",
"r. c #4A6845",
"t. c #53674B",
"y. c #55774A",
"u. c #4E7149",
"i. c #706D4E",
"p. c #6A6564",
"a. c #726F6D",
"s. c #605F62",
"d. c #3F4040",
"f. c #86533D",
"g. c #854D3C",
"h. c #846C3D",
"j. c #835444",
"k. c #8B5A46",
"l. c #845B4C",
"z. c #8B5C4B",
"x. c #885646",
"c. c #945C4A",
"v. c #9A5D4C",
"b. c #935845",
"n. c #865E51",
"m. c #8A644B",
"M. c #93624D",
"N. c #9B634D",
"B. c #97684B",
"V. c #8A7A48",
"C. c #93774C",
"Z. c #8D6352",
"A. c #876456",
"S. c #936452",
"D. c #9D6552",
"F. c #9C6A55",
"G. c #9B6C5A",
"H. c #956958",
"J. c #9B7756",
"K. c #8A7654",
"L. c #A56A4D",
"P. c #A26654",
"I. c #A36B55",
"U. c #A96E54",
"Y. c #A46D59",
"T. c #AA6D5B",
"R. c #AB6557",
"E. c #B3695A",
"W. c #AC7254",
"Q. c #A4725B",
"!. c #AC735B",
"~. c #AD7A5D",
"^. c #A57959",
"/. c #B37555",
"(. c #B97755",
"). c #B47857",
"_. c #BB7A56",
"`. c #B3765A",
"'. c #B57A5C",
"]. c #BB7C5C",
"[. c #B8775A",
"{. c #B0714E",
"}. c #996B64",
"|. c #957369",
" X c #A56C62",
".X c #AD7562",
"XX c #AD7A64",
"oX c #AE7C6A",
"OX c #A57664",
"+X c #B27663",
"@X c #B47B63",
"#X c #BB7E61",
"$X c #B47D6A",
"%X c #B97D6A",
"&X c #B67769",
"*X c #AE7D72",
"=X c #C07E5C",
"-X c #C07B57",
";X c #C07F63",
":X c #3A8233",
">X c #5C8730",
",X c #6A8835",
"<X c #76883B",
"1X c #6E8F35",
"2X c #7B8747",
"3X c #7C9645",
"4X c #698D42",
"5X c #699A44",
"6X c #878749",
"7X c #938A4D",
"8X c #879949",
"9X c #94994C",
"0X c #8D8953",
"qX c #9C8454",
"wX c #988956",
"eX c #989857",
"rX c #8A9954",
"tX c #AB845C",
"yX c #A7895A",
"uX c #B4835C",
"iX c #BC815E",
"pX c #B38A5C",
"aX c #A5965B",
"sX c #A48B4E",
"dX c #88A44B",
"fX c #8CA653",
"gX c #96A456",
"hX c #95AC55",
"jX c #9B9162",
"kX c #AB8864",
"lX c #B48363",
"zX c #BD8263",
"xX c #B4816D",
"cX c #BA826D",
"vX c #B68A66",
"bX c #AA9663",
"nX c #BB8571",
"mX c #B88673",
"MX c #B4956B",
"NX c #A4A664",
"BX c #C2815E",
"VX c #C28364",
"CX c #C28669",
"ZX c #C5896A",
"AX c #C78A69",
"SX c #C28B77",
"DX c #81833D",
/* pixels */
"                                                                                                                                                                                                                                                                                                                                                                                                                                                                                                                                                                                                                                                                                                                                                                                                                                                                                                                                                                                                                                                                                                                                                                                                                                                ",
"                                                                                                                                                                                                                                                                                                                                                                                                                                                                                                                                                                                                                                                                                                                                                                                                                                                                                                                                                                                                                                                                                                                                                                                                                                                ",
"                                                                                                                                                                                                                                                                                                                                                                                                                                                                                                                                                                                                                                                                                                                                                                                                                                                                                                                                                                                                                                                                                                                                                                                                                                                ",
"                                                                                                                                                                                                                                                                                                                                                                                                                                                                                                                                                                                                                                                                                                                                                                                                                                                                                                                                                                                                                                                                                                                                                                                                                                                ",
"                                                                                                                                                                                                                                                                                                                                                                                                                                                                                                                                                                                                                                                                                                                                                                                                                                                                                                                                                                                                                                                                                                                                                                                                                                                ",
"                                                                                                                                                                                                                                                                                                                                                                                                                                                                                                                                                                                                                                                                                                                                                                                                                                                                                                                                                                                                                                                                                                                                                                                                                                                ",
"                                                                                                                                                                                                                                                                                                                                                                                                                                                                                                                                                                                                                                                                                                                                                                                                                                                                                                                                                                                                                                                                                                                                                                                                                                                ",
"                                                                                                                                                                                                                                                                                                                                                                                                                                                                                                                                                                                                                                                                                                                                                                                                                                                                                                                                                                                                                                                                                                                                                                                                                                                ",
"                                                                                                                                                                                                                                                                                                                                                                                                                                                                                                                                                                                                                                                                                                                                                                                                                                                                                                                                                                                                                                                                                                                                                                                                                                                ",
"                                                                                                                                                                                                                                                                                                                                                                                                                                                                                                                                                                                                                                                                                                                                                                                                                                                                                                                                                                                                                                                                                                                                                                                                                                                ",
"                                                                                                                                                                                                                                                                                                                                                                                                                                                                                                                                                                                                                                                                                                                                                                                                                                                                                                                                                                                                                                                                                                                                                                                                                                                ",
"                                                                                                                                                                                                                                                                                                                                                                                                                                                                                                                                                                                                                                                                                                                                                                                                                                                                                                                                                                                                                                                                                                                                                                                                                                                ",
"                                                                                                                                                                                                                                                                                                                                                                                                                                                                                                                                                                                                                                                                                                                                                                                                                                                                                                                                                                                                                                                                                                                                                                                                                                                ",
"                                                                                                                                                                                                                                                                                                                                                                                                                                                                                                                                                                                                                                                                                                                                                                                                                                                                                                                                                                                                                                                                                                                                                                                                                                                ",
"                                                                                                                                                                                                                                                                                                                                                                                                                                                                                                                                                                                                                                                                                                                                                                                                                                                                                                                                                                                                                                                                                                                                                                                                                                                ",
"                                                                                                                                                                                                                                                                                                                                                                                                                                                                                                                                                                                                                                                                                                                                                                                                                                                                                                                                                                                                                                                                                                                                                                                                                                                ",
"                                                                                                                                                                                                                                                                                                                                                                                                                                                                                                                                                                                                                                                                                                                                                                                                                                                                                                                                                                                                                                                                                                                                                                                                                                                ",
"                                                                                                                                                                                                                                                                                                                                                                                                                                                                                                                                                                                                                                                                                                                                                                                                                                                                                                                                                                                                                                                                                                                                                                                                                                                ",
"                                                                                                                                                                                                                                                                                                                                                                                                                                                                                                                                                                                                                                                                                                                                                                                                                                                                                                                                                                                                                                                                                                                                                                                                                                                ",
"                                                                                                                                                                                                                                                                                                                                                                                                                                                                                                                                                                                                                                                                                                                                                                                                                                                                                                                                                                                                                                                                                                                                                                                                                                                ",
"                                                                                                                                                                                                                                                                                                                                                                                                                                                                                                                                                                                                                                                                                                                                                                                                                                                                                                                                                                                                                                                                                                                                                                                                                                                ",
"                                                                                                                                                                                                                                                                                                                                                                                                                                                                                                                                                                                                                                                                                                                                                                                                                                                                                                                                                                                                                                                                                                                                                                                                                                                ",
"                                                                                                                                                                                                                                                                                                                                                                                                                                                                                                                                                                                                                                                                                                                                                                                                                                                                                                                                                                                                                                                                                                                                                                                                                                                ",
"                                                                                                                                                                                                                                                                                                                                                                                                                                                                                                                                                                                                                                                                                                                                                                                                                                                                                                                                                                                                                                                                                                                                                                                                                                                ",
"                                                                                                                                                                                                                                                                                                                                                                                                                                                                                                                                                                                                                                                                                                                                                                                                                                                                                                                                                                                                                                                                                                                                                                                                                                                ",
"                                                                                                                                                                                                                                                                                                                                                                                                                                                                                                                                                                                                                                                                                                                                                                                                                                                                                                                                                                                                                                                                                                                                                                                                                                                ",
"                                                                                                                                                                                                                                                                                                                                                                                                                                                                                                                                                                                                                                                                                                                                                                                                                                                                                                                                                                                                                                                                                                                                                                                                                                                ",
"                                                                                                                                                                                                                                                                                                                                                                                                                                                                                                                                                                                                                                                                                                                                                                                                                                                                                                                                                                                                                                                                                                                                                                                                                                                ",
"                                                                                                                                                                                                                                                                                                                                                                                                                                                                                                                                                                                                                                                                                                                                                                                                                                                                                                                                                                                                                                                                                                                                                                                                                                                ",
"                                                                                                                                                                                                                                                                                                                                                                                                                                                                                                                                                                                                                                                                                                                                                                                                                                                                                                                                                                                                                                                                                                                                                                                                                                                ",
"                                                                                                                                                                                                                                                                                                                                                                                                                                                                                                                                                                                                                                                                                                                                                                                                                                                                                                                                                                                                                                                                                                                                                                                                                                                ",
"                                                                                                                                                                                                                                                                                                                                                                                                                                                                                                                                                                                                                                                                                                                                                                                                                                                                                                                                                                                                                                                                                                                                                                                                                                                ",
"                                                                                                                                                                                                                                                                                                                                                                                                                                                                                                                                                                                                                                                                                                                                                                                                                                                                                                                                                                                                                                                                                                                                                                                                                                                ",
"                                                                                                                                                                                                                                                                                                                                                                                                                                                                                                                                                                                                                                                                                                                                                                                                                                                                                                                                                                                                                                                                                                                                                                                                                                                ",
"                                                                                                                                                                                                                                                                                                                                                                                                                                                                                                                                                                                                                                                                                                                                                                                                                                                                                                                                                                                                                                                                                                                                                                                                                                                ",
"                                                                                                                                                                                                                                                                                                                                                                                                                                                                                                                                                                                                                                                                                                                                                                                                                                                                                                                                                                                                                                                                                                                                                                                                                                                ",
"                                                                                                                                                                                                                                                                                                                                                                                                                                                                                                                                                                                                                                                                                                                                                                                                                                                                                                                                                                                                                                                                                                                                                                                                                                                ",
"                                                                                                                                                                                                                                                                                                                                                                                                                                                                                                                                                                                                                                                                                                                                                                                                                                                                                                                                                                                                                                                                                                                                                                                                                                                ",
"                                                                                                                                                                                                                                                                                                                                                                                                                                                                                                                                                                                                                                                                                                                                                                                                                                                                                                                                                                                                                                                                                                                                                                                                                                                ",
"                                                                                                                                                                                                                                                                                                                                                                                                                                                                                                                                                                                                                                                                                                                                                                                                                                                                                                                                                                                                                                                                                                                                                                                                                                                ",
"                                                                                                                                                                                                                                                                                                                                                                                                                                                                                                                                                                                                                                                                                                                                                                                                                                                                                                                                                                                                                                                                                                                                                                                                                                                ",
"                                                                                                                                                                                                                                                                                                                                                                                                                                                                                                                                                                                                                                                                                                                                                                                                                                                                                                                                                                                                                                                                                                                                                                                                                                                ",
"                                                                                                                                                                                                                                                                                                                                                                                                                                                                                                                                                                                                                                                                                                                                                                                                                                                                                                                                                                                                                                                                                                                                                                                                                                                ",
"                                                                                                                                                                                                                                                                                                                                                                                                                                                                                                                                                                                                                                                                                                                                                                                                                                                                                                                                                                                                                                                                                                                                                                                                                                                ",
"                                                                                                                                                                                                                                                                                                                                                                                                                                                                                                                                                                                                                                                                                                                                                                                                                                                                                                                                                                                                                                                                                                                                                                                                                                                ",
"                                                                                                                                                                                                                                                                                                                                                                                                                                                                                                                                                                                                                                                                                                                                                                                                                                                                                                                                                                                                                                                                                                                                                                                                                                                ",
"                                                                                                                                                                                                                                                                                                                                                                                                                                                                                                                                                                                                                                                                                                                                                                                                                                                                                                                                                                                                                                                                                                                                                                                                                                                ",
"                                                                                                                                                                                                                                                                                                                                                                                                                                                                                                                                                                                                                                                                                                                                                                                                                                                                                                                                                                                                                                                                                                                                                                                                                                                ",
"                                                                                                                                                                                                                                                                                                                                                                                                                                                                                                                                                                                                                                                                                                                                                                                                                                                                                                                                                                                                                                                                                                                                                                                                                                                ",
"                                                                                                                                                                                                                                                                                                                                                                                                                                                                                                                                                                                                                                                                                                                                                                                                                                                                                                                                                                                                                                                                                                                                                                                                                                                ",
"                                                                                                                                                                                                                                                                                                                                                                                                                                                                                                                                                                                                                                                                                                                                                                                                                                                                                                                                                                                                                                                                                                                                                                                                                                                ",
"                                                                                                                                                                                                                                                                                                                                                                                                                                                                                                                                                                                                                                                                                                                                                                                                                                                                                                                                                                                                                                                                                                                                                                                                                                                ",
"                                                                                                                                                                                                                                                                                                                                                                                                                                                                                                                                                                                                                                                                                                                                                                                                                                                                                                                                                                                                                                                                                                                                                                                                                                                ",
"                                                                                                                                                                                                                                                                                                                                                                                                                                                                                                                                                                                                                                                                                                                                                                                                                                                                                                                                                                                                                                                                                                                                                                                                                                                ",
"                                                                                                                                                                                                                                                                                                                                                                                                                                                                                                                                                                                                                                                                                                                                                                                                                                                                                                                                                                                                                                                                                                                                                                                                                                                ",
"                                                                                                                                                                                                                                                                                                                                                                                                                                                                                                                                                                                                                                                                                                                                                                                                                                                                                                                                                                                                                                                                                                                                                                                                                                                ",
"                                                                                                                                                                                                                                                                                                                                                                                                                                                                                                                                                                                                                                                                                                                                                                                                                                                                                                                                                                                                                                                                                                                                                                                                                                                ",
"                                                                                                                                                                                                                                                                                                                                                                                                                                                                                                                                                                                                                                                                                                                                                                                                                                                                                                                                                                                                                                                                                                                                                                                                                                                ",
"                                                                                                                                                                                                                                                                                                                                                                                                                                                                                                                                                                                                                                                                                                                                                                                                                                                                                                                                                                                                                                                                                                                                                                                                                                                ",
"                                                                                                                                                                                                                                                                                                                                                                                                                                                                                                                                                                                                                                                                                                                                                                                                                                                                                                                                                                                                                                                                                                                                                                                                                                                ",
"                                                                                                                                                                                                                                                                                                                                                                                                                                                                                                                                                                                                                                                                                                                                                                                                                                                                                                                                                                                                                                                                                                                                                                                                                                                ",
"                                                                                                                                                                                                                                                                                                                                                                                                                                                                                                                                                                                                                                                                                                                                                                                                                                                                                                                                                                                                                                                                                                                                                                                                                                                ",
"                                                                                                                                                                                                                                                                                                                                                                                                                                                                                                                                                                                                                                                                                                                                                                                                                                                                                                                                                                                                                                                                                                                                                                                                                                                ",
"                                                                                                                                                                                                                                                                                                                                                                                                                                                                                                                                                                                                                                                                                                                                                                                                                                                                                                                                                                                                                                                                                                                                                                                                                                                ",
"                                                                                                                                                                                                                                                                                                                                                                                                                                                                                                                                                                                                                                                                                                                                                                                                                                                                                                                                                                                                                                                                                                                                                                                                                                                ",
"                                                                                                                                                                                                                                                                                                                                                                                                                                                                                                                                                                                                                                                                                                                                                                                                                                                                                                                                                                                                                                                                                                                                                                                                                                                ",
"                                                                                                                                                                                                                                                                                                                                                                                                                                                                                                                                                                                                                                                                                                                                                                                                                                                                                                                                                                                                                                                                                                                                                                                                                                                ",
"                                                                                                                                                                                                                                                                                                                                                                                                                                                                                                                                                                                                                                                                                                                                                                                                                                                                                                                                                                                                                                                                                                                                                                                                                                                ",
"                                                                                                                                                                                                                                                                                                                                                                                                                                                                                                                                                                                                                                                                                                                                                                                                                                                                                                                                                                                                                                                                                                                                                                                                                                                ",
"                                                                                                                                                                                                                                                                                                                                                                                                                                                                                                                                                                                                                                                                                                                                                                                                                                                                                                                                                                                                                                                                                                                                                                                                                                                ",
"                                                                                                                                                                                                                                                                                                                                                                                                                                                                                                                                                                                                                                                                                                                                                                                                                                                                                                                                                                                                                                                                                                                                                                                                                                                ",
"                                                                                                                                                                                                                                                                                                                                                                                                                                                                                                                                                                                                                                                                                                                                                                                                                                                                                                                                                                                                                                                                                                                                                                                                                                                ",
"                                                                                                                                                                                                                                                                                                                                                                                                                                                                                                                                                                                                                                                                                                                                                                                                                                                                                                                                                                                                                                                                                                                                                                                                                                                ",
"                                                                                                                                                                                                                                                                                                                                                                                                                                                                                                                                                                                                                                                                                                                                                                                                                                                                                                                                                                                                                                                                                                                                                                                                                                                ",
"                                                                                                                                                                                                                                                                                                                                                                                                                                                                                                                                                                                                                                                                                                                                                                                                                                                                                                                                                                                                                                                                                                                                                                                                                                                ",
"                                                                                                                                                                                                                                                                                                                                                                                                                                                                                                                                                                                                                                                                                                                                                                                                                                                                                                                                                                                                                                                                                                                                                                                                                                                ",
"                                                                                                                                                                                                                                                                                                                                                                                                                                                                                                                                                                                                                                                                                                                                                                                                                                                                                                                                                                                                                                                                                                                                                                                                                                                ",
"                                                                                                                                                                                                                                                                                                                                                                                                                                                                                                                                                                                                                                                                                                                                                                                                                                                                                                                                                                                                                                                                                                                                                                                                                                                ",
"                                                                                                                                                                                                                                                                                                                                                                                                                                                                                                                                                                                                                                                                                                                                                                                                                                                                                                                                                                                                                                                                                                                                                                                                                                                ",
"                                                                                                                                                                                                                                                                                                                                                                                                                                                                                                                                                                                                                                                                                                                                                                                                                                                                                                                                                                                                                                                                                                                                                                                                                                                ",
"                                                                                                                                                                                                                                                                                                                                                                                                                                                                                                                                                                                                                                                                                                                                                                                                                                                                                                                                                                                                                                                                                                                                                                                                                                                ",
"                                                                                                                                                                                                                                                                                                                                                                                                                                                                                                                                                                                                                                                                                                                                                                                                                                                                                                                                                                                                                                                                                                                                                                                                                                                ",
"                                                                                                                                                                                                                                                                                                                                                                                                                                                                                                                                                                                                                                                                                                                                                                                                                                                                                                                                                                                                                                                                                                                                                                                                                                                ",
"                                                                                                                                                                                                                                                                                                                                                                                                                                                                                                                                                                                                                                                                                                                                                                                                                                                                                                                                                                                                                                                                                                                                                                                                                                                ",
"                                                                                                                                                                                                                                                                                                                                                                                                                                                                                                                                                                                                                                                                                                                                                                                                                                                                                                                                                                                                                                                                                                                                                                                                                                                ",
"                                                                                                                                                                                                                                                                                                                                                                                                                                                                                                                                                                                                                                                                                                                                                                                                                                                                                                                                                                                                                                                                                                                                                                                                                                                ",
"                                                                                                                                                                                                                                                                                                                                                                                                                                                                                                                                                                                                                                                                                                                                                                                                                                                                                                                                                                                                                                                                                                                                                                                                                                                ",
"                                                                                                                                                                                                                                                                                                                                                                                                                                                                                                                                                                                                                                                                                                                                                                                                                                                                                                                                                                                                                                                                                                                                                                                                                                                ",
"                                                                                                                                                                                                                                                                                                                                                                                                                                                                                                                                                                                                                                                                                                                                                                                                                                                                                                                                                                                                                                                                                                                                                                                                                                                ",
"                                                                                                                                                                                                                                                                                                                                                                                                                                                                                                                                                                                                                                                                                                                                                                                                                                                                                                                                                                                                                                                                                                                                                                                                                                                ",
"                                                                                                                                                                                                                                                                                                                                                                                                                                                                                                                                                                                                                                                                                                                                                                                                                                                                                                                                                                                                                                                                                                                                                                                                                                                ",
"                                                                                                                                                                                                                                                                                                                                                                                                                                                                                                                                                                                                                                                                                                                                                                                                                                                                                                                                                                                                                                                                                                                                                                                                                                                ",
"                                                                                                                                                                                                                                                                                                                                                                                                                                                                                                                                                                                                                                                                                                                                                                                                                                                                                                                                                                                                                                                                                                                                                                                                                                                ",
"                                                                                                                                                                                                                                                                                                                                                                                                                                                                                                                                                                                                                                                                                                                                                                                                                                                                                                                                                                                                                                                                                                                                                                                                                                                ",
"                                                                                                                                                                                                                                                                                                                                                                                                                                                                                                                                                                                                                                                                                                                                                                                                                                                                                                                                                                                                                                                                                                                                                                                                                                                ",
"                                                                                                                                                                                                                                                                                                                                                                                                                                                                                                                                                                                                                                                                                                                                                                                                                                                                                                                                                                                                                                                                                                                                                                                                                                                ",
"                                                                                                                                                                                                                                                                                                                                                                                                                                                                                                                                                                                                                                                                                                                                                                                                                                                                                                                                                                                                                                                                                                                                                                                                                                                ",
"                                                                                                                                                                                                                                                                                                                                                                                                                                                                                                                                                                                                                                                                                                                                                                                                                                                                                                                                                                                                                                                                                                                                                                                                                                                ",
"                                                                                                                                                                                                                                                                                                                                                                                                                                                                                                                                                                                                                                                                                                                                                                                                                                                                                                                                                                                                                                                                                                                                                                                                                                                ",
"                                                                                                                                                                                                                                                                                                                                                                                                                                                                                                                                                                                                                                                                                                                                                                                                                                                                                                                                                                                                                                                                                                                                                                                                                                                ",
"                                                                                                                                                                                                                                                                                                                                                                                                                                                                                                                                                                                                                                                                                                                                                                                                                                                                                                                                                                                                                                                                                                                                                                                                                                                ",
"                                                                                                                                                                                                                                                                                                                                                                                                                                                                                                                                                                                                                                                                                                                                                                                                                                                                                                                                                                                                                                                                                                                                                                                                                                                ",
"                                                                                                                                                                                                                                                                                                                                                                                                                                                                                                                                                                                                                                                                                                                                                                                                                                                                                                                                                                                                                                                                                                                                                                                                                                                ",
"                                                                                                                                                                                                                                                                                                                                                                                                                                                                                                                                                                                                                                                                                                                                                                                                                                                                                                                                                                                                                                                                                                                                                                                                                                                ",
"                                                                                                                                                                                                                                                                                                                                                                                                                                                                                                                                                                                                                                                                                                                                                                                                                                                                                                                                                                                                                                                                                                                                                                                                                                                ",
"                                                                                                                                                                                                                                                                                                                                                                                                                                                                                                                                                                                                                                                                                                                                                                                                                                                                                                                                                                                                                                                                                                                                                                                                                                                ",
"                                                                                                                                                                                                                                                                                                                                                                                                                                                                                                                                                                                                                                                                                                                                                                                                                                                                                                                                                                                                                                                                                                                                                                                                                                                ",
"                                                                                                                                                                                                                                                                                                                                                                                                                                                                                                                                                                                                                                                                                                                                                                                                                                                                                                                                                                                                                                                                                                                                                                                                                                                ",
"                                                                                                                                                                                                                                                                                                                                                                                                                                                                                                                                                                                                                                                                                                                                                                                                                                                                                                                                                                                                                                                                                                                                                                                                                                                ",
"                                                                                                                                                                                                                                                                                                                                                                                                                                                                                                                                                                                                                                                                                                                                                                                                                                                                                                                                                                                                                                                                                                                                                                                                                                                ",
"                                                                                                                                                                                                                                                                                                                                                                                                                                                                                                                                                                                                                                                                                                                                                                                                                                                                                                                                                                                                                                                                                                                                                                                                                                                ",
"                                                                                                                                                                                                                                                                                                                                                                                                                                                                                                                                                                                                                                                                                                                                                                                                                                                                                                                                                                                                                                                                                                                                                                                                                                                ",
"                                                                                                                                                                                                                                                                                                                                                                                                                                                                                                                                                                                                                                                                                                                                                                                                                                                                                                                                                                                                                                                                                                                                                                                                                                                ",
"                                                                                                                                                                                                                                                                                                                                                                                                                                                                                                                                                                                                                                                                                                                                                                                                                                                                                                                                                                                                                                                                                                                                                                                                                                                ",
"                                                                                                                                                                                                                                                                                                                                                                                                                                                                                                                                                                                                                                                                                                                                                                                                                                                                                                                                                                                                                                                                                                                                                                                                                                                ",
"                                                                                                                                                                                                                                                                                                                                                                                                                                                                                                                                                                                                                                                                                                                                                                                                                                                                                                                                                                                                                                                                                                                                                                                                                                                ",
"                                                                                                                                                                                                                                                                                                                                                                                                                                                                                                                                                                                                                                                                                                                                                                                                                                                                                                                                                                                                                                                                                                                                                                                                                                                ",
"                                                                                                                                                                                                                                                                                                                                                                                                                                                                                                                                                                                                                                                                                                                                                                                                                                                                                                                                                                                                                                                                                                                                                                                                                                                ",
"                                                                                                                                                                                                                                                                                                                                                                                                                                                                                                                                                                                                                                                                                                                                                                                                                                                                                                                                                                                                                                                                                                                                                                                                                                                ",
"                                                                                                                                                                                                                                                                                                                                                                                                                                                                                                                                                                                                                                                                                                                                                                                                                                                                                                                                                                                                                                                                                                                                                                                                                                                ",
"                                                                                                                                                                                                                                                                                                                                                                                                                                                                                                                                                                                                                                                                                                                                                                                                                                                                                                                                                                                                                                                                                                                                                                                                                                                ",
"                                                                                                                                                                                                                                                                                                                                                                                                                                                                                                                                                                                                                                                                                                                                                                                                                                                                                                                                                                                                                                                                                                                                                                                                                                                ",
"                                                                                                                                                                                                                                                                                                                                                                                                                                                                                                                                                                                                                                                                                                                                                                                                                                                                                                                                                                                                                                                                                                                                                                                                                                                ",
"                                                                                                                                                                                                                                                                                                                                                                                                                                                                                                                                                                                                                                                                                                                                                                                                                                                                                                                                                                                                                                                                                                                                                                                                                                                ",
"                                                                                                                                                                                                                                                                                                                                                                                                                                                                                                                                                                                                                                                                                                                                                                                                                                                                                                                                                                                                                                                                                                                                                                                                                                                ",
"                                                                                                                                                                                                                                                                                                                                                                                                                                                                                                                                                                                                                                                                                                                                                                                                                                                                                                                                                                                                                                                                                                                                                                                                                                                ",
"                                                                                                                                                                                                                                                                                                                                                                                                                                                                                                                                                                                                                                                                                                                                                                                                                                                                                                                                                                                                                                                                                                                                                                                                                                                ",
"                                                                                                                                                                                                                                                                                                                                                                                                                                                                                                                                                                                                                                                                                                                                                                                                                                                                                                                                                                                                                                                                                                                                                                                                                                                ",
"                                                                                                                                                                                                                                                                                                                                                                                                                                                                                                                                                                                                                                                                                                                                                                                                                                                                                                                                                                                                                                                                                                                                                                                                                                                ",
"                                                                                                                                                                                                                                                                                                                                                                                                                                                                                                                                                                                                                                                                                                                                                                                                                                                                                                                                                                                                                                                                                                                                                                                                                                                ",
"                                                                                                                                                                                                                                                                                                                                                                                                                                                                                                                                                                                                                                                                                                                                                                                                                                                                                                                                                                                                                                                                                                                                                                                                                                                ",
"                                                                                                                                                                                                                                                                                                                                                                                                                                                                                                                                                                                                                                                                                                                                                                                                                                                                                                                                                                                                                                                                                                                                                                                                                                                ",
"                                                                                                                                                                                                                                                                                                                                                                                                                                                                                                                                                                                                                                                                                                                                                                                                                                                                                                                                                                                                                                                                                                                                                                                                                                                ",
"                                                                                                                                                                                                                                                                                                                                                                                                                                                                                                                                                                                                                                                                                                                                                                                                                                                                                                                                                                                                                                                                                                                                                                                                                                                ",
"                                                                                                                                                                                                                                                                                                                                                                                                                                                                                                                                                                                                                                                                                                                                                                                                                                                                                                                                                                                                                                                                                                                                                                                                                                                ",
"                                                                                                                                                                                                                                                                                                                                                                                                                                                                                                                                                                                                                                                                                                                                                                                                                                                                                                                                                                                                                                                                                                                                                                                                                                                ",
"                                                                                                                                                                                                                                                                                                                                                                                                                                                                                                                                                                                                                                                                                                                                                                                                                                                                                                                                                                                                                                                                                                                                                                                                                                                ",
"                                                                                                                                                                                                                                                                                                                                                                                                                                                                                                                                                                                                                                                                                                                                                                                                                                                                                                                                                                                                                                                                                                                                                                                                                                                ",
"                                                                                                                                                                                                                                                                                                                                                                                                                                                                                                                                                                                                                                                                                                                                                                                                                                                                                                                                                                                                                                                                                                                                                                                                                                                ",
"                                                                                                                                                                                                                                                                                                                                                                                                                                                                                                                                                                                                                                                                                                                                                                                                                                                                                                                                                                                                                                                                                                                                                                                                                                                ",
"                                                                                                                                                                                                                                                                                                                                                                                                                                                                                                                                                                                                                                                                                                                                                                                                                                                                                                                                                                                                                                                                                                                                                                                                                                                ",
"                                                                                                                                                                                                                                                                                                                                                                                                                                                                                                                                                                                                                                                                                                                                                                                                                                                                                                                                                                                                                                                                                                                                                                                                                                                ",
"                                                                                                                                                                                                                                                                                                                                                                                                                                                                                                                                                                                                                                                                                                                                                                                                                                                                                                                                                                                                                                                                                                                                                                                                                                                ",
"                                                                                                                                                                                                                                                                                                                                                                                                                                                                                                                                                                                                                                                                                                                                                                                                                                                                                                                                                                                                                                                                                                                                                                                                                                                ",
"                                                                                                                                                                                                                                                                                                                                                                                                                                                                                                                                                                                                                                                                                                                                                                                                                                                                                                                                                                                                                                                                                                                                                                                                                                                ",
"                                                                                                                                                                                                                                                                                                                                                                                                                                                                                                                                                                                                                                                                                                                                                                                                                                                                                                                                                                                                                                                                                                                                                                                                                                                ",
"                                                                                                                                                                                                                                                                                                                                                                                                                                                                                                                                                                                                                                                                                                                                                                                                                                                                                                                                                                                                                                                                                                                                                                                                                                                ",
"                                                                                                                                                                                                                                                                                                                                                                                                                                                                                                                                                                                                                                                                                                                                                                                                                                                                                                                                                                                                                                                                                                                                                                                                                                                ",
"                                                                                                                                                                                                                                                                                                                                                                                                                                                                                                                                                                                                                                                                                                                                                                                                                                                                                                                                                                                                                                                                                                                                                                                                                                                ",
"                                                                                                                                                                                                                                                                                                                                                                                                                                                                                                                                                                                                                                                                                                                                                                                                                                                                                                                                                                                                                                                                                                                                                                                                                                                ",
"                                                                                                                                                                                                                                                                                                                                                                                                                                                                                                                                                                                                                                                                                                                                                                                                                                                                                                                                                                                                                                                                                                                                                                                                                                                ",
"                                                                                                                                                                                                                                                                                                                                                                                                                                                                                                                                                                                                                                                                                                                                                                                                                                                                                                                                                                                                                                                                                                                                                                                                                                                ",
"                                                                                                                                                                                                                                                                                                                                                                                                                                                                                                                                                                                                                                                                                                                                                                                                                                                                                                                                                                                                                                                                                                                                                                                                                                                ",
"                                                                                                                                                                                                                                                                                                                                                                                                                                                                                                                                                                                                                                                                                                                                                                                                                                                                                                                                                                                                                                                                                                                                                                                                                                                ",
"                                                                                                                                                                                                                                                                                                                                                                                                                                                                                                                                                                                                                                                                                                                                                                                                                                                                                                                                                                                                                                                                                                                                                                                                                                                ",
"                                                                                                                                                                                                                                                                                                                                                                                                                                                                                                                                                                                                                                                                                                                                                                                                                                                                                                                                                                                                                                                                                                                                                                                                                                                ",
"                                                                                                                                                                                                                                                                                                                                                                                                                                                                                                                                                                                                                                                                                                                                                                                                                                                                                                                                                                                                                                                                                                                                                                                                                                                ",
"                                                                                                                                                                                                                                                                                                                                                                                                                                                                                                                                                                                                                                                                                                                                                                                                                                                                                                                                                                                                                                                                                                                                                                                                                                                ",
"                                                                                                                                                                                                                                                                                                                                                                                                                                                                                                                                                                                                                                                                                                                                                                                                                                                                                                                                                                                                                                                                                                                                                                                                                                                ",
"                                                                                                                                                                                                                                                                                                                                                                                                                                                                                                                                                                                                                                                                                                                                                                                                                                                                                                                                                                                                                                                                                                                                                                                                                                                ",
"                                                                                                                                                                                                                                                                                                                                                                                                                                                                                                                                                                                                                                                                                                                                                                                                                                                                                                                                                                                                                                                                                                                                                                                                                                                ",
"                                                                                                                                                                                                                                                                                                                                                                                                                                                                                                                                                                                                                                                                                                                                                                                                                                                                                                                                                                                                                                                                                                                                                                                                                                                ",
"                                                                                                                                                                                                                                                                                                                                                                                                                                                                                                                                                                                                                                                                                                                                                                                                                                                                                                                                                                                                                                                                                                                                                                                                                                                ",
"                                                                                                                                                                                                                                                                                                                                                                                                                                                                                                                                                                                                                                                                                                                                                                                                                                                                                                                                                                                                                                                                                                                                                                                                                                                ",
"                                                                                                                                                                                                                                                                                                                                                                                                                                                                                                                                                                                                                                                                                                                                                                                                                                                                                                                                                                                                                                                                                                                                                                                                                                                ",
"                                                                                                                                                                                                                                                                                                                                                                                                                                                                                                                                                                                                                                                                                                                                                                                                                                                                                                                                                                                                                                                                                                                                                                                                                                                ",
"                                                                                                                                                                                                                                                                                                                                                                                                                                                                                                                                                                                                                                                                                                                                                                                                                                                                                                                                                                                                                                                                                                                                                                                                                                                ",
"                                                                                                                                                                                                                                                                                                                                                                                                                                                                                                                                                                                                                                                                                                                                                                                                                                                                                                                                                                                                                                                                                                                                                                                                                                                ",
"                                                                                                                                                                                                                                                                                                                                                                                                                                                                                                                                                                                                                                                                                                                                                                                                                                                                                                                                                                                                                                                                                                                                                                                                                                                ",
"                                                                                                                                                                                                                                                                                                                                                                                                                                                                                                                                                                                                                                                                                                                                                                                                                                                                                                                                                                                                                                                                                                                                                                                                                                                ",
"                                                                                                                                                                                                                                                                                                                                                                                                                                                                                                                                                                                                                                                                                                                                                                                                                                                                                                                                                                                                                                                                                                                                                                                                                                                ",
"                                                                                                                                                                                                                                                                                                                                                                                                                                                                                                                                                                                                                                                                                                                                                                                                                                                                                                                                                                                                                                                                                                                                                                                                                                                ",
"                                                                                                                                                                                                                                                                                                                                                                                                                                                                                                                                                                                                                                                                                                                                                                                                                                                                                                                                                                                                                                                                                                                                                                                                                                                ",
"                                                                                                                                                                                                                                                                                                                                                                                                                                                                                                                                                                                                                                                                                                                                                                                                                                                                                                                                                                                                                                                                                                                                                                                                                                                ",
"                                                                                                                                                                                                                                                                                                                                                                                                                                                                                                                                                                                                                                                                                                                                                                                                                                                                                                                                                                                                                                                                                                                                                                                                                                                ",
"                                                                                                                                                                                                                                                                                                                                                                                                                                                                                                                                                                                                                                                                                                                                                                                                                                                                                                                                                                                                                                                                                                                                                                                                                                                ",
"                                                                                                                                                                                                                                                                                                                                                                                                                                                                                                                                                                                                                                                                                                                                                                                                                                                                                                                                                                                                                                                                                                                                                                                                                                                ",
"                                                                                                                                                                                                                                                                                                                                                                                                                                                                                                                                                                                                                                                                                                                                                                                                                                                                                                                                                                                                                                                                                                                                                                                                                                                ",
"                                                                                                                                                                                                                                                                                                                                                                                                                                                                                                                                                                                                                                                                                                                                                                                                                                                                                                                                                                                                                                                                                                                                                                                                                                                ",
"                                                                                                                                                                                                                                                                                                                                                                                                                                                                                                                                                                                                                                                                                                                                                                                                                                                                                                                                                                                                                                                                                                                                                                                                                                                ",
"                                                                                                                                                                                                                                                                                                                                                                                                                                                                                                                                                                                                                                                                                                                                                                                                                                                                                                                                                                                                                                                                                                                                                                                                                                                ",
"                                                                                                                                                                                                                                                                                                                                                                                                                                                                                                                                                                                                                                                                                                                                                                                                                                                                                                                                                                                                                                                                                                                                                                                                                                                ",
"                                                                                                                                                                                                                                                                                                                                                                                                                                                                                                                                                                                                                                                                                                                                                                                                                                                                                                                                                                                                                                                                                                                                                                                                                                                ",
"                                                                                                                                                                                                                                                                                                                                                                                                                                                                                                                                                                                                                                                                                                                                                                                                                                                                                                                                                                                                                                                                                                                                                                                                                                                ",
"                                                                                                                                                                                                                                                                                                                                                                                                                                                                                                                                                                                                                                                                                                                                                                                                                                                                                                                                                                                                                                                                                                                                                                                                                                                ",
"                                                                                                                                                                                                                                                                                                                                                                                                                                                                                                                                                                                                                                                                                                                                                                                                                                                                                                                                                                                                                                                                                                                                                                                                                                                ",
"                                                                                                                                                                                                                                                                                                                                                                                                                                                                                                                                                                                                                                                                                                                                                                                                                                                                                                                                                                                                                                                                                                                                                                                                                                                ",
"                                                                                                                                                                                                                                                                                                                                                                                                                                                                                                                                                                                                                                                                                                                                                                                                                                                                                                                                                                                                                                                                                                                                                                                                                                                ",
"                                                                                                                                                                                                                                                                                                                                                                                                                                                                                                                                                                                                                                                                                                                                                                                                                                                                                                                                                                                                                                                                                                                                                                                                                                                ",
"                                                                                                                                                                                                                                                                                                                                                                                                                                                                                                                                                                                                                                                                                                                                                                                                                                                                                                                                                                                                                                                                                                                                                                                                                                                ",
"                                                                                                                                                                                                                                                                                                                                                                                                                                                                                                                                                                                                                                                                                                                                                                                                                                                                                                                                                                                                                                                                                                                                                                                                                                                ",
"                                                                                                                                                                                                                                                                                                                                                                                                                                                                                                                                                                                                                                                                                                                                                                                                                                                                                                                                                                                                                                                                                                                                                                                                                                                ",
"                                                                                                                                                                                                                                                                                                                                                                                                                                                                                                                                                                                                                                                                                                                                                                                                                                                                                                                                                                                                                                                                                                                                                                                                                                                ",
"                                                                                                                                                                                                                                                                                                                                                                                                                                                                                                                                                                                                                                                                                                                                                                                                                                                                                                                                                                                                                                                                                                                                                                                                                                                ",
"                                                                                                                                                                                                                                                                                                                                                                                                                                                                                                                                                                                                                                                                                                                                                                                                                                                                                                                                                                                                                                                                                                                                                                                                                                                ",
"                                                                                                                                                                                                                                                                                                                                                                                                                                                                                                                                                                                                                                                                                                                                                                                                                                                                                                                                                                                                                                                                                                                                                                                                                                                ",
"                                                                                                                                                                                                                                                                                                                                                                                                                                                                                                                                                                                                                                                                                                                                                                                                                                                                                                                                                                                                                                                                                                                                                                                                                                                ",
"                                                                                                                                                                                                                                                                                                                                                                                                                                                                                                                                                                                                                                                                                                                                                                                                                                                                                                                                                                                                                                                                                                                                                                                                                                                ",
"                                                                                                                                                                                                                                                                                                                                                                                                                                                                                                                                                                                                                                                                                                                                                                                                                                                                                                                                                                                                                                                                                                                                                                                                                                                ",
"                                                                                                                                                                                                                                                                                                                                                                                                                                                                                                                                                                                                                                                                                                                                                                                                                                                                                                                                                                                                                                                                                                                                                                                                                                                ",
"                                                                                                                                                                                                                                                                                                                                                                                                                                                                                                                                                                                                                                                                                                                                                                                                                                                                                                                                                                                                                                                                                                                                                                                                                                                ",
"                                                                                                                                                                                                                                                                                                                                                                                                                                                                                                                                                                                                                                                                                                                                                                                                                                                                                                                                                                                                                                                                                                                                                                                                                                                ",
"                                                                                                                                                                                                                                                                                                                                                                                                                                                                                                                                                                                                                                                                                                                                                                                                                                                                                                                                                                                                                                                                                                                                                                                                                                                ",
"                                                                                                                                                                                                                                                                                                                                                                                                                                                                                                                                                                                                                                                                                                                                                                                                                                                                                                                                                                                                                                                                                                                                                                                                                                                ",
"                                                                                                                                                                                                                                                                                                                                                                                                                                                                                                                                                                                                                                                                                                                                                                                                                                                                                                                                                                                                                                                                                                                                                                                                                                                ",
"                                                                                                                                                                                                                                                                                                                                                                                                                                                                                                                                                                                                                                                                                                                                                                                                                                                                                                                                                                                                                                                                                                                                                                                                                                                ",
"                                                                                                                                                                                                                                                                                                                                                                                                                                                                                                                                                                                                                                                                                                                                                                                                                                                                                                                                                                                                                                                                                                                                                                                                                                                ",
"                                                                                                                                                                                                                                                                                                                                                                                                                                                                                                                                                                                                                                                                                                                                                                                                                                                                                                                                                                                                                                                                                                                                                                                                                                                ",
"                                                                                                                                                                                                                                                                                                                                                                                                                                                                                                                                                                                                                                                                                                                                                                                                                                                                                                                                                                                                                                                                                                                                                                                                                                                ",
"                                                                                                                                                                                                                                                                                                                                                                                                                                                                                                                                                                                                                                                                                                                                                                                                                                                                                                                                                                                                                                                                                                                                                                                                                                                ",
"                                                                                                                                                                                                                                                                                                                                                                                                                                                                                                                                                                                                                                                                                                                                                                                                                                                                                                                                                                                                                                                                                                                                                                                                                                                ",
"                                                                                                                                                                                                                                                                                                                                                                                                                                                                                                                                                                                                                                                                                                                                                                                                                                                                                                                                                                                                                                                                                                                                                                                                                                                ",
"                                                                                                                                                                                                                                                                                                                                                                                                                                                                                                                                                                                                                                                                                                                                                                                                                                                                                                                                                                                                                                                                                                                                                                                                                                                ",
"                                                                                                                                                                                                                                                                                                                                                                                                                                                                                                                                                                                                                                                                                                                                                                                                                                                                                                                                                                                                                                                                                                                                                                                                                                                ",
"                                                                                                                                                                                                                                                                                                                                                                                                                                                                                                                                                                                                                                                                                                                                                                                                                                                                                                                                                                                                                                                                                                                                                                                                                                                ",
"                                                                                                                                                                                                                                                                                                                                                                                                                                                                                                                                                                                                                                                                                                                                                                                                                                                                                                                                                                                                                                                                                                                                                                                                                                                ",
"                                                                                                                                                                                                                                                                                                                                                                                                                                                                                                                                                                                                                                                                                                                                                                                                                                                                                                                                                                                                                                                                                                                                                                                                                                                ",
"                                                                                                                                                                                                                                                                                                                                                                                                            _ i y E  .T T T W                                                                                                                                                                                                                                                                                                                                                                                                                                                                                                                                                                                                                                                                                                                                                                                                                   ",
"                                                                                                                                                                                                                                                                                                                                                                                                      W Q R R r i r p i i R y y '                                                                                                                                                                                                                                                                                                                                                                                         ( / R R R ) ' 4.                                                                                                                                                                                                                                                                                                                                                                                                      ",
"                                                                                                                                                                                                                                                                                                                                                                                                  E | _ ` X.7.2.G Z k g x c A i T '                                                                                                                                                                                                                                                                                                                                                                                   y E / M u s u u i R T T R                                                                                                                                                                                                                                                                                                                                                                                                 ",
"                                                                                                                                                                                                                                                                                                                                                                                              / | { 4.5.1.S N l v H d.7.s.<.v b i T _                                                                                                                                                                                                                                                                                                                                                                               t r M b k u 2 3 u b u i i R Q _                                                                                                                                                                                                                                                                                                                                                                                             ",
"                                                                                                                                                                                                                                                                                                                                                                                          )  .{ 4.1.S A v v > : k j H G v Z <.G c M T )                                                                                                                                                                                                                                                                                                                                                                           T p b c 2 > > , c g g g 2 7 k b ( | | r.                                                                                                                                                                                                                                                                                                                                                                                      ",
"                                                                                                                                                                                                                                                                                                                                                                                      O.Q ] O.O.S S n N N z v > 2 V v H H v v D F c b E (                                                                                                                                                                                                                                                                                                                                                                     / T p u l a 2 : , 2 g g 2 2 2 2 k l z M ' u.} u.                                                                                                                                                                                                                                                                                                                                                                                  ",
"                                                                                                                                                                                                                                                                                                                                                                                  _ E W O.1.A A N N v v N A Z x 2 : x l v v c A ,.v k i E                                                                                                                                                                                                                                                                                                                                                                     T i k k l 2 2 , , k k h h l k h k l c v n N ' y.:X[ u.                                                                                                                                                                                                                                                                                                                                                                            ",
"                                                                                                                                                                                                                                                                                                                                                                              / Q W ' 4.5.X.N l k k l c Z X.L k k > X 2 k k k A G X.l u R '                                                                                                                                                                                                                                                                                                                                                                 y i a l D n l l l l k Z G G Z v l k k l v l v N o.4.y.&.| O.                                                                                                                                                                                                                                                                                                                                                                        ",
"                                                                                                                                                                                                                                                                                                                                                                          {  .Q ` o.3.3.3.n n , a v v l 7 > > , : - 4 : k l l v v c G a i E                                                                                                                                                                                                                                                                                                                                                               / T u k S ,.2.a.a.p.6.<.X.2.S n v l c c c l h v v N L 1.6.t.r.| {                                                                                                                                                                                                                                                                                                                                                                     ",
"                                                                                                                                                                                                                                                                                                                                                                      O.Q ) ( o.o.3.3.L L l z a 7 , : 2 k 7 , : X X X : u k k v v k c v a R W                                                                                                                                                                                                                                                                                                                                                             y p a V s.7.G G Z c c 7 k 7 Z A D C v k k l c C v v Z Z A X.5.t.r.] %.                                                                                                                                                                                                                                                                                                                                                                ",
"                                                                                                                                                                                                                                                                                                                                                                    E ~ ' o.o.o.3.1.A A L n 7 7 > > l L v c l k 1 : X X : k k V k k a A a i T                                                                                                                                                                                                                                                                                                                                                           i T u k ,.F C D S Z c X o X & : 1 c c c l l l v C v c c v v n D ,.7.6.r.[ }                                                                                                                                                                                                                                                                                                                                                             ",
"                                                                                                                                                                                                                                                                                                                                                                R ] ' o.o.1.1.1.X.n n n A z & + , c <.v l c N n 7 > 2 , > > 2 l a k k v v u e i                                                                                                                                                                                                                                                                                                                                                         T i v ,.Z V V G D l x : < k h k c c k k h v h C v c c k k l l l v N X.5.r.&.[ y.                                                                                                                                                                                                                                                                                                                                                        ",
"                                                                                                                                                                                                                                                                                                                                                            Q ~ %.4.2.1.L P S P n n n n 2 2 o 7 c v l l v v v k X 2 C A l > < 2 k a l l B a u t                                                                                                                                                                                                                                                                                                                                                       T y b 2.D V V >.D c F < = c v V V V c c 2 g c k A v v c k k h k k k l v n L 5.t.&.| r.                                                                                                                                                                                                                                                                                                                                                    ",
"                                                                                                                                                                                                                                                                                                                                                        '  .{ 4.4.o.L L L A A A N N l a 2 , a v v k 2 k n v n v 1 v D n h , : k k k a l l k 2 R T                                                                                                                                                                                                                                                                                                                                                     T i S A Z c V V c v = k v C V D D v v h 1 h 2 A G G Z k k h 7 h 7 h k k l c v H 4.r.&.] t.                                                                                                                                                                                                                                                                                                                                                ",
"                                                                                                                                                                                                                                                                                                                                                      E ] 4.5.2.L G G S Z S G A n a , , 7 2 , a 2 k 2 a l v c k k v C v k 2 : 2 , , 2 k k k k i T                                                                                                                                                                                                                                                                                                                                                   i e B c A V x x g h : 2 C V G F x h k 2 h h k h ,.G <.v c k h h h h h k k l k c c c A 5.t.&.[                                                                                                                                                                                                                                                                                                                                               ",
"                                                                                                                                                                                                                                                                                                                                                  W [ %.4.X.L G F F A D C N C l , k c v 7 , 7 2 a v a 7 k G k 7 k c c c k 2 2 X 2 > 2 a k k c u E                                                                                                                                                                                                                                                                                                                                                   T M b k D c c x h : : 2 g D G F v v k h h h l 2 n S n c l l k g h h k k k k l l c c c v ` 4.u.&.&.                                                                                                                                                                                                                                                                                                                                          ",
"                                                                                                                                                                                                                                                                                                                                              _ [ %.4.<.X.A A A F D D F Z l h h v Z Z l k , > > , k A c 7 G 1 7 h k k k h 7 h : : , , k l k v * i 5.                                                                                                                                                                                                                                                                                                                                                T B j c D x h k g = : 2 2 c k k C C z k h h v k C c v v c l k k h h h k k k l c c l c c v Z L 5.t.} u.                                                                                                                                                                                                                                                                                                                                      ",
"                                                                                                                                                                                                                                                                                                                                            ] { r.o.B A A A A D Z c c c 1 > k v v v Z n k , > , 7 , v n k Z 1 2 k h h 7 7 7 7 2 : , k l l v l N %.%.                                                                                                                                                                                                                                                                                                                                              / T v k < F h c k - X X X = < 1 - - h h h l C h c n c k v c l l k k k k k k k l c v c v v v v v N ` t.y.} u.                                                                                                                                                                                                                                                                                                                                  ",
"                                                                                                                                                                                                                                                                                                                                        Q [ r.o.A A L L A A D v l l , 1 k l h 7 l v v v k , , , , 2 k Z 2 v + k v l 7 2 2 2 2 2 > , k k l v n n 0.]                                                                                                                                                                                                                                                                                                                                               T i c c k v h 1 X - X : : g g k c h : - 2 l , c F Z l 2 l l l k k k k k k k k l c v v v v v v n v n A 1.t.y.[                                                                                                                                                                                                                                                                                                                                 ",
"                                                                                                                                                                                                                                                                                                                                    ` } %.4.` N Z F G G F F k 2 2 : l v c 2 1 1 , 2 v v l k k 7 , , 7 l 2 7 + l D l h 2 2 2 2 2 2 2 h l l c z m P i.y.                                                                                                                                                                                                                                                                                                                                            T u h g k 1 < = 1 2 : < x v v v D 2.v : : > - l G A v l a k l l l k k l k k k l l c v v v v v C v v v n H o.u.&.&.                                                                                                                                                                                                                                                                                                                            ",
"                                                                                                                                                                                                                                                                                                                                  Q { 5.X.A Z Z A D C l 2 , - X 2 Z N k k h 1 > > 2 k k , 7 l k 7 , , , 2 > : , k k h 2 2 h 7 7 h h 1 7 k l l m 0 i.>X                                                                                                                                                                                                                                                                                                                                          R y u h h , h - 1 k V h < v F C v l ,.L h > - & k k C n c v v v c k l l l l k k k k l l c c v v C C Z Z N n N H 4.y.:Xy.                                                                                                                                                                                                                                                                                                                        ",
"                                                                                                                                                                                                                                                                                                                              _ &.%.` B Z C D F A c 2 : - - 1 c C v k 2 h 1 > > > , k k 2 2 l l l a 2 , , & X > k k k k h h l c c c , 1 , 7 l z 0 J 2XK.                                                                                                                                                                                                                                                                                                                                        T u v h , k 2 : g k F V : g >.V v c l c C C 1 X > k v Z Z D C v V l k k l l c k k k k k k l k l v V D D A A A v B o.r.y.}                                                                                                                                                                                                                                                                                                                       ",
"                                                                                                                                                                                                                                                                                                                          ' | &.o.A N Z D C Z V k 1 : : 2 2 h h k k 7 2 2 < : > , a k 7 , , , k a k a , > > , 2 h k v k h h k v c c h , > , 8 9 A.@.C.<X                                                                                                                                                                                                                                                                                                                                      y i k c g 2 2 - 1 g x F D k h F C v l h x h C v , , 2 7 k k n D S D v l l l l k l k k k k k k k k l c n Z A A A A n n S 4.r.} {                                                                                                                                                                                                                                                                                                                   ",
"                                                                                                                                                                                                                                                                                                                        ] &.%.` B v v A C l 2 , : : 2 k h 2 2 , , 2 , , , > > < , g 2 , , < > > < , 1 1 : , : 7 k g c g x h g v l v k > & @ 0 w.A.G.F.6XwX                                                                                                                                                                                                                                                                                                                                  / y b x g 2 1 : 2 c h c v C c 2 D v c l 2 7 h 1 > > a a a 2 > l Z Z V c v l g k Z v l k k k k g 2 2 k k l c D A A Z Z n N N ` 4.&.} t.                                                                                                                                                                                                                                                                                                              ",
"                                                                                                                                                                                                                                                                                                                    W [ r.o.A v l N v v l 7 1 > l v c 2 , , 1 , 2 , 2 , , 1 < < , 2 , < , < : : : : : : - k : 2 1 2 1 x x x x c c k l 9 O 0.U j.S.G.F.0X3X                                                                                                                                                                                                                                                                                                                                  T i k c g k > > h 2 k k k c c 1 c C h 7 h l 7 2 , , 7 l N z l k > 2 c v Z v k k c l l l l l l g 2 2 a k k l c Z F Z n A N v v N o.t.} }                                                                                                                                                                                                                                                                                                             ",
"                                                                                                                                                                                                                                                                                                                ' ~ { ' B v l v n N N l 7 > , c C Z k , , > > > < , 2 2 2 , , 2 2 , < > : : : - + + + - X k k > 1 1 1 g h k c k k a 9 # w.#.x.F.Y.Y.Y.J.6XkX                                                                                                                                                                                                                                                                                                                              T y b c c c 2 , , 2 h g g k k k < 1 F k k C c 2 , > , 7 l Z A N l k 2 : , k g l v l k c c v v v l k g h k h h k c Z Z v Z A c v l l B O.r.[ r.                                                                                                                                                                                                                                                                                                        ",
"                                                                                                                                                                                                                                                                                                              ~ [ O.` v l l l v n c l , : a l v n v k 1 > > > > < , 2 2 2 , 2 2 2 , > : : - - - - + + X X l n > = : < 1 2 k h 7 > O @.q.q.S.G.Q.XXOX+XXXqX2X                                                                                                                                                                                                                                                                                                                            +.^ f k l c g g k 2 2 2 g g c v c h 1 v k D C k 2 , > > 7 n Z Z n l k h 2 : > : 2 l l l l V c V Z c k k h 2 2 2 , h l v Z v Z Z v l l k n 1.4.u.[ u.                                                                                                                                                                                                                                                                                                    ",
"                                                                                                                                                                                                                                                                                                          / ] %.O.H l k k k l l l , : > k l k 7 g l k 2 < > > > , , 2 2 2 2 2 2 2 , > : : : - - - X X X 1 2.Z k > : > + > , , > O e.w.Q.Q.oX$XxXcXxXcXXXOX-.jX                                                                                                                                                                                                                                                                                                                          *.;.9 8 h 2 2 k l k k h 2 h g h D x : g k C k 2 2 2 , 7 k n n v c k h 1 , , k k = : , 2 2 k k v v l l l l k 2 , , , 2 k n D Z Z n k k k k k A 4.r.u.{                                                                                                                                                                                                                                                                                                   ",
"                                                                                                                                                                                                                                                                                                      ) ~ { O.o.N k 7 > : k l , = > h k 2 2 , , g k l 2 , , > < , 2 , 2 2 2 2 2 , , > : : : : - + - X X c <.<.A + + @ 6 # O # # w.H.G.OXOXoXxXnX$X$X+XXX.X6X2X                                                                                                                                                                                                                                                                                                                        ,X-.m.@.9 > : 2 c v c c 2 g 2 x V k k > = , l g 2 2 2 k k k n n 7 , : < 1 k l c v v : X > > , , 2 2 k k l l k k 2 , , h g l Z A v l k k k l k k l A 4.r.} }                                                                                                                                                                                                                                                                                               ",
"                                                                                                                                                                                                                                                                                                  O.] &.O.` B N v 2 > : > 2 , > g l k , , > > , 2 g k g 2 , > > , 2 2 g 2 2 2 2 , , > : : : : - - - - X D G <.A 9 0.w.9.q.A.#.Y l.S.XX$XxXxXnXcX$X$X$X+X.XC.,X                                                                                                                                                                                                                                                                                                                      V.3XC.H.@.0 # > k V l c c k g v x x c 2 : - , 2 2 g g l l k a k l , 1 > > 1 k l k c l l < : X = > , 1 2 2 k l k l g 2 2 2 2 k Z v c l 2 k k l l l l l l B O.%.} r.                                                                                                                                                                                                                                                                                          ",
"                                                                                                                                                                                                                                                                                              %.~ } O.o.S n n v k : & > : > c C c k 2 > > : : > , 2 2 g 2 , > > , , 2 g 2 2 2 2 , , 1 > : : : : - - + : v D v k 8 0.q.x.g.#.g.S.Y.OX$X$XcXnXnXnXcXxX$X+XXXC.<X                                                                                                                                                                                                                                                                                                                      <XqX^.F.l.@.# @ l v v v k x h k V x k 1 : : - 2 h l l v k k 7 k k 2 > : > > 2 g k c c k 2 2 2 , : : : > , k 2 k l l k 2 2 2 , h k 2 2 > l k l l c v z z l v S 4.%.[ u.                                                                                                                                                                                                                                                                                      ",
"                                                                                                                                                                                                                                                                                            ) } O.` N n N n l k , : > 2 k V V c l k 2 > : : : < , 2 2 2 2 1 > > , , 2 g 2 2 2 , , , , < > > > : - - X 1 c l h k 8 0.l.x.x.k.M.Y.XX$X$X$XcXnXnXcXnXcX$X+X+XC.DX~.                                                                                                                                                                                                                                                                                                                  -.0XXXXXOXF.l.#.5 8 l n h C x g h h g 2 , > 9 2 : k l l k k 2 2 h k k 2 : : > , g k k l l g g g 2 2 < , - : 2 2 k l l l k g 2 , g 2 : : : k k k l l v v v c c l N B O.{ } t.                                                                                                                                                                                                                                                                                  ",
"                                                                                                                                                                                                                                                                                        Q [ ' ` N n Z n v k k 7 : - , c V v c l k 2 > : : : : > 1 2 2 2 , 1 < < < , 2 2 2 2 2 , , , , , , 1 > : - + + , l h h 7 s m A.S.M.N.D.Q..XXX$X$XxXcXnXcXcXcX$X$X+XF.;.C.                                                                                                                                                                                                                                                                                                                  ,XyX$XnX$XoXOXn.w.5 9 7 l k k k 2 1 > > > @ 3.m - : 1 : 3 , , 1 2 2 2 , , > > , 2 2 2 2 , 2 2 g 2 g k k k : , 2 2 k c c c l k g g , : X X 2 2 k k l l l c v c v n N Z S O.r.| &.                                                                                                                                                                                                                                                                              ",
"                                                                                                                                                                                                                                                                                    ' ~ ) / B S A N v l l k 7 , - 1 l Z v k 2 , > > > : : : : > , , 2 2 2 1 > 1 , 2 g g 2 2 2 2 2 2 2 , , 1 > : - X - 2 h k h k z s w.H.F.N.Y.!.!.+X&X$X$XcXcXcXcXcX$X$X+XQ.V.h.                                                                                                                                                                                                                                                                                                                -.qXXX&X%XxXcX$XoXH.w.q @ 9 7 2 2 > 1 > > @ e.|.0.O + - : 4 > > > > , 2 , , 1 > , 2 , , , < < > 2 2 k l v l l , 1 2 g k v v c l 2 1 : X X > > , k h k l k l l c N Z D S A N o.O.{ &.%.                                                                                                                                                                                                                                                                          ",
"                                                                                                                                                                                                                                                                                _ | { M b A A A N v k k , : & : 1 h l h 2 , < > > > > : : : : < , , , , , , 1 , 2 g h h k 2 2 2 2 2 2 2 , , 1 > & X @ 8 7 7 7 k l l m |.G.I.I.Y.!..X+X+X$X$XcXcXcXcX%X$X+XB.C.;.                                                                                                                                                                                                                                                                                                                8XXX+X$X$XcXnXnXoXOXH.9.0 # 6 6 9 9 ; 6 6 I |.|.|.# + X X 4 > > > > < 2 2 , 1 , , , , , , < : > 1 , 2 c c l l , > > , 2 k k k k 2 < & X X : : , , 2 2 2 7 a k k k l v v G o.n S 1.o.O.{  .{ r.                                                                                                                                                                                                                                                                  ",
"                                                                                                                                                                                                                                                                            W ] ] ' 3 N A A A N v k 7 : X + > 2 h k k , > : > > > < > : : : : > , , , 2 2 , , , 2 g k k k h 2 2 2 2 2 2 2 , 2 > + + # |.K 8 8 k k z d w. X.XY.Y.Y.!..X.X+X$X$XcXcXcX$X+X+XQ.C.h.                                                                                                                                                                                                                                                                                                              =.6X$X%XcXnXnXnXnXnX$XY.S.9.@.q I 8.@.0 0 J A.H.oX|.@.@ + X = : & : : : 1 h 2 , , , , , , , < > > < 2 h k D c c h g < = = : 2 2 k 2 , : X : : > , , , , , , 2 g 2 , , 1 2 k S 1.p.N B ` o.' r.%.) ) ) { r.r.t.t.                                                                                                                                                                                                                                                  ",
"                                                                                                                                                                                                                                                                    O.&.[ ~ _ ( S 3.Z n n n v l k , + & : 2 k l k k k , : : > , , , < > > > > , , , , 2 2 g 2 2 g 2 k k l k g g g g 2 2 2 2 2 > & 6 w.}.|.8.8 8 a u B 6 Z..XI.I.I.!.!..X.X+X$X$X$X&X+X+X.X^.V.B.                                                                                                                                                                                                                                                                                                              *.0XcXnXcXnXnXnXnXnXcX$XY.S.x.#.#.9.q.9.j.Z.z.z.S.H.}.# @ + X X X : : : g l 2 2 2 2 , 2 2 , > < < 1 2 k l k g h k 2 , , : X = > 2 j 2 : X X X : > > > > > < , 2 2 , , 1 1 > k & a 7.v n S S L 3.L S S S ` ( _ { } } ] t.                                                                                                                                                                                                                                          ",
"                                                                                                                                                                                                                                                            O._ &.] / ' r.( B S 6.Z l v N l l l , & , 2 2 7 7 k k k 2 > : : > , , , , , > < , , 2 2 2 2 2 g h g 2 2 h k l l k 2 g h k k k h 2 7 7 8.}. X X X}.q p * K.f +.oXY.I.P.I.I.!..X+X&X&X&X+X+X!.+X^.-.~.                                                                                                                                                                                                                                                                                                              >XqX%X%XcXnXcXnXnXcXxX$X.XY.c.k.k.k.k.x.z.z.S.z.S.H.H.J @ + X = : : : > h g 2 2 2 , , , , < > > > , 2 c k h 2 2 , 2 , > < < : : : > < X X : : > < > > > > > > 1 1 , > > > > , n 7 k A z A n n <.<.A A N A S ` ` ` ` ' _ ] 5.                                                                                                                                                                                                                                      ",
"                                                                                                                                                                                                                                                      { :X} { ( ` X.<.2.1.l n A S 7 z v 7 l k 2 , 2 7 2 2 , , 2 2 , > > > : > > < < < , > , , 2 2 2 2 2 2 h k k k k h k l c c k 2 2 h l l k k 7 > 3.}.T.E.R. XA.p     =.K.Y.Y.I.D.D.P.D.Y..X+X+X+X+X+X!.+XJ.-.^.                                                                                                                                                                                                                                                                                                              1XJ.$XcXnXnXnXcXcX$X$X+X!.!.Y.D.D.v.c.c.c.c.F.x.z.G.}.A.5 + : = : : : < < , 2 2 2 2 2 2 , > > > > 1 h k k 2 1 1 < < > : > 2 j 2 > X X X X : : : , > : : > > > 1 1 , , 1 > > > + k 1.k k n 7 , S 2.N C C Z Z Z Z A G L X.' ] }                                                                                                                                                                                                                                     ",
"                                                                                                                                                                                                                                                  { u.r.( ( O.X.A n G 3.S 7 l a , n n , 7 k > > k l 7 > : > > > < > > : : : > , 1 1 1 < > , , 2 2 2 2 2 2 k k k g k k k l c c l k k h l c l k h , m }. XR.E.E.J.jX    *.V.I.I.D.D.D.D.P.I.~..X!.+X+X+X.X+XJ.<X                                                                                                                                                                                                                                                                                                              V.8XtX$XcXnXcXcX%X$X$X+X+X!.T.Y.I.D.P.D.D.D.S.M.OXc.S.oX*X5 @ - : - - : 1 < , , 2 2 2 2 2 , 1 > < 2 g k k h g < < > > > : 2 k l k 2 > X X X : : : , , : > > > 1 1 1 2 1 1 > : : k 2 2 a 7 k , 7 A Z l k c c C Z D A D A S ` ` ' ] &.                                                                                                                                                                                                                                ",
"                                                                                                                                                                                                                                              { :X_ M 6.2.n N n z l A L A 9 8 n z A 7 k > : 2 l v l 2 : : : : > > : : : : : 1 , , 1 1 < > , 2 2 2 2 2 2 g 7 k l k l l l l l l l k k h k c c c c l m @.}.R.E.E.U.6XJ.OX,XC.P.P.D.S.F.P.T.!.~.+X.X+X+X!.&X&XV.,X                                                                                                                                                                                                                                                                                                              V.6XJ.+X%X$X%X$X$X$X+X+X!.!.!.Y.Y.Y.Y.Y.I.I.F.S.S.G.N. XOXq @ - : : > 1 2 2 , , 2 2 2 2 2 , , < < 1 g k h 2 , < : > : : > , k 2 k k 2 > X X X X : , < : > > 1 , 1 , 2 2 1 1 1 : : k Z 7 7 k > z X.v 2 2 h h k c V D D S G G L <.o.O.[ {                                                                                                                                                                                                                             ",
"                                                                                                                                                                                                                                          %.:X{ ` 6.X.A S N z l l l A L X.7 8 n n & & X 2 2 c k k a , > > : : : > > < : > 1 , , , < < > , , 2 h k k k k 2 k l l l l c x c c c v c l l l c v v v v n K |.T.E.E.U.C.C.V.C.F.I.P.D.I.T.!..X.X~.+X+X+X`.`.%XT.-.8X                                                                                                                                                                                                                                                                                                              V.6XJ.`.&X%X&X%X$X+X.XT.I.I.I.I.D.P.Y.!.Y.Y.Y.F.M..XP. X X9.# + - 1 : 1 1 , 2 2 2 h g 2 2 , < < < , g g k 2 2 < : : : : : > g k k 2 2 2 : : X X - : > : > < 2 k k k h h 7 1 1 1 1 : > , & 7 & v 6.n , 2 h h g k k c v C A G X.1.X.o.' ) ~ t.                                                                                                                                                                                                                        ",
"                                                                                                                                                                                                                                      r.| _ ' 5.X.<.<.A n z a 7 7 k A <.X.a 7 8 9 + , l 2 k k 7 2 , , > > : > > 1 < < < 1 , , 2 2 , , , 2 h h k k k k k k k l l l c c c c v Z Z V v c c v v v Z C n m I  XT.T.R.I.P.P.I.I.I.P.I.Y.!..X.X+X~..X!.T.U.`.@XB.=.                                                                                                                                                                                                                                                                                                                  3XJ.`.+X@X&X&X+X!.T.I.D.D.D.D.c.c.D.I.!.Y.Y.F.S.c.R.T..XOX# @ > 1 1 1 1 , 2 2 2 h 2 2 , , , > < 2 2 2 g 2 , > : : : : > > , , , , < : > : X X X X = X : > 7 k l k k h h 2 , > 2 c a a , > & l L l , 2 7 h k l l k k k l C A L X.X.L S ( E W                                                                                                                                                                                                                       ",
"                                                                                                                                                                                                                                    ) } ' 4.2.X.X.G A Z l k 7 2 > 7 N 1.,.m 7 k + k L A l a 7 7 2 , , , < > 1 1 1 < > > , , , , 2 2 2 2 h h k h k k l k k l l l l l l c v n n v v v v v n N A A A n m m U OXT.T.P.U.Y.I.I.I.Y.Q.!.XX+X.X+X&X.X!.T.U.#X~.$.=.                                                                                                                                                                                                                                                                                                                  >XqX&X+X+X+X+X!.T.P.D.D.P.D.P.D.N.D.I..X.XY.I.D.T..XR.R. X5 > > h , , , 2 2 2 h k k 2 , , , > , 2 2 2 2 , , > : : : : > > > > > > > > 1 < > X X X X X X : > 7 7 k l k 7 7 , > , v A 2 : + , X.G 2 > , , 2 k v C D D c l c v n A X.1.S N f ] O.                                                                                                                                                                                                                    ",
"                                                                                                                                                                                                                                  ~ ' 6.2.<.L A A S C v l 2 > , & > n L L z l n L L A n k a 7 2 2 , , , 1 < 1 1 < < > < , , 2 2 2 2 2 h k k k l l c c c v v v n v v v v n n v v l c v v n N A G Z v n m m @.}. XY.Y.I.Y.T.!.OX.XXX$X$X$X$X%X$X+X+X!.ZX;...                                                                                                                                                                                                                                                                                                                    ..aXT.+X+X+X+X!.T.I.P.P.D.I.I.P.N.N.P..X!.T..XT.T.R.R.R. X0 9 7 h 7 2 h 2 2 2 2 h k 2 2 2 2 , , 2 2 2 , 1 : : : : : > < < > > : : : > 2 2 , , : X X X X X + > > 7 7 7 7 7 7 > 7 7 7 , : X , L A , 1 , 1 , h l v v A G A n v c v n A S Z z ` Q                                                                                                                                                                                                                     ",
"                                                                                                                                                                                                                                ~ r.o.1.1.A Z Z c c c l g : > > & & l L L m 7 C l k 7 > , 7 7 h 2 2 , 1 , , , , , , , , , 2 2 k k h h c l k k k k v v v c v v v n Z Z v n n v v v v c v N Z A Z n l n G P X.8.n.G.G.Y.Y.!..XXX$XxX$X$X$X%X$X$X&X+XzXh.=.                                                                                                                                                                                                                                                                                                                        fX^.U.`.&X&X.XT.!.Y.I.D.P.I.P.P.D.D.Y.+X+X+XR.R.P.R.R.G.0 7 h g 2 1 2 2 h g h k h 2 h g 2 2 1 2 2 2 2 , > < > < > > < < < > : : > < 2 g g k 2 > : - - - X + > l 7 k > > > > , + + X X + k v k : : k h 7 k l l c v C D F F v c l v n N l L ( R                                                                                                                                                                                                                   ",
"                                                                                                                                                                                                                               ._ S <.S Z n C v c v v k , < > > & & l A 2.n > 7 k 7 7 , , 7 2 g 2 , , , , , , , 2 2 2 2 2 k k k l l c v v c h h k v v v c c v v N n n v v v v v v v v c v n n l v F ,.A A P P I l.Y.!..X+X$X$XoXoXoXoXcXcXcXxX$X%XvX;.                                                                                                                                                                                                                                                                                                                          ;.eX^.`.+X&X+X.XOXQ.P.D.D.D.P.P.P.P.N.T.T.R.R.E.E.E.T. X8 h h h k h g 2 k g c k h h h k 2 g 2 g , , , 2 2 , > < > 1 < < > > : : : > 2 k k g , , > : > : : + + + + z l > > 7 > X 2 k : > Z N l : > k 2 2 k l c v v v V V n D S Z k l l k A ` E                                                                                                                                                                                                                   ",
"                                                                                                                                                                                                                            ~ / B S n n v v v v v v c h 2 , : > & : l <.p.n v n l , 1 , 7 2 7 2 2 2 , , , , 2 2 2 2 2 2 g k l l l c v v v c k k k c v v v c v v v v n v n n v v v v l l n v n c G ,.z l z s d K q.z.D.Y.Q..X$XxXmXxXmXmXmXmXmXnXSXm.MX                                                                                                                                                                                                                                                                                                                            1X7X~.@X+X.X+XXX!.Y.I.I.P.P.I.I.P.P.R.R.E.E.E.E.E. XI 8 l k c k 2 h 2 h k c c k a 2 2 2 2 2 2 2 2 2 2 2 2 1 > 1 < < < < : : : : : < g 2 2 , , > > 1 1 > > > @ & . X 9 7 7 7 k , k + k G Z 7 - 1 2 2 l l v C Z C v Z Z C z k v S N l 7 n o./ W                                                                                                                                                                                                                 ",
"                                                                                                                                                                                                                          E W A Z v v z v v c c v v k 1 1 2 > : o : l 2.p.n h 7 z C n h 7 7 2 7 2 2 2 2 2 2 2 2 2 2 2 g k l l l c c c c c v c l c l c c v v v v v v v v v v v v v v v n Z n 7 h 2.k v n 8 5 0.8.q.S.D.F.I.Y.Q.XX$XxXxXnXcXcXnXmXSXbXNXvX                                                                                                                                                                                                                                                                                                                            1XqXlX$X$X$X$XXX.X!.Y.Y.Y.I.I.T.T.R.E.E.E.E.E.T.n.d s k c c l k k h k c c k 7 a k k k l 2 2 2 , 2 2 2 , > > < < < < > > : : : : : < < < < : : : : , 7 k 7 9 + + + o & + > l k > > G <.v 2 - > 1 1 k c D C D D Z D D Z C v l k c l > l S ` E                                                                                                                                                                                                                 ",
"                                                                                                                                                                                                                        E ] M n v c c z v v c V V v c 1 2 2 2 1 X , c 1.p.S 7 z <.F l h 7 h h 2 g 2 g g 2 g 2 2 2 2 k l k c c c c c v c v v v v v v v v v v v v v v v v v v v v c v v v n k k 7.1 k a 8 9 0.q.x.j.M.N.D.F.Y.Q.OX$XcX$XxX$X$X$X$XnXvXkXeXaX                                                                                                                                                                                                                                                                                                                            1XwXvXcXcX$X$X$X.X.XT.T.T.T.T.T.R.E.E.E.E.R. XU m l c c c c k h h k v c k 2 , l l l 2 2 2 2 2 g 2 2 , , < < < < < < : : : : : > > > 1 > > : : : 1 7 k l 7 > + & + + + > + o + l L 1.z & + & > 2 h c l v V v v v v v v C n k h l , v A B W Q                                                                                                                                                                                                               ",
"                                                                                                                                                                                                                      E R B N n c l x v c c V V Z v v c k 2 2 2 X > c 1.6.7 k L v 7 2 , 2 2 h k k k k h k k k k k l l l l v c c c c v v v v v v v v v v v v v v v v v v v v v l v v l k l 7 F Z Z Z 8 5 w.q.j.x.c.S.N.D.I.!..XXXXX$X$X$X$X$XxX$X+X$X@XkXeXdX                                                                                                                                                                                                                                                                                                                            7XbXkXxX$X$XcX$X&X.XY.T.Y.T.T.R.E.E.R.E. Xn.m n c c v v l k h l l c k l a k k k a a 2 2 h h k 2 2 , , > < < < < < > : : : : : : : : > > : > > 1 7 7 7 7 7 > > & + + X & k > C X.S a + X X X > 2 c c c V l v v C v v v c v l 2 1 A L n M T i.                                                                                                                                                                                                            ",
"                                                                                                                                                                                                                    ] ) O.z n n l c V C v v V D ,.F v V l g k c o X c 2.6.l l l > 7 7 h h h k k a a k k k k l l l c c c c c c v c c v v v v v c v v v v v v n n n v v v v v l l v v l a > A A N N z q I q.k.x.v.N.N.N.P.T..X+X+XXXXXXX.XXXXXXXXX$X+XXXlXvXaX8X                                                                                                                                                                                                                                                                                                                            wXjXoX$XcXnXcX$X+X!.!.T.T.P.P.R.R.R. XH.K N c v V v v l k c c c c c c l a l k a 2 7 a 2 h k k 2 2 , 1 < 1 2 , 1 < : : < : > > : : : : : : > 1 , , , , , > > > 7 7 7 > c 2 A L G k = X X X = : g k c l c v c v c c k k k k 2 & v Z n z s %.%.                                                                                                                                                                                                          ",
"                                                                                                                                                                                                                  [ _ M 6., k z c c V Z C C Z D F D V Z c c 2 c X : l <.6.k > > , , 7 h h k k k k k k k k l c l c c c c c c v v c c v c c c c c v v v v v v n n n v v v v v l l l l l k 7 N Z L N 8 K q.x.k.c.P.D.I.T.T.!..X+X$XXX+X$XXX$XXXXX$X$X$XcXnXmXkXjXbX                                                                                                                                                                                                                                                                                                                          MXjXoXcXnXnX$X$XXX.X!.T.I.v.P.R.R. X}.U m n V Z Z v c l l c v c c v c l l l k k a k a h k k k k 2 2 2 , 2 2 2 2 1 < < < < > > > > > > > > 1 , 2 , , , > > > 7 7 k N A > 7 L <.n k - X , X - : g x v v c v v c l k k x k l l : v Z n l 8 5.i.>X2X                                                                                                                                                                                                      ",
"                                                                                                                                                                                                                >Xy.B s X.7 7 l k c V D Z C D F S Z C D c g , < X > k n 6.v G l 2 , 7 7 h k k j k k k l c c v v v v v c v v v v v v v c c l c c c v c v v v v v v v v v v v l l k k k , v n n z m d A.q.k.v.P.P.P.P.T.!.+X.X+X$XcXXX$X.XcXOXoXcXoX$X$XnXmXmXxXfX                                                                                                                                                                                                                                                                                                                      eXNXMXmXmXcXnXSXcX$XXXOX.XT.P.v.P.P.Y. XK m k v Z A A A v c l v n Z v v v n l l l l a l k k k k l k k h g 2 2 2 2 2 2 < < < < > < < < < > > > , , 2 , , , , > > > 2 8 7 + @ z 3.L v 1 + X > : < 1 1 c c v h k k h c g g 1 k c k : 2.A v 7 9 3.0.i.2X4XjX                                                                                                                                                                                                  ",
"                                                                                                                                                                                                            i.4Xi.+.m a G 7 l k v v V V V >.>.>.F Z D C v k 2 > X > l c 7.L k v : > , h k k g j k k l l c c v V v v v v v v v v v c c c c c l c c c c c v v v v v v c v c l l l k a , 7 N N N z d +.q.l.c.D.Y.I.Y.T.T.+X+X+X.X+X$XOX$X$X$XOXoXxX$X$XoXmXmXxXmXNXjX                                                                                                                                                                                                                                                                                                                3XdXbXmXSXnXnXcXnXmXmXnXcX$XXX!.v.N.P.D.Z.U 0 k k c A G A Z n v v A n n Z v c l l z n n l l k k k k k l k l 2 2 2 2 2 g 2 2 2 , 1 < 1 , , , < 1 , 2 2 2 2 2 2 , , > , , 7 > 9 z L p.<.v 1 X o : : 2 2 2 x l C v c k k k h h 1 , 2 2 1 a.X.v 7 @ 0.0.w.A.K.2X1XwX                                                                                                                                                                                              ",
"                                                                                                                                                                                                          2X4Xi.0.K s 9 2., l l v c c Z Z G >.<.D V V V V v 2 l X & l N p.A N k : > 2 h k k 2 2 h k k l c c v v v v v v v v v c c l c c l l l k l c c c v v v v v c c c c c k k a 2 , Z k l z 8 6 w.q.#.b.N.D.P.I.!..XT.%X!.+X.X$X$X$X$X$XoXXXoXoXxXoXmXxXoXxXjXrX                                                                                                                                                                                                                                                                                                                5XbXmXSXnXnXcXOXcXSXSXnXcX$X$X!.N.D.S.9.K P N k c v v G G Z n v v N A A N n n Z A n Z n v v v l l c k k k k h g 2 h g 2 2 1 2 2 2 2 2 , , 1 1 , 2 2 2 2 2 7 7 2 , > , 2 7 7 A + 1.p.1.l : X X h > : 1 g v V D v c l l l g g 2 , , > , 1.v c 7 O 8.0.w.w.A.K.0XrXrX                                                                                                                                                                                            ",
"                                                                                                                                                                                                        3X2Xm.w.w.K s > 3.> l C k A x V V V <.>.F C Z v v c k c > & l N p.X.> + > > > 7 h k 7 2 2 k k l l c v v v v v v c c c c c c c l l l l l l l l c c v v v c l c l c l k 7 2 , l k 2 7 9 6 J w.f.g.g.N.I.D.I.!.!.+X%X+X.XXX$XXX$X$XoX$XoXoX$XoXoXmXxXxXXXNXrX                                                                                                                                                                                                                                                                                                                8XMXSXSXnXnXnXnXnXSXSXnXcX$X.X!.F.S.z.K m n v ,.2 v v Z A A A N v n v v v n v n Z A Z n v v v v v v c l l c l x k h h h h g 2 2 2 2 2 , , 1 1 2 2 h 7 7 a h h 2 2 , 2 7 7 l > l 6.p.L k > X + 2 1 > k g V D F D V c c v l k g h 2 > , G v 7 , @ 8.8.9.w.l.Z.H.J.wXdXgX                                                                                                                                                                                        ",
"                                                                                                                                                                                                      3X6Xm.m.w.w.I 8 + 2.: h c k v V V v V D ,.>.D Z x c k < X X o 1 v s.L > : > > 1 2 7 h 2 2 2 k k k c c c c v c c c c c c c c c c c c l l l l k l l c c v v c l k l k l k 2 , , c 2 , 7 9 6 w.j.g.g.x.v.P.D.P.T.!.&X%X+X+X+XOX$XoX*XXXoXXXoXxXoX$XxXxXoXOX0XrX                                                                                                                                                                                                                                                                                                                rXMXSXmXmXcXcXnXnXnXcX$X.X!.Y.I.D.k.l.0 s z Z v L a l N A N n v v v v n N n n C n n n z l l n n n k k k v v v c x x k k h k 2 2 2 2 2 g 1 2 1 2 , 2 7 7 a h 7 2 2 , 2 7 l l l > 7.6.A 1 - X : 2 , g V V Z >.>.Z V V V S k g k k 2 : k S , , ; O 0.8.w.l.l.Z.H.J.OXwXeXfXbX                                                                                                                                                                                    ",
"                                                                                                                                                                                                  0XdXC.S.Z.n.n.0.3.@ > 6., 2 l k h V V c V D >.>.D V c c k > = X X 2 l p.1.7 k > > 1 7 7 2 2 2 2 k k k k c c c c c c l l c c c c c c c c l c c l k l l l c c c l l k k k k h , > 2 a u 2 , @ m A.j.f.f.b.c.D.D.N.F.&X.X$X+X.X$XOX$XoX$XOXoXOXoXxXoXxXmX*XXXOX0X3X                                                                                                                                                                                                                                                                                                                rXMXnXmXmXnXcXnXxX$X$X.X!.I.D.D.c.x.@.q 8 a c l A A k z N v l v v n Z n n n n n C n n l n n n n v z l l z D D v c c k k k x h 2 g 2 2 2 2 2 g g 2 g 2 7 a k h 2 2 , , , A A > 7 s.6.A > X + h k l c v Z D >.F D D D D V C v c k 2 > Z S & > @ 8 0.w.A.l.Z.S.S.F.G.XXkXkXeXfXbX                                                                                                                                                                                ",
"                                                                                                                                                                                                eXrX0XS.Z.Z.Z.A.0.0.O + 2.k 2 k k g k x g V D >.>.F C v c k , > : X 2 l s.L 7 , > > , 2 2 7 2 2 2 g g k k c c c l l l l c c c c v v v v c c c c c l k k l c l l l k h h 7 a 7 , > a 7 2 2 > @ O q.f.f.b.b.v.D.P.D.P.&X.X+X+X+XxXQ.XXoXOXOX$XOXXXxXxXxXcX$XQ.OX0XeX                                                                                                                                                                                                                                                                                                              kXeXvXnXnXnXcX$X$X$X$X+X!.Q.Y.I.N.c.x.x.J 9 , k k A 2.k n n n v l l n Z n n n n z n n n z n n z l l l k v v n v v c v c l k k h h 7 7 2 2 2 g g g g g g h k h k 7 , , , 7 7 l 7 n 6.1.n 1 X - c 2 c V D D D F F >.Z V V Z c c v c 2 : 7.2.+ + + 3.0.n.l.l.z.Z.S.M.F.Q.XXkXkXbXgXeX                                                                                                                                                                              ",
"                                                                                                                                                                                              dXeXJ.F.H.S.Z.z.l.0.8.O + S N h k k k g h g c V D G F D V c k g 2 > X > k 6.<.k : > > 1 7 2 2 2 2 2 k k l c c c k l l k l l l c c l l c c c c c c k k k l l c l l k k h h a k , > : a 7 2 , : + 9 l.f.f.b.b.b.N.D.P.I.T.+X!.+X~.%X.X+X.XXXOXoXXXoXoXxXcXnX$XQ.S.2X                                                                                                                                                                                                                                                                                                                yXwXxX%XcX$X$X$X$X$X$X+XXXQ.Y.D.N.D.c.x.w.q 6 a v l 2.c a n n Z N v n n n z z z n n l z l n n n n l z z z z c l c l c l k l c h h h h 2 g g h h h h h h h k k k 7 2 , 2 , > & + l 6.P z 7 X X 2 1 h c D D D F >.<.>.Z V Z l c l l h , 2.D X + O 8.w.n.l.z.S.H.Q.Y.Y.Q.^.!.lXnXMXaXdXaX                                                                                                                                                                          ",
"                                                                                                                                                                                            fXeX^.Q.G.H.S.Z.z.l.w.8.6 + l S 2 g 2 h g g k x x x C D D Z v c c k , X > 7 7.L > + - > , 2 2 2 2 2 2 2 k l c l c k l l l l l l l l k l l c c l l l k k k k k l l k k h h 7 7 7 > > > k 7 2 , : + d l.f.f.b.k.b.c.D.P.Y.!.T.!.&X!.+X$X+XXXoXXXoXXXoXoXxXxXcX$XG.C.*.                                                                                                                                                                                                                                                                                                                eXkXxX$X$X$X$X$X%X$X$X$X$X.XY.I.D.N.N.x.q.A.6 9 z k S X.2 k v n n v z z v v n n n n z n n n n z n v n n n C v c c c z c v v l v v k k k k k k k k h h h g k k k k 2 7 1 , 7 l A P 1.z k 7 + - > 2 h V v D Z D ,.,.F V C v V v h 2 2 > 2.v X . P 0.w.l.z.l.Z.S.M.F.Y.Q.Q.!.~.&XcXvXyXeXgX                                                                                                                                                                        ",
"                                                                                                                                                                                        eXfXbXXX!.Q.Q.G.F.S.l.w.q.@.K # > A < 1 2 g g g g x x x c V D D V v v k g : : 7 <.L - X > > 1 2 2 2 2 2 2 2 k k l l k k k k k k k k k k k k k l l l l k h h h h k k l l k h 7 h 7 , + & : k 7 a , : + U l.x.k.c.v.c.N.P.Y.Y.T.T.!..X!..X+X+X.XoXoXoXOXXXoX$XxXkXyX;.=.K.                                                                                                                                                                                                                                                                                                                9XlXxX$X+X+X+X+X$X+X+X+XXXXX!.I.P.N.v.b.j.j.w.5 8 a 7 1.n l l z n v z l v n n n z n n n n n v z n n n n n v n c l c v c v c v v v c k k l l k k k h h h k k k k 7 2 7 1 7 8 k + p.6.l k , X 1 2 h v C D D C >.>.F V V V v v h l g > 7 2., X . 8.0.w.l.z.z.H.H.Q.XX!.!.~.~.~.+X@X@XcXlXaX3XeX                                                                                                                                                                    ",
"                                                                                                                                                                                      gXgXyXlXXX!.!.Q.Q.F.H.Z.q.9.@.3.# o L 2 < , g g g h k h V C Z V D V c x k k : : , 1.s.7 1 , > > , , 2 2 2 2 g g k k k k 2 2 h g h h h h h h h h h h k k h 2 7 7 7 h k k k 7 2 2 h h , 1 > : k k k > & + 9 l.f.k.v.c.v.v.P.P.U.T.T.!.!..X.X.X.XoXoXoXoXXXXXoXoXkXqX2X>X2X                                                                                                                                                                                                                                                                                                                  9XmXcX%XcX+X.X+X+X&X+XXX+X$X.XY.I.P.N.c.k.j.l.J 9 z A A A l l k z n v v z n n n n n n n n n n n n v n n c z n v v v c c v v v v v v v l k k c x x h h h k l k k 2 2 1 > > a z k p.6.l k + > v k c v x D F >.<.D C V v v D g k k k : c G : . # 0.w.w.l.Z.G.G.Q.Q.XX!.Q.!.lXcXcX+X@XcXcXvXbXgXgXbX                                                                                                                                                                ",
"                                                                                                                                                                                    dXaXlXcX@X+X~.!.Q.Q.G.G.H.Z.l.w.0.d O A h X > < 1 h g x V V D D D D D V h g 2 < - > 2.p., k > > 1 > > 1 , , 2 g 2 g k k h 2 2 2 g g g h h 7 g 2 7 h h k k 2 2 2 2 2 2 h k k 2 2 , 2 , : - : : v A A v > @ m n.#.x.c.v.v.v.N.P.I.I.T.!.!.~.!..XXXXXoXoXOXXXoXoXyXeX<XwX                                                                                                                                                                                                                                                                                                                      9XmXxXnX$X+X+X+X$X+X+XXX+X$XOXY.I.N.D.I.v.k.z.A.q 8 N l 3.k k k n l l v z l n n n n A n n n n n n v n C z l z v l v v v l v v v v v v c k k c h h h g h k l k k 2 , , > > + & 7 p.L l , + > : 1 k v v V V F >.>.D k c c k g c k k : <.D o . K @.w.j.z.Z.G.G.G.Q.Q.Y.~.+XcXcXCX@X@X@X%XcX@XkXyX9XgX                                                                                                                                                              ",
"                                                                                                                                                                                aXhXbXvXzXzX@X`.!.!.Q.F.F.H.H.H.H.A.e.+.O m F = = - < g g x x V V C V Z Z v k g < : - : <.p.+ > > > > > : > > , 2 2 , 2 2 2 2 , 2 2 2 2 2 2 2 2 g 2 2 2 7 h h h 2 , > 1 2 h k k 1 : : 2 v c 2 : X > > > : X O 0 n.#.f.b.b.b.v.P.P.T.T.T.Y.!.!.~.XXoX$XXXXX$XOXXXyXrX1X                                                                                                                                                                                                                                                                                                                          8XvXxXcX$XnX$XXXnX+XXX.X$XXX.X.X!.T.P.D.P.S.k.q.w.0 m X.A n 7 k l v v v v v n n l n n n n n n v v n c l l c l c C C C v v v v v C C n k v l x h g h h h h k h 2 2 2 , , > + + S p.A l - X + X > g c v V >.>.,.C C h g h g k g k 2 2 Z k . . 3.0.w.Z.Z.H.F.G.F.OXXXXX$X@XcXcXzX'.zX'.'.'.zX@XvXkXaXfXaX                                                                                                                                                          ",
"                                                                                                                                                                              gXgXbXzXzXCXzXcX`.+X!.^.Q.G.F.H.H.n.A.A.0.@ O 7.< < < g g x v V Z V V V V v v c k 1 1 < - l 7.7 o + : > : : : > > , , , , , 2 2 , , , 2 2 , 2 , 2 2 , , , 7 7 7 , 1 1 : - : : 1 2 2 2 1 X - : - - + h 2 > - + + 9 A.#.#.f.h.h.h.h.V.V.V.6X6X6X6X6X0X6X6X8XrX8XrX8X<XwX                                                                                                                                                                                                                                                                                                                            <XkXxX%X.XcXoXXXxX$X+X+X$X+X+X+X+X!.I.Y.Y.D.x.x.l.d m z z N k l k n v l l v n n v v v v n n n v k k l l k l l c v v v v v v n v v C c l v k c k g g g g k k k 2 , 1 1 > > > 8 1.a.n k : X + : > 2 c V Z >.F F V k k g g g g g 2 , c Z X o 8 e.A.H.Z.H.G.G.Y.Q.XX$XXX+X@XcXzX@X'.'.#X].'.@X@XcXzXzXkXeXfX                                                                                                                                                        ",
"                                                                                                                                                                            gXaXbXlXzXzXzXzXcX@X~.!.Q.Q.G.S.S.Z.Z.m.n.0.P . L c < g k k x V D D C V V v V v v k , 2 1 - - G X 2 , : : : : : : : > , , 2 h k 2 , , , , 2 2 2 2 , 2 2 2 2 2 2 1 : : + : : , k h > + - - , , > : - + 2 h 2 1 - @ 5 w.$.$.;.=.*...=.;.V.qX                                                                                                                                                                                                                                                                                                                                                          6XaXmXxX$XcXXXoX$XcX%X$X$X+X+X&X+XT.T.T.Y.P.N.k.l.w.d z A n n 8 7 c l c c l v v n v v v v n v z l k v v k c c v v v n v v v c v v v l l v c x x h 2 2 g k l k , , 1 1 > > 7 > 1.6.n 7 + . : 7 7 k c v D F C c x x k g g g g k : : S c o O 8.A.A.A.Z.G.G.H.G.Q.OXXX~.@XcXzXzXzX'.@X'.].zXzXzXzXzXzXvXyXaX8XaX                                                                                                                                                    ",
"                                                                                                                                                                        bXfXbXzXzX].#X#X#XcXzX@X~.U.Q.Q.F.F.F.H.S.Z.l.w.8.O > 2.> g k k x V V V v v v v v V v c k 7 k - X k : : > > : : : > > < > > , 2 k k 2 1 : - : : > , , > - X : 1 2 c v k h 7 1 : : > > > > 1 1 2 , 1 : : : , 2 u % $ $ $ :.+.$.m.                                                                                                                                                                                                                                                                                                                                                                        C.dXkXxXcX$XoXoX$X$X$XnX.X+X&XcXT.+X!.P.P.I.N.g.x.n.q 6 m l A 7 7 7 k l c l c v v v v n Z n v v l l l l v v v c c c k l l l c c c v v c v k h h h h g g h k h , > 1 1 > : > n 1.6.k 7 + + , l l c l V Z V V V v x k l g 2 < : : < ,.l . s 0.w.w.l.Z.G.G.F.G.Y.OX@X@XcXcX#X#X#X#X'.'.'.].ZX'.zXzXzXzXzXlXlXaXfXbX                                                                                                                                                ",
"                                                                                                                                                                      eX9XyXvXcX#X].'.'.'.lX#X@X@X+X~.!.Q.G.Q.G.H.Z.q.w.8.d . G h > 1 2 g c V V v v v V Z V C V c k h : X , v : : - - : : > > 1 1 < , , 2 k 2 1 : - = X : , k k 2 2 : X : : > : : > : : , 2 , > > > < < > 1 < > & 3 u r t w i                                                                                                                                                                                                                                                                                                                                                                                     1XeXmXcXoXoXoX$X$X+XcX.X.X$X+X&XT.!.N.I.I.v.g.g.x.U 6 8 7 7 n , 7 7 k l l c c c c v v v v c l v l k l c v v c v n v v l c l l l l l k h k x k g h 2 2 2 2 2 2 1 1 1 > + + 7 7.<.7 > X > h k l l V Z v V Z D V k g k 2 > = : < k 2.X . 0.w.n.Z.H.G.G.H.G.OXXX.X@X@XcXcX'.`.'.'.#X'.'.'.].].].].zXiXiXzXzXlXaX9XgX                                                                                                                                              ",
"                                                                                                                                                                    fXaXvX#X#X#X#X].'.`.`.~.@X'.@X'.~.XXXXOXOXOXH.H.j.#.9.@.# + Z X : < < g V V V v V Z Z D D c v c h : X - F : : : : - - - : : : : 2 k 2 > : : < < 1 < : : X - : 4 - - : : 1 2 1 : : : > 1 > : 1 1 > 3 3 r r w e t % N                                                                                                                                                                                                                                                                                                                                                                                           0XdXkXxXxXoXoX$XoX$XnX.X+X$X$X+X`.T.P.P.P.v.b.f.x.w.q 9 8 a z > 7 7 k l l l l l c v v v v c l l l k l c v c c v v l k k l v c c v c k l h h h x h h 2 2 , 2 , 1 1 1 : + X l 1.,.k > + , h h k l C Z Z v A V V c g h 2 , < 1 : G c @ d 8.w.q.Z.S.G.OXXXXX$X$X!.~.'.~.~.`.`.`.'.#X'.].'.].].].zXzX'.'.zX#XcXcXvXaX3XeX                                                                                                                                          ",
"                                                                                                                                                                pXhXaXvXzXzXzX#X].].'.@X~.'.'.'.~.W.Q.!.^.G.G.G.H.H.Z.#.9.@.6 . l l - 1 1 h c c v v V V Z V V v V l 2 : - X v X - : : - - - X X X & , , 2 , , > : : : : > , , < : : > > : < 2 2 > : > : > 1 1 1 1 > : r e t t r M                                                                                                                                                                                                                                                                                                                                                                                                   6XrXkX$XOXoXoXoX$X.X$X$X$X$X.X&XP.N.P.P.v.b.b.g.j.I 6 > 9 , l > 1 h k k k k x l c v n C v l l l c l v v c c v v l v l c l k k k c v v n k k h h k k 2 2 2 2 > , > 1 , k 7 p.p., X + > : 2 k v Z Z Z V Z V V V c k k k k g k <.. O 3.8.q.l.S.G.OXOXOXQ.!.Y.P.U.'.@X@X`.#X'.`.#X'.#XzX#X#X].#X].].zXCXzXzXzXzXkXyXeXgXvX                                                                                                                                      ",
"                                                                                                                                                              eX9XpXzXzXzXzX#X#X].].'.'.'.'.@X@X~.W.!.~.~.Q.^.G.F.S.l.q.q.9.I O . G : < 2 h x c c c v Z D C V V v 2 < - - X > k X - : - : : 2 1 : : > : : : : : : : : : < , 2 , > : : > : > 1 1 1 > > > 1 > 3 3 3 w t w u                                                                                                                                                                                                                                                                                                                                                                                                             3XeXkXoXoXoXoXoXoXXX$X.X$X+XT.T.P.P.v.v.b.b.g.l.J 5 9 7 7 l > 1 7 h k h k k k l l l l c l l l c l l l l l c c l l l l k k c h h h l l x k h h h g 2 2 2 , , > > > > 7 X s.1.: : > : > k c c c v k v V V V V v k l l h < >.v . 9 8.9.q.Z.S.H.Q.XXOXXXXX+X@X@X@X'.'.`.`.'.#X#X#XzXzX#X#XzXzX#XzXVXCXzXcXzXzXcXlXlXyX9X9X                                                                                                                                    ",
"                                                                                                                                                            9XaXpXlXzXzXzX#X#X].].'.'.'.`.`.'.@X@X+X@X`.~.!.Y.M.M.z.z.q.q.q.@.q . z Z 2 h h k x h h c C A Z Z V v < - - + + , l : 2 - - : > > : : > : : : > > > > > > > 1 < < < , , > > : : > 1 1 > 1 1 1 > 3 w t w                                                                                                                                                                                                                                                                                                                                                                                                                     3XeXkXoXoXoX$XoX$X$X.X$X.X XT.P.I.v.v.b.b.g.k.#.5 @ 7 , k , 1 2 h h k 7 h l l c l k 7 7 k k k l l k l l k k k k l k k k h k 7 h l l k l h h 2 1 , , > > : > : > X , , 2.k X : , 2 , l c v V c V V V v v c x k k < = : v o # I #.q.j.z.H.S.F.F.XXXX+X'.'.'.'.W.W.`.'.#X].'.'.].].].#XzXzXzXzXzXCXCXzXzXzX#X@X@XkXyXeX9XaX                                                                                                                                ",
"                                                                                                                                                        9XfXaXvXzXzX#XzXzXzX#X].].].].'.'.`.~.'.@X@X@X`.~.'.+XY.S.z.z.#.@.@.@.I O . <.7 , , 2 2 g x c D A V c , 1 , 1 1 > : X 7 1 h > : : > , > > , , > 1 1 1 1 > > > > 1 < < < > 1 > > > > 3 3 3 r r w e e w r                                                                                                                                                                                                                                                                                                                                                                                                                           2X8X0X0XeX0X0X0X0XwX0XC.C.C.V.C.m.m.k.N.c.x.l.5 @ 9 7 7 z > 1 7 2 h h k k l l l j 2 2 2 h k k k k l k h h h h k h h 2 2 7 7 h h k 7 7 , 2 , 1 > 1 : - : > > 2 k 1 X S : = > 2 l l c v V C c Z V v V c k j < > : : c + . 8 @.#.j.x.k.z.k.M.Q.$X~.~.~.'.'.`.W.`.zX#X#X`.'.'.'.].].].'.#XzXzXCXCXAXAXCXCXzXzXcX@X@X~.kXeX3XeX                                                                                                                            ",
"                                                                                                                                                    bX8XeXbXvXzXzXzX#X].].].#X].].'.'.#X#X@X'.!.'.@X`.~.W.U.U.Y.G.S.S.z.j.#.@.@.6 O > A > 1 1 g g x x x g 2 , 2 2 h g h g 1 - - k 2 2 c 2 2 2 2 2 2 2 2 1 1 1 , , > > , , , , , < 1 1 1 3 3 r r e t t w r                                                                                                                                                                                                                                                                                                                                                                                                                                     wX0XeXwXjXwXwX6X6X2X<X<X,X,X,X=.;.h.f.f.l.q 5 ; h z l > > 7 7 , , , h k k h 2 , 2 2 g h h l k h 2 2 2 2 7 7 7 2 1 1 , 2 2 h h , , 2 , 1 1 > : : : : : < : > : & A X - 1 7 l v l Z V Z C V V c c c k 2 , > : > D . O I @.#.#.#.z.M.F.Q.Q.Q.!.!.~.`.`.'.@XzXzX#X#X'.'.'.`.].#X'.].zXzXCXVXAXCXCXAXCXzXCXCXzXzXlX~.~.wXeXfXkX                                                                                                                        ",
"                                                                                                                                                  eXgXbXvXCXCXCXCXzX].].].].'.'.].].'.'.zXcXzX`.`.`.~.W.W.U.U.Q.Y.M.M.l.q.@.@.Y U . O h 7 - 1 1 1 2 - - 2 2 g g k h h h h 2 , 3 % r w t e w w e t t t t t t e e e e e e e e e e e e e t w $ % b                                                                                                                                                                                                                                                                                                                                                                                                                                                                             m.$.$.....=.p $ $ r M M 3 > : > > , 2 , 7 k h , , , 2 2 2 g k k h , , , 1 1 2 2 , 1 , 2 2 2 2 h h h , , 1 1 : > : : : : : = % % % u o X > 2 k v v x Z Z D C v v c c l 2 c 2 > <.; # 0 @.@.#.j.x.S.M.F.Y.U.W.!.W.!.W.`.`.@XcXcX#X#XzX].'.].zX#X].#XCXCXCXCXCXCXCXAXAXCXCXCXCXzXzXcX@X@X~.yXrX3XaX                                                                                                                    ",
"                                                                                                                                              bX8XaXvXvXzXCXCXCXCXzX#X@X].].'.].].].].#XcXcX#X'.`.~.~.W.W.!.W.!.Y.M.z.k.j.#.#.#.I K O + n - : - : - = < h x x k k k x h h h 2 u y t $ p                       M p r r r r r r r r r                                                                                                                                                                                                                                                                                                                                                                                                                                                                                                     f r w t t y r % % 3 * 3 3 2 7 7 7 > X o o > 2 g g 2 , , , 2 2 2 2 1 2 1 1 2 2 2 g h h k 2 1 1 1 > : > : : & % $ w t i $ % X : < : > h v v Z F Z c k g 2 h k 2 7 v Z O # I Y @.#.q.j.M.M.F.Q.U.!.W.W.W.W.~.`.'.cXzX'.zXzX].].#X#X].].zX#XzXCXCXAXCXCXAXCXVXCXAXZXZXzXzXzXzXlXXXtXwXrXrX                                                                                                                  ",
"                                                                                                                                            9XgXaXvXCXCXCXCXCXCXCXCXzX#X].].].].#X#X#X#X#XlX@X`.~.`.~.U.W.U.I.W.Q.G.D.S.k.k.j.#.@.I 8 O O n - - - - < < g h h h k k u u p y t $ B                                                                                                                                                                                                                                                                                                                                                                                                                                                                                                                                                                 N u % % % $ w w e t e w e $ $ w r u M j u 3 3 : : > : : : : : : < 1 < 2 2 , , , : % $ $ w e e e $ % % s   v % w t e r r u 3 < 2 c V V c k k g 1 2 2 2 G . @ I @.@.#.#.j.x.H.S.Q.Q.W.U.U.I.W.W.W.`.@X@X#X`.#X].].'.`.'.].`.`.].zXCXCXCXVXVXCXCXCXCXZXZXZXZXZXCXCXzXcX@X@X^.qX8X8X                                                                                                              ",
"                                                                                                                                        bXfXeXbXvXzXZXCXCXCXCXCXCXCXzX#X].].].].].].#X@X@X'.'.`.!.!.W.W.I.L.L.I.I.D.c.k.l.k.j.9.@.I U 0 # @ 7 - + - : < 2 g g g k u r t e i                                                                                                                                                                                                                                                                                                                                                                                                                                                                                                                                                                                             i y w w t t e e w $ % % o % 3 4 4 = : : 4 4 : > 3 , 3 u u $ e e e $ r i                     r t y t w u 2 2 , : , 2 g g g 2 - k : . K I Y #.q.j.x.M.M.S.F.D.U.P.I.W.~.W.!.`.'.`.#X@X].].`.].'.'.'.`.].zXzXCXCXCXiXzXCXCXCXCXCXAXAXAXAXzXzXzXzXcX@X~.^.qX7X3XaX                                                                                                          ",
"                                                                                                                                      8XgXbXzXCXZXZXCXCXCXzXCXCXCXCXzX#X].'.'.].].].'.'.'.'.'.`.!.W.!.W.W.U.L.N.N.N.M.k.k.l.j.q.#.Y I K 0 # 8 h - - - < : 3 3 r t t r                                                                                                                                                                                                                                                                                                                                                                                                                                                                                                                                                                                                                   Z v X . o o $ e e e e w w w w w w $ $ % o M o.                                    ( p e y y r r % X : : : > , v . O U Y @.#.q.j.j.j.k.M.F.N.L.U.I.!.!.W.~.'.'.`.#X@X].].].zXCXzX].`.].zXiXVXCXzX].zXzXzXiX].zXCXCXCXAXCXzXzXzXzXzX'.`.~.^.qX8X8X                                                                                                        ",
"                                                                                                                                  yXfXeXyXvXzXZXZXAXZXCXzXzXzXzXCXCXzX#X].'.].].].'.'.@X@X@X'.`.`.`.!.!.!.W.L.L.N.U.D.D.M.M.S.j.#.@.Y U U m O @ N + + 4 % w t r W                                                                                                                                                                                                                                                                                                                                                                                                                                                                                                                                                                                                                                                                                                                 y e e w 4 4 = X : v . X d I Y @.#.j.l.M.S.S.F.F.D.L.U.U.W.!.!.'.@X'.'.zX'.].].].VXCXzX].`.].#XzXzXzX].].iXzXzXiXiXiXVXzXCXCXAXCXzXiXiXzXzXuX'.~.^.qX7X8XyX                                                                                                    ",
"                                                                                                                                9XdXaXvXcXzXCXZXAXZXZXCX#XzXzXzXzXCXzXzX#X'.].].#X#X'.@X'.@X@X'.`.`.`.!.W.I.L.N.N.N.N.D.M.j.z.x.#.@.Y Y I I K 8 9 * r t $ u                                                                                                                                                                                                                                                                                                                                                                                                                                                                                                                                                                                                                                                                                                                             r w e w w p $ o B I I Y @.#.x.l.z.M.M.D.M.c.N.U.W.~.!.~.'.`.`.'.'.'./.'.].].zX].#XzXCX#XzXzXzX].iXzXzXzX].zXzX].].zXVXCXZXzX'.].iXzXzXuXlX'.~.^.qX8X9X                                                                                                  ",
"                                                                                                                              dX9XyXlXzXzXCXZXZXAXVXCXzXzX#X].].zXCXzXzXzX'.].].zXzX].].].'.'.`.`.`.!.!.!.W.W.I.N.N.N.D.M.j.j.x.q.#.#.@.@.@.I I U f E `                                                                                                                                                                                                                                                                                                                                                                                                                                                                                                                                                                                                                                                                                                                                       i i _ t ! +.I @.@.#.#.j.j.f.x.M.F.D.U.!.+X~.U.W.~.W.`.'.'.`.`.`.'.].zXzXzXzXCXzX].].zXzXiXzXzX].#X].VXVXiX`.].iXzXzXiX].'.'.iXzX'.zXcX@X'.tXsX7X8X                                                                                                ",
"                                                                                                                            8XwXtXlXzXzXCXAXAXCXVXVXCX].].#X].].zXzXzXzXzX'.].].].].].'.`.`.`.`.`.`.!.!.W.W.W.~.!.!.Q.Q.D.z.z.k.j.#.#.9.9.@.+.+.! !                                                                                                                                                                                                                                                                                                                                                                                                                                                                                                                                                                                                                                                                                                                                                   f ^ :.+.#.#.#.#.x.k.M.D.Y.I.U.!.~.!.W.W.!.W.'.'.`.`.].'.'.].zX#X].#X#X].].#XCXzX'.].#X#X].].].].[.).iXiXiXzXzX].iX].iX#X'.'.#X`.'.'.`.~.qX3XgX                                                                                            ",
"                                                                                                                        wX1XwXyXvXzXzX'.zXAXAXVX#XVXVX].#X#XzXzXzXzXzX'.].zXzX].zX'././.`./././.!.!.!.!.!.!.~.~.I.N.N.F.D.F.S.z.z.x.l.q.#.@.+.^ %.                                                                                                                                                                                                                                                                                                                                                                                                                                                                                                                                                                                                                                                                                                                                                        ! :.$.q.z.z.M.M.F.I.P.N.D.I.~.~.~.~.~.~.~.'.`.`.'.].].'.`.'.`.].zX].#X].zX'.`.].#X].[./.).[.[.`.iXzXVXzXzXiXiXiXiX].zXcX@X'.'.].'.'.^.qX8X8X                                                                                          ",
"                                                                                                                      9X8XqXtXvXvXzX'.].CXCXVX#X].#XzX#X].zXzXzXiX].zX].'.'.].].#X].`.`.`./././.!.!.!.!.~.`.`.`.W.U.Q.P.D.D.S.M.z.l.j.#.@.+.^ i.                                                                                                                                                                                                                                                                                                                                                                                                                                                                                                                                                                                                                                                                                                                                                            $.! *.;.m.M.M.M.N.P.!.~.+X#X'.@X~.`.~.~.`.`.`.'.].`.'.`.`.`.#XzX].].].#X].`.'.].].[.).).[.].].CXCXzX].'.`.).).].zXCXcX@X].].].'.].'.`.^.wXdXbX                                                                                      ",
"                                                                                                                    7X8XaXtXuXuXzXiXiXiXzXVXzX].].].].'.].#XiXiX].].].].].].].`.].].'.'.`.[.`.`.`.~.`.`.`.`.'.~.~.!.P.N.M.D.S.S.z.l.q.$...:.                                                                                                                                                                                                                                                                                                                                                                                                                                                                                                                                                                                                                                                                                                                                                                    ....;.m.S.G.U.P.D.U.W.W.W.'.'.`.~.'.'.`.`.`.`.`.'.`.'.'.#X]./.`.].#X`.'.].].].`././.[.[./.].`././././.).`.].zXzXzX`.`.].].].].].#XuX^.qX9XaX                                                                                    ",
"                                                                                                                  8X9XtXuXuXuXuXzXzXzXiXiXCXCXiX`.`.`.`.'.].].].`.].].`.`.].].`.`.`.'.'.`.`.`.`.`.`.`.`.'.'.!.W.U.P.I.F.F.G.F.F.M.q.$.*.;.                                                                                                                                                                                                                                                                                                                                                                                                                                                                                                                                                                                                                                                                                                                                                                          ..*.-.C.F.P.P.U.U.I.L.~.`.!.'.'.`.`.`.`.`.'.'.`.`.'.'.#X].#XzX].'.].].`.[./././.[././.`.].)././.`.].].].#X].zX].].].].].zX].'.#X'.~.^.7XfX                                                                                  ",
"                                                                                                                eXeXtXuXiX'.iX'.'.].'.].'.CXCXiX`./.[./.`.zX].].`.].].`./.`.`.`.`.`.`.`.`.`.`.`.`.~.~.`.`.'.L.L.I.I.I.F.F.G.F.S.m.$.*.i.                                                                                                                                                                                                                                                                                                                                                                                                                                                                                                                                                                                                                                                                                                                                                                              i...-.J.D.N.B.L.L.I.I.~.~.'.~.'.`.'.`.'.'.]./.W.`.#X#XzX].`.`.`.`.`.`.`.W.U.W./.`./.].'.'././.`.].].].].].iXiX].).).`.].zX].zX@X'.~.tXaXfXNX                                                                              ",
"                                                                                                              dXwXuXzX].].iXzX].].`.`.).`.`.].].`.`././.'.].].].'.`.'.].].`.`.`././.`.`.`.`.'.'.`.`.`.`.`.W.W.L.P.I.I.I.Y.Y.F.m.;.=.0X                                                                                                                                                                                                                                                                                                                                                                                                                                                                                                                                                                                                                                                                                                                                                                                    *.-.J.Q.D.I.U.U.~.W.~.`.`.`.'.#X#X#XzX#X]./.`.#X#X'.W.L.W.W.W.W././.L.U.'.'.]./.`.'.'.`./.].#X].].#X].].].].`.].'.].].zXVX'.'.lXlX'.yXeXdX                                                                            ",
"                                                                                                            fXwXuXzXiX].].].].iX].].`.`.`.!./.`.`.`./.W.`.].].].'.`.`.].].].].]./.W.`.'.].].].'.'.`.`.~.~.!.!.P.I.F.I.Y.Y.F.M.;.=.0X                                                                                                                                                                                                                                                                                                                                                                                                                                                                                                                                                                                                                                                                                                                                                                                        =.-.J.Q.I.I.U.I.I.I.I.~.@XzX#X#X#X'.'.#X'.'.].'./.U.L.W.`.`.`.].].W.`.#X].`./.`.`.`.`./.`.zX].#X#XzXiX].[.)./.'.iXiXzXiX`.'.'.`.`.uXyXaX9XbX                                                                        ",
"                                                                                                          dXqXlXzXzXiX].].].].].zXiX'./.'.'.]././.`./.W.W.`.`.`././.W./.[.].#X].`./.`.'.].].'.#X#X'.~.W.W.P.P.I.Y.Y.!.!.Q.B.-.=.qX                                                                                                                                                                                                                                                                                                                                                                                                                                                                                                                                                                                                                                                                                                                                                                                            ;.=.7X~.Q.!.U.P.U.I.W.'.@X#X#X#X].'.#X'.`.[.[././.`.`.zXzX`.`.`.).'.].#XW.W./.`././.`.].#X].].].].iX/.[./.).'.zXVXiXiX].'.iXiX].iXzXzXuXeXdX                                                                      ",
"                                                                                                        fXwXuXzXzX].].].].].'.].].`.`./.`.`.'.`.`.'.`.!.!.`././.!.W.L.L.L./.[.`.[.`.].#X].'.#XzX#X`.W.U.U.I.I.U.!.!.!.^.B.h.,XJ.                                                                                                                                                                                                                                                                                                                                                                                                                                                                                                                                                                                                                                                                                                                                                                                                V.>X0X~.!.!.!.!.!.~.~.`.'.@X'.'.@X@X'.`.#X].#X#XzX'.].].`.`.`.`.'.].].W.W././.W.W.`.#X'.`.].'.].].].].)./.[.].iXiX].].).].].zXzX].zXuXtXeXfXeX                                                                  ",
"                                                                                                    aXdXqXzXzXVXzX].].].].].].].].].`././.`.`././.`.'.`.`.`.`.`.].`.W.W.W./.[.[.[.[.`.`.W.`.#X#X'.`.!.U.!.U.!.!..X~.~.C.h.,X                                                                                                                                                                                                                                                                                                                                                                                                                                                                                                                                                                                                                                                                                                                                                                                                        =.6XqX~.XX!.!.!.~.~.'.'.#X'.@X@X@XzXzXCXCX#X#X'.`.`.`.`.`.`.'.`.`./././.W.W.W./.].`.`.[.[.].`.].].].].iXVX].iX].].`.]./.].].].#X#X#X@XyXeXfX                                                                ",
"                                                                                                  eX8XsXuXiXzXCXzX#X`.`.`.].iXiX].].].`././.`.W.W.`.].].'.`.`.].zX#X].`.`.`.].].].].#X].'.'.'.`.~.`.`.!.!.!.~.+X~.!.J.h.1X                                                                                                                                                                                                                                                                                                                                                                                                                                                                                                                                                                                                                                                                                                                                                                                                            -.,XqXkXOXQ.Y.U.!.`.'.].`.`.'.'.].zXzX#X#X#X#X`.`.`.`.`.].`./././.`.`.`././.].#X]./.[.zX].].`.[.].].].].].VX].].).]._._._.].].].].iXuXtXaXhXaX                                                            ",
"                                                                                                9XeXpXiXiX].zXzXzX].[./.`.].iX].`.].].).W.W./.W./.`.].].`.`.`.].].].`.].].#X#X#X#X].#X'.'.'.'.'.~.!.U.!.~.~.~.~.~.C.-.,X                                                                                                                                                                                                                                                                                                                                                                                                                                                                                                                                                                                                                                                                                                                                                                                                                C.,X6XJ.^.!.!.~.~.`.'.'.'.zX#X#X'.].VXCXCXCXzX].`.'.#X].`./.W./.].`.`.`.`.zXzX]././.].`.`.].].]._.].].].CX]._./.)._._.).].].[.].[.].'.tXyXeXhX                                                          ",
"                                                                                              9XeXyXuXiX].].iXiX].'.`.`.[.[.`.`././.].`.W.{./.W.W././.`.`.`.'.'.`.`.[.'.#XzXzX#X'.'.#X#X@X'.'.`.~.W.U.!.~.~.'.~.J.-.<X                                                                                                                                                                                                                                                                                                                                                                                                                                                                                                                                                                                                                                                                                                                                                                                                                      =.,XqXXX$X+X~.~.!.P.L.I.W.U./.'.].CXCXVXzX#X#X].].].]./.W.`.'.`.].`.`.].].[./.[.].'.`.].VX]._.]._.].VX].].).[.].].].].zX].[.(.).`.'.uXtXeXfXbX                                                      ",
"                                                                                          aXdXaXuXiX].].].].].].#X].].].[.`.].)././.iXiX/./.`.).`./.W./.`.`.'.'.`.].#XzXVXCXCX#X].].'.`.'.`.W.W.~.~.'.'.~.~.^.C.<X0X                                                                                                                                                                                                                                                                                                                                                                                                                                                                                                                                                                                                                                                                                                                                                                                                                          V.>X6XtXXX!.!.~.`.'.'.'.`.`.`.#XCXCXZXCXVXzX].'.].].`./.'.].'.`.`.`.`.].[.`.[.'.`.].#X].]._.(.(.].].iX[.].].].].].iXiX].)./.(.].`.`.'.'.yXeXhX                                                    ",
"                                                                                        aX9XsXuXuX].].].].].].].].].].].].`.`.).W./.zXiX`.`.].].'.W.W./.`.].#X#X#XzXVXVXVXCX#X`.U.U.L.I.W.!.W.~.~.~.@X@X@X^.C.,XqX                                                                                                                                                                                                                                                                                                                                                                                                                                                                                                                                                                                                                                                                                                                                                                                                                                =.6XtXoX.X.X+X+X@X'.'.#XzX#XzXVXCXCXzX#X].`.].`.`.'.'.'.`.'.].`.`.`.[.`.].[.[.].[./.BX`./.iX].].]._.].].[.[.].BXBX].].[./.).).].].'.uXtXeXfXMX                                                ",
"                                                                                      9X9XyXuXiX].].].].].].].].].`.].].].[./.`././.].`.).).`.].'./.W./.].].#XzXzXCXCXVXVXzX].'.`.'.%X@X`.`.~.~.~.+X@XXXJ.V.<X                                                                                                                                                                                                                                                                                                                                                                                                                                                                                                                                                                                                                                                                                                                                                                                                                                      6X<XqXkXXX+X+X@X#X#X@X@X'.'.'.#XzX#XzXzXzX].'.`.`.#X'.`.'.]././.].[.].].].[.[.[.[.]./.iX].iXBX_.=XBX].].].].].BX=X].].].BXBXVXiX].].].lXtXeXfX                                              ",
"                                                                                    gX9XsX'.].].].].].].[.].].].].[.].].#X[./.)././.).).).`.].`.].`.`.`.[.[.#X#X#XVXVXVX#X#X#X#X#X'.`.+X`.`..X~.+X@X$XJ.6X<X                                                                                                                                                                                                                                                                                                                                                                                                                                                                                                                                                                                                                                                                                                                                                                                                                                          0X,X0XtX$X@X@X#X#X@X#XzXzXzXCXVX#X#X#X#X].`.].'.[.`.`.'.#X`.`.].[.].].].#X/.[.[./.].].].]._.].BXBXBXBX].].].BX_._.].].].].].].].].`.'.lXkXwXhXMX                                          ",
"                                                                                  dX7XuX).].].].].iX].].].iX].]./.`.].].#X[./.`./.).].).`.`.[./.`.`.`.`.[.`.zXCXzX#X#X#X].].'.'.#X@X#X%X%X$X@X$X%X$XJ.6X2X                                                                                                                                                                                                                                                                                                                                                                                                                                                                                                                                                                                                                                                                                                                                                                                                                                                ,X6XyX~.@X@X#X#X#XzXzX].].#XzXzXzX].].].'.].].].`.`.#X].].].[.[./.#X[.`.[./.(._.].VX].BX_._.BXCXBX].iXBX]._.].BX]./.[.].].].].].#XzXzXlXsXdXaX                                        ",
"                                                                              yX8XsXuX_.].[.].iXiX].].].].iXVX[.[.(.].).].'./.].].).iX[.`.`.`./.`.`.].].].].#XVXVXVX#X#X#XzXzX#X@X@X%X@X@X@X%X@X@XJ.6X6X                                                                                                                                                                                                                                                                                                                                                                                                                                                                                                                                                                                                                                                                                                                                                                                                                                                    <X3XyXlX+X'.'.'.#X#X].].[.#XzXzX#X#X#X#X#X].#X#X#X#X#X].[.[./.[.]./.[./.[.(.].]._.(._.{.BXiXVX].].=X]._.]._.]._.(._.].].].].].zXVXzXiXuXyX9XgX                                      ",
"                                                                            eX9XpXVX].].].].].].iX].iXiXiX].].].[.].(.]./.[.].[.`.[.].].`.[.].[.`.].].#X].`.#X#XzXVX#X#X#XzXzX#X'.@X@X@X@X@X@XXX^.V.2X                                                                                                                                                                                                                                                                                                                                                                                                                                                                                                                                                                                                                                                                                                                                                                                                                                                        qX<XwXkX'.'.'.'.#XzXCXVX#XzX#XVXVXVXzXCX#X'.`.W.U.`.`.].#X[.[.[.]././././.[.]._.{.{.=XBXBXBXBX].]._.(._._._._._._.].].].].].iXzX].].].#XuXeXdX                                    ",
"                                                                          9X9XyXuXiX].].].].].].].=X].=X].].[.].]._.[./.]./.`.`.).`.[.].].).`.`.`.`.].].].].#X#X#X#X#X'.'.@X#X#X'.'.@X'.@XcX+X^.6X<X                                                                                                                                                                                                                                                                                                                                                                                                                                                                                                                                                                                                                                                                                                                                                                                                                                                              1XwXlX@X@X`.`.'.#XzX#X#X#XzXzXzXzX#XzX#X'.`.'.'.#X].[././.].[./.[./.[.]._.(.{.].=X=X]._.=X_._._.].]._._._.].=X=X=X].BXiX].iXVX].].iXzXuXsX8XaX                                ",
"                                                                      aXdXaXuX].].].].].].].].].].VXVXBX[.).].].]._./.(./.[.).).).)./.[.zX].].`.[.`.].].zX#X#X#X#X#X#XCX#X#X].'.'.@X@X@X@XlX^.7X6X                                                                                                                                                                                                                                                                                                                                                                                                                                                                                                                                                                                                                                                                                                                                                                                                                                                                  <X7XtX@X@X@X'.@X#X#X#XzXzXzX].].#X#X#X#X'.'.#X#X[.]././.].{.[.]._.(._._.(.BXBXBXBX].=X_.].BXBX=X=X=X].=X=X].=X=XBXBXVXBXVXVXVX].].BX#XuXyX9XgX                              ",
"                                                                    aX8XsXuXiXBX].].].].].].].].].VXVXVXBX_./.].[._././.(.(.).)./.`.`.`./.{.{./.`.].].].].].#X#X#X#X#XVXzX].'.'.'.@X@XxX+X^.6X<X                                                                                                                                                                                                                                                                                                                                                                                                                                                                                                                                                                                                                                                                                                                                                                                                                                                                      ,X6XtX@X@X@X'.#X#XzX#X#X#X#X#X].[.W.`.[.#X].`.[.[.[.]././.[.{.[.].]._.VXVX=XBXBXBX(.(.].=X].].].=X].].=X=X=XBXBXBXBXBXBXAXBX].].].[.].'.tXwXgX                            ",
"                                                                  8X9XyXuX].=X=X=X].].].].].].].].BXBXVXBXBX/.(._._.[./.(././././.`.`.`.`.).).).`.].].#X].].#X#X#X#X#X#X#X'.`.'.@X@X@X$X^.7X<X                                                                                                                                                                                                                                                                                                                                                                                                                                                                                                                                                                                                                                                                                                                                                                                                                                                                          qX3XqXkX'.`.'.].#X#X#X#X#X#X].`.`.'.'.#X].].[.].].(.[.[./.[.[.[.[.].BXBX=X].BX_.(.].].=X].].].].]._.].=XBX].=X].BXBX].BXBXBX=X]._./.].].zXyXfXaX                        ",
"                                                              aX8X9XpXuXBXBX=X=X=X].].]._._.]._.].].].=XBXBXBX(./.BX/.[.]._././.).).`.].zXiX[.`.[.[.`.#X].].#X#X#X#X#X#X#X'.'.'.@X@X+X~.wX<X                                                                                                                                                                                                                                                                                                                                                                                                                                                                                                                                                                                                                                                                                                                                                                                                                                                                              qX<XwXtX'.`./.[.#X#X#X#X#X#XzX].].[././.VX#X#X].].]./.[.[.[.[.].].].].(.]._._.=X=X=X].].].].].]._._._.].].]._.].BX=X=X=X]._._././.].zXzXzXaX9XNX                      ",
"                                                            8XdXaXuX].].VXBX=X=X].].].].].].].].].].].=X].BXVXVX].[.[._._.[././.).`.].].`.].`.)./././.].].].#X#X].#X'.'.#X@X@X@X'.~.^.wX<X                                                                                                                                                                                                                                                                                                                                                                                                                                                                                                                                                                                                                                                                                                                                                                                                                                                                                    <X7XyX'.'.].#X#X#X#X#X#XzX#X#X].[.].].zX#X#X].[.[.[.].[.[.].].BX].].]._.].=X].].].].].].].]._._._._.].].]._.=XBX=X_.].(._._.[.].VXVXVXzXuXaXdXgX                  ",
"                                                          dXeXyXuX].].].=X=X].=X=X].].].].=X=X]._.].].].BX].BXBX].]._.[.).)._./.[.[.].].].].[.).[.[.[.].].].#X#X#X'.'.`.'.'.#X#X+X^.qX<X                                                                                                                                                                                                                                                                                                                                                                                                                                                                                                                                                                                                                                                                                                                                                                                                                                                                                        ,X6XyX@X'.#X#XzXzX#XVXVXVX#X[.[.#X#X;X#X#X].].#X].].].].].].].].].].].=X=X=X=X].].].].]._._._._._._.].]._.].].].]._._.(.(.].].].=XVX].iXzXpXaXfXMX              ",
"                                                      eX8XsXuX].].].].].=X=X].=X].]._.].=X=X=X=X=X].].].].iX].].].]._.[.).)././.[.].].].].].).[.#XVXVXVX].VXCXzX#X].'.`.#X@X'.~.tXwX<X                                                                                                                                                                                                                                                                                                                                                                                                                                                                                                                                                                                                                                                                                                                                                                                                                                                                                            6X<XqXtXlX#X#XzXzXzXVXzX#X#X#X#X#X#X#X#X#X#X].].].].].].[.].].].].=XBX=X=X].]._.].].].]._._.]._.].].].].=X].=X=X_._._._._.].].].BX=X;X;XVXzXvXeXhX            ",
"                                                    9X9XyXuX].].].].].].=X=X].].].=X].].].].].].].=X=X].].].[.[.].iX[._._._././.[.].].].].].[.[.#XVXVXVX#XzXzX#X].].].'.@X'.~.^.wX2X                                                                                                                                                                                                                                                                                                                                                                                                                                                                                                                                                                                                                                                                                                                                                                                                                                                                                                qX1X7XtX@X#XzX#X#X#X].#X#X#X'.#X;X#X;X#X].#XVXVXzX].].]._.].].BXBXBX=X].].].[.].]._.]._._._.(.(._.].].=X=X=X].]._._.-X=X=X=XVXVXVX].].;XCXzXvXaXgXNX        ",
"                                                bXdXaXuX].BX=X].].].].].=X].].]._._.].].].].].].].].].BX].].].[.].].[.[.].].[.[.[.].].].].].].[.#XVXVXVX].#X#X#X#X#X#X@X'.^.qX6X-.                                                                                                                                                                                                                                                                                                                                                                                                                                                                                                                                                                                                                                                                                                                                                                                                                                                                                                      <X6XyXuXzXCX#X#X].#X#X#X#X#XVXVX#X;X].=XZXVXVX].=X=X].].].=XVXBX].].]._._.(.].]._._._.(._._._.]._.].].].].]._._.-X=XVXBX=XVXVX].].].#XVXVXcXvXaXfXNX    ",
"                                              7X8XaXpXiX].].].]._.].=X=X=X=X-X-X-X_.].].].]._.].].].=XBXVXBX].[.].].[.].].=X].].].].].].].[.].[.#X#X].].#XzXzX'.#X#X@X@X~.qX8X6X                                                                                                                                                                                                                                                                                                                                                                                                                                                                                                                                                                                                                                                                                                                                                                                                                                                                                                          6X3XqXlX@X'.'.#X#X#X#X].].;X;X#X#X].[.#XVXVX].BXBX=X].=XBXVXBX].]._.(.(.(._.]._.]._.].].].].].].].].].=X].-X-X-X=XBXBXVXVX=X].].].].#X#XzXzXvXyXeXgXvX",
"                                            dX9XpXiXBX=X].].].].].].=X].=X=X-X-X-X_.].].].].].].].].].BXBXBX].[.].].].].VXVXVXVX].=X].].].].].].#X].VXVX#XCXCXCXzX%X+X^.qX3XqX                                                                                                                                                                                                                                                                                                                                                                                                                                                                                                                                                                                                                                                                                                                                                                                                                                                                                                                <X8XyXlX@X'.[.`.#XVXVXCX#X#X#X].[.#XVX=X=XBXBX=XVXVXVXBXBX].].]._.(.(._.]._.].].].].].]._.].].].=X].]._._.-X=XBX=XBXBX=X].].].#X#X].].zXzXVXvXvXbX",
"                                        yXfXaXuXiXiXBX].]._.].(.=X].=X=X].].].]._.]._.]._.].].].].=X].BXVXBX].].=X=X].].VXVXVXVX].].;X=X=X=X].].;X].].].#XzXCXzX#X@X~.7X1X                                                                                                                                                                                                                                                                                                                                                                                                                                                                                                                                                                                                                                                                                                                                                                                                                                                                                                                      6X1XwXvX'.'.'.#X#X#XVX;X#X#X#X#XVXVXVX=XBXVXBXBXVXVXBX_._.].].].(.(._.].].].].].]._.].]._._.].=X]._._.-X=XBXBXBXBXVX=X].].=X;X].].].].#X].zXvXvX",
"                                      gX9XvXzX].].BXBX].].].].].].].].].]._.].].]._.].].]._.].].].].].BXBXBX=X=XVXVXBXVXBXBX].[.].].].=X=X].[.].=X].].].].zX#X#X#X~.wXrX                                                                                                                                                                                                                                                                                                                                                                                                                                                                                                                                                                                                                                                                                                                                                                                                                                                                                                                            DXwXtX@X#X#X;X#XVX;X#X#XVXVXVXVXVX;XBXBXVX=XVXBX=X_._._._.].(.(.].].].].=X=X]._._._._._.].=X=X_._._._.BXBXBXVXVX].].].=X;X;X].].].].BXVXzXzX",
"                                    dXaXpXzXCX#X].].].].]._.].].].].].].]._.].].]._.].].].].].].].].].=XVXVXVXVXBX].BX=X=XBX].].].].;X=X=X=X].=X[././.].#XzX#X#XzXyXeX                                                                                                                                                                                                                                                                                                                                                                                                                                                                                                                                                                                                                                                                                                                                                                                                                                                                                                                                h.qX@X#X#X#X#X;X;X;X;XVXVXVXVXVX].BXBX=X].(.].].]._.].].].(.(.].].].].].].].(._._._._.].=X=X_._._.=XBXBXBXBXVX].].].=X;X;X].].VXVXBXVXiXzX"
};
