/* XPM */
static char *aac542ceb10c47c1b6b93fe1485cf320JG1Ck5M3b9LxosCy[] = {
/* columns rows colors chars-per-pixel */
"600 337 253 2 ",
"   c None",
".  c #0C0302",
"X  c #0D0B0C",
"o  c #090806",
"O  c #130402",
"+  c #130D0D",
"@  c #1A0A07",
"#  c #031C03",
"$  c #091708",
"%  c #14110E",
"&  c #18150E",
"*  c #0E0D11",
"=  c #110F11",
"-  c #1B0F11",
";  c #0F1310",
":  c #151314",
">  c #1A1515",
",  c #1B1917",
"<  c #171519",
"1  c #191719",
"2  c #1C1B1C",
"3  c #141A14",
"4  c #220B06",
"5  c #24120D",
"6  c #211D1D",
"7  c #281916",
"8  c #361D18",
"9  c #32110C",
"0  c #022402",
"q  c #012C01",
"w  c #0A2609",
"e  c #023302",
"r  c #033B02",
"t  c #0B3809",
"y  c #1A2719",
"u  c #163716",
"i  c #122B0D",
"p  c #23211E",
"a  c #28261C",
"s  c #39231C",
"d  c #2B3313",
"f  c #1E1D21",
"g  c #211E21",
"h  c #291F21",
"j  c #1E2621",
"k  c #242324",
"l  c #292525",
"z  c #2B2926",
"x  c #262429",
"c  c #292629",
"v  c #2D2A2B",
"b  c #252A24",
"n  c #312D2C",
"m  c #372825",
"M  c #293626",
"N  c #34312E",
"B  c #353A2D",
"V  c #2E2C31",
"C  c #322E31",
"Z  c #343233",
"A  c #393534",
"S  c #3B3A35",
"D  c #353439",
"F  c #39373A",
"G  c #3C3A3B",
"H  c #373A34",
"J  c #2F3030",
"K  c #46251D",
"L  c #452C27",
"P  c #423D3C",
"I  c #4C3A35",
"U  c #583B34",
"Y  c #51352D",
"T  c #633C36",
"R  c #074606",
"E  c #174717",
"W  c #1B5617",
"Q  c #124D0C",
"!  c #25581B",
"~  c #284B18",
"^  c #1A6416",
"/  c #2B681B",
"(  c #36492B",
")  c #2B5825",
"_  c #33572B",
"`  c #3A4634",
"'  c #3B5734",
"]  c #2A4824",
"[  c #2B6824",
"{  c #3B6835",
"}  c #3B7735",
"|  c #33702B",
" . c #1E4120",
".. c #4F6D1A",
"X. c #44433D",
"o. c #45493C",
"O. c #5C4439",
"+. c #43583C",
"@. c #525628",
"#. c #684539",
"$. c #754B3B",
"%. c #79573B",
"&. c #695431",
"*. c #44673C",
"=. c #43743B",
"-. c #576F2D",
";. c #647628",
":. c #767A37",
">. c #6F6E34",
",. c #404913",
"<. c #3D3B41",
"1. c #413E42",
"2. c #454243",
"3. c #4A4444",
"4. c #4C4A47",
"5. c #544A48",
"6. c #4A5844",
"7. c #5A5755",
"8. c #52564D",
"9. c #6A4C45",
"0. c #764D41",
"q. c #6A5248",
"w. c #7D5343",
"e. c #78564A",
"r. c #7A5B52",
"t. c #655C5A",
"y. c #4A6744",
"u. c #52674C",
"i. c #4B7645",
"p. c #576C51",
"a. c #736C4C",
"s. c #6D6766",
"d. c #665F60",
"f. c #3E4940",
"g. c #834D3B",
"h. c #88533D",
"j. c #836B3B",
"k. c #845544",
"l. c #845B4C",
"z. c #8C5C4B",
"x. c #895745",
"c. c #945C4A",
"v. c #975A49",
"b. c #855D52",
"n. c #955F51",
"m. c #8A634A",
"M. c #94634D",
"N. c #9C624E",
"B. c #98684B",
"V. c #897947",
"C. c #96774B",
"Z. c #8C6353",
"A. c #856456",
"S. c #936453",
"D. c #9D6552",
"F. c #9C6A55",
"G. c #9C6C5A",
"H. c #956957",
"J. c #9B7657",
"K. c #897953",
"L. c #A66B4D",
"P. c #A26654",
"I. c #A36B55",
"U. c #A96E54",
"Y. c #A56D5A",
"T. c #AA6D5B",
"R. c #AA6557",
"E. c #B3685B",
"W. c #AC7255",
"Q. c #A4725C",
"!. c #AC735B",
"~. c #AC7A5D",
"^. c #A57957",
"/. c #B37555",
"(. c #B97755",
"). c #B57857",
"_. c #BA7956",
"`. c #B3765A",
"'. c #B57A5C",
"]. c #BB7C5C",
"[. c #B87759",
"{. c #AE724F",
"}. c #9A6B63",
"|. c #96726A",
" X c #A76B62",
".X c #A57462",
"XX c #AD7562",
"oX c #AD7A64",
"OX c #AD7B6A",
"+X c #A57767",
"@X c #B27663",
"#X c #B47C63",
"$X c #BB7E61",
"%X c #B47D6A",
"&X c #B97D6B",
"*X c #B2776A",
"=X c #A67A73",
"-X c #A35D4E",
";X c #C17E5C",
":X c #C07B57",
">X c #C07E62",
",X c #6B8735",
"<X c #75883B",
"1X c #75923D",
"2X c #688B30",
"3X c #578538",
"4X c #7A9646",
"5X c #748944",
"6X c #5A8A4B",
"7X c #3C8335",
"8X c #81823F",
"9X c #888849",
"0X c #94884D",
"qX c #889949",
"wX c #96974C",
"eX c #8D8953",
"rX c #998855",
"tX c #8C9853",
"yX c #989757",
"uX c #AC845D",
"iX c #A68958",
"pX c #B4835C",
"aX c #BC815E",
"sX c #B28B5C",
"dX c #A6955B",
"fX c #87A44B",
"gX c #8AA752",
"hX c #93A354",
"jX c #96A657",
"kX c #92A34D",
"lX c #A2A15E",
"zX c #9B9462",
"xX c #AC8362",
"cX c #A98864",
"vX c #B58363",
"bX c #BD8263",
"nX c #B48B63",
"mX c #B4816D",
"MX c #BA836C",
"NX c #B98B68",
"BX c #A99764",
"VX c #BB8571",
"CX c #BA8773",
"ZX c #B5936C",
"AX c #A8A665",
"SX c #9FA661",
"DX c #C2815E",
"FX c #C28364",
"GX c #C38669",
"HX c #C68A6A",
"JX c #C68A68",
"KX c #C28B76",
"LX c #A28583",
/* pixels */
"                                                                                                                                                                                                                                                                                                                                                                                                                                                                                                                                                                                                                                                                                                                                                                                                                                                                                                                                                                                                                                                                                                                                                                                                                                                ",
"                                                                                                                                                                                                                                                                                                                                                                                                                                                                                                                                                                                                                                                                                                                                                                                                                                                                                                                                                                                                                                                                                                                                                                                                                                                ",
"                                                                                                                                                                                                                                                                                                                                                                                                                                                                                                                                                                                                                                                                                                                                                                                                                                                                                                                                                                                                                                                                                                                                                                                                                                                ",
"                                                                                                                                                                                                                                                                                                                                                                                                                                                                                                                                                                                                                                                                                                                                                                                                                                                                                                                                                                                                                                                                                                                                                                                                                                                ",
"                                                                                                                                                                                                                                                                                                                                                                                                                                                                                                                                                                                                                                                                                                                                                                                                                                                                                                                                                                                                                                                                                                                                                                                                                                                ",
"                                                                                                                                                                                                                                                                                                                                                                                                                                                                                                                                                                                                                                                                                                                                                                                                                                                                                                                                                                                                                                                                                                                                                                                                                                                ",
"                                                                                                                                                                                                                                                                                                                                                                                                                                                                                                                                                                                                                                                                                                                                                                                                                                                                                                                                                                                                                                                                                                                                                                                                                                                ",
"                                                                                                                                                                                                                                                                                                                                                                                                                                                                                                                                                                                                                                                                                                                                                                                                                                                                                                                                                                                                                                                                                                                                                                                                                                                ",
"                                                                                                                                                                                                                                                                                                                                                                                                                                                                                                                                                                                                                                                                                                                                                                                                                                                                                                                                                                                                                                                                                                                                                                                                                                                ",
"                                                                                                                                                                                                                                                                                                                                                                                                                                                                                                                                                                                                                                                                                                                                                                                                                                                                                                                                                                                                                                                                                                                                                                                                                                                ",
"                                                                                                                                                                                                                                                                                                                                                                                                                                                                                                                                                                                                                                                                                                                                                                                                                                                                                                                                                                                                                                                                                                                                                                                                                                                ",
"                                                                                                                                                                                                                                                                                                                                                                                                                                                                                                                                                                                                                                                                                                                                                                                                                                                                                                                                                                                                                                                                                                                                                                                                                                                ",
"                                                                                                                                                                                                                                                                                                                                                                                                                                                                                                                                                                                                                                                                                                                                                                                                                                                                                                                                                                                                                                                                                                                                                                                                                                                ",
"                                                                                                                                                                                                                                                                                                                                                                                                                                                                                                                                                                                                                                                                                                                                                                                                                                                                                                                                                                                                                                                                                                                                                                                                                                                ",
"                                                                                                                                                                                                                                                                                                                                                                                                                                                                                                                                                                                                                                                                                                                                                                                                                                                                                                                                                                                                                                                                                                                                                                                                                                                ",
"                                                                                                                                                                                                                                                                                                                                                                                                                                                                                                                                                                                                                                                                                                                                                                                                                                                                                                                                                                                                                                                                                                                                                                                                                                                ",
"                                                                                                                                                                                                                                                                                                                                                                                                                                                                                                                                                                                                                                                                                                                                                                                                                                                                                                                                                                                                                                                                                                                                                                                                                                                ",
"                                                                                                                                                                                                                                                                                                                                                                                                                                                                                                                                                                                                                                                                                                                                                                                                                                                                                                                                                                                                                                                                                                                                                                                                                                                ",
"                                                                                                                                                                                                                                                                                                                                                                                                                                                                                                                                                                                                                                                                                                                                                                                                                                                                                                                                                                                                                                                                                                                                                                                                                                                ",
"                                                                                                                                                                                                                                                                                                                                                                                                                                                                                                                                                                                                                                                                                                                                                                                                                                                                                                                                                                                                                                                                                                                                                                                                                                                ",
"                                                                                                                                                                                                                                                                                                                                                                                                                                                                                                                                                                                                                                                                                                                                                                                                                                                                                                                                                                                                                                                                                                                                                                                                                                                ",
"                                                                                                                                                                                                                                                                                                                                                                                                                                                                                                                                                                                                                                                                                                                                                                                                                                                                                                                                                                                                                                                                                                                                                                                                                                                ",
"                                                                                                                                                                                                                                                                                                                                                                                                                                                                                                                                                                                                                                                                                                                                                                                                                                                                                                                                                                                                                                                                                                                                                                                                                                                ",
"                                                                                                                                                                                                                                                                                                                                                                                                                                                                                                                                                                                                                                                                                                                                                                                                                                                                                                                                                                                                                                                                                                                                                                                                                                                ",
"                                                                                                                                                                                                                                                                                                                                                                                                                                                                                                                                                                                                                                                                                                                                                                                                                                                                                                                                                                                                                                                                                                                                                                                                                                                ",
"                                                                                                                                                                                                                                                                                                                                                                                                                                                                                                                                                                                                                                                                                                                                                                                                                                                                                                                                                                                                                                                                                                                                                                                                                                                ",
"                                                                                                                                                                                                                                                                                                                                                                                                                                                                                                                                                                                                                                                                                                                                                                                                                                                                                                                                                                                                                                                                                                                                                                                                                                                ",
"                                                                                                                                                                                                                                                                                                                                                                                                                                                                                                                                                                                                                                                                                                                                                                                                                                                                                                                                                                                                                                                                                                                                                                                                                                                ",
"                                                                                                                                                                                                                                                                                                                                                                                                                                                                                                                                                                                                                                                                                                                                                                                                                                                                                                                                                                                                                                                                                                                                                                                                                                                ",
"                                                                                                                                                                                                                                                                                                                                                                                                                                                                                                                                                                                                                                                                                                                                                                                                                                                                                                                                                                                                                                                                                                                                                                                                                                                ",
"                                                                                                                                                                                                                                                                                                                                                                                                                                                                                                                                                                                                                                                                                                                                                                                                                                                                                                                                                                                                                                                                                                                                                                                                                                                ",
"                                                                                                                                                                                                                                                                                                                                                                                                                                                                                                                                                                                                                                                                                                                                                                                                                                                                                                                                                                                                                                                                                                                                                                                                                                                ",
"                                                                                                                                                                                                                                                                                                                                                                                                                                                                                                                                                                                                                                                                                                                                                                                                                                                                                                                                                                                                                                                                                                                                                                                                                                                ",
"                                                                                                                                                                                                                                                                                                                                                                                                                                                                                                                                                                                                                                                                                                                                                                                                                                                                                                                                                                                                                                                                                                                                                                                                                                                ",
"                                                                                                                                                                                                                                                                                                                                                                                                                                                                                                                                                                                                                                                                                                                                                                                                                                                                                                                                                                                                                                                                                                                                                                                                                                                ",
"                                                                                                                                                                                                                                                                                                                                                                                                                                                                                                                                                                                                                                                                                                                                                                                                                                                                                                                                                                                                                                                                                                                                                                                                                                                ",
"                                                                                                                                                                                                                                                                                                                                                                                                                                                                                                                                                                                                                                                                                                                                                                                                                                                                                                                                                                                                                                                                                                                                                                                                                                                ",
"                                                                                                                                                                                                                                                                                                                                                                                                                                                                                                                                                                                                                                                                                                                                                                                                                                                                                                                                                                                                                                                                                                                                                                                                                                                ",
"                                                                                                                                                                                                                                                                                                                                                                                                                                                                                                                                                                                                                                                                                                                                                                                                                                                                                                                                                                                                                                                                                                                                                                                                                                                ",
"                                                                                                                                                                                                                                                                                                                                                                                                                                                                                                                                                                                                                                                                                                                                                                                                                                                                                                                                                                                                                                                                                                                                                                                                                                                ",
"                                                                                                                                                                                                                                                                                                                                                                                                                                                                                                                                                                                                                                                                                                                                                                                                                                                                                                                                                                                                                                                                                                                                                                                                                                                ",
"                                                                                                                                                                                                                                                                                                                                                                                                                                                                                                                                                                                                                                                                                                                                                                                                                                                                                                                                                                                                                                                                                                                                                                                                                                                ",
"                                                                                                                                                                                                                                                                                                                                                                                                                                                                                                                                                                                                                                                                                                                                                                                                                                                                                                                                                                                                                                                                                                                                                                                                                                                ",
"                                                                                                                                                                                                                                                                                                                                                                                                                                                                                                                                                                                                                                                                                                                                                                                                                                                                                                                                                                                                                                                                                                                                                                                                                                                ",
"                                                                                                                                                                                                                                                                                                                                                                                                                                                                                                                                                                                                                                                                                                                                                                                                                                                                                                                                                                                                                                                                                                                                                                                                                                                ",
"                                                                                                                                                                                                                                                                                                                                                                                                                                                                                                                                                                                                                                                                                                                                                                                                                                                                                                                                                                                                                                                                                                                                                                                                                                                ",
"                                                                                                                                                                                                                                                                                                                                                                                                                                                                                                                                                                                                                                                                                                                                                                                                                                                                                                                                                                                                                                                                                                                                                                                                                                                ",
"                                                                                                                                                                                                                                                                                                                                                                                                                                                                                                                                                                                                                                                                                                                                                                                                                                                                                                                                                                                                                                                                                                                                                                                                                                                ",
"                                                                                                                                                                                                                                                                                                                                                                                                                                                                                                                                                                                                                                                                                                                                                                                                                                                                                                                                                                                                                                                                                                                                                                                                                                                ",
"                                                                                                                                                                                                                                                                                                                                                                                                                                                                                                                                                                                                                                                                                                                                                                                                                                                                                                                                                                                                                                                                                                                                                                                                                                                ",
"                                                                                                                                                                                                                                                                                                                                                                                                                                                                                                                                                                                                                                                                                                                                                                                                                                                                                                                                                                                                                                                                                                                                                                                                                                                ",
"                                                                                                                                                                                                                                                                                                                                                                                                                                                                                                                                                                                                                                                                                                                                                                                                                                                                                                                                                                                                                                                                                                                                                                                                                                                ",
"                                                                                                                                                                                                                                                                                                                                                                                                                                                                                                                                                                                                                                                                                                                                                                                                                                                                                                                                                                                                                                                                                                                                                                                                                                                ",
"                                                                                                                                                                                                                                                                                                                                                                                                                                                                                                                                                                                                                                                                                                                                                                                                                                                                                                                                                                                                                                                                                                                                                                                                                                                ",
"                                                                                                                                                                                                                                                                                                                                                                                                                                                                                                                                                                                                                                                                                                                                                                                                                                                                                                                                                                                                                                                                                                                                                                                                                                                ",
"                                                                                                                                                                                                                                                                                                                                                                                                                                                                                                                                                                                                                                                                                                                                                                                                                                                                                                                                                                                                                                                                                                                                                                                                                                                ",
"                                                                                                                                                                                                                                                                                                                                                                                                                                                                                                                                                                                                                                                                                                                                                                                                                                                                                                                                                                                                                                                                                                                                                                                                                                                ",
"                                                                                                                                                                                                                                                                                                                                                                                                                                                                                                                                                                                                                                                                                                                                                                                                                                                                                                                                                                                                                                                                                                                                                                                                                                                ",
"                                                                                                                                                                                                                                                                                                                                                                                                                                                                                                                                                                                                                                                                                                                                                                                                                                                                                                                                                                                                                                                                                                                                                                                                                                                ",
"                                                                                                                                                                                                                                                                                                                                                                                                                                                                                                                                                                                                                                                                                                                                                                                                                                                                                                                                                                                                                                                                                                                                                                                                                                                ",
"                                                                                                                                                                                                                                                                                                                                                                                                                                                                                                                                                                                                                                                                                                                                                                                                                                                                                                                                                                                                                                                                                                                                                                                                                                                ",
"                                                                                                                                                                                                                                                                                                                                                                                                                                                                                                                                                                                                                                                                                                                                                                                                                                                                                                                                                                                                                                                                                                                                                                                                                                                ",
"                                                                                                                                                                                                                                                                                                                                                                                                                                                                                                                                                                                                                                                                                                                                                                                                                                                                                                                                                                                                                                                                                                                                                                                                                                                ",
"                                                                                                                                                                                                                                                                                                                                                                                                                                                                                                                                                                                                                                                                                                                                                                                                                                                                                                                                                                                                                                                                                                                                                                                                                                                ",
"                                                                                                                                                                                                                                                                                                                                                                                                                                                                                                                                                                                                                                                                                                                                                                                                                                                                                                                                                                                                                                                                                                                                                                                                                                                ",
"                                                                                                                                                                                                                                                                                                                                                                                                                                                                                                                                                                                                                                                                                                                                                                                                                                                                                                                                                                                                                                                                                                                                                                                                                                                ",
"                                                                                                                                                                                                                                                                                                                                                                                                                                                                                                                                                                                                                                                                                                                                                                                                                                                                                                                                                                                                                                                                                                                                                                                                                                                ",
"                                                                                                                                                                                                                                                                                                                                                                                                                                                                                                                                                                                                                                                                                                                                                                                                                                                                                                                                                                                                                                                                                                                                                                                                                                                ",
"                                                                                                                                                                                                                                                                                                                                                                                                                                                                                                                                                                                                                                                                                                                                                                                                                                                                                                                                                                                                                                                                                                                                                                                                                                                ",
"                                                                                                                                                                                                                                                                                                                                                                                                                                                                                                                                                                                                                                                                                                                                                                                                                                                                                                                                                                                                                                                                                                                                                                                                                                                ",
"                                                                                                                                                                                                                                                                                                                                                                                                                                                                                                                                                                                                                                                                                                                                                                                                                                                                                                                                                                                                                                                                                                                                                                                                                                                ",
"                                                                                                                                                                                                                                                                                                                                                                                                                                                                                                                                                                                                                                                                                                                                                                                                                                                                                                                                                                                                                                                                                                                                                                                                                                                ",
"                                                                                                                                                                                                                                                                                                                                                                                                                                                                                                                                                                                                                                                                                                                                                                                                                                                                                                                                                                                                                                                                                                                                                                                                                                                ",
"                                                                                                                                                                                                                                                                                                                                                                                                                                                                                                                                                                                                                                                                                                                                                                                                                                                                                                                                                                                                                                                                                                                                                                                                                                                ",
"                                                                                                                                                                                                                                                                                                                                                                                                                                                                                                                                                                                                                                                                                                                                                                                                                                                                                                                                                                                                                                                                                                                                                                                                                                                ",
"                                                                                                                                                                                                                                                                                                                                                                                                                                                                                                                                                                                                                                                                                                                                                                                                                                                                                                                                                                                                                                                                                                                                                                                                                                                ",
"                                                                                                                                                                                                                                                                                                                                                                                                                                                                                                                                                                                                                                                                                                                                                                                                                                                                                                                                                                                                                                                                                                                                                                                                                                                ",
"                                                                                                                                                                                                                                                                                                                                                                                                                                                                                                                                                                                                                                                                                                                                                                                                                                                                                                                                                                                                                                                                                                                                                                                                                                                ",
"                                                                                                                                                                                                                                                                                                                                                                                                                                                                                                                                                                                                                                                                                                                                                                                                                                                                                                                                                                                                                                                                                                                                                                                                                                                ",
"                                                                                                                                                                                                                                                                                                                                                                                                                                                                                                                                                                                                                                                                                                                                                                                                                                                                                                                                                                                                                                                                                                                                                                                                                                                ",
"                                                                                                                                                                                                                                                                                                                                                                                                                                                                                                                                                                                                                                                                                                                                                                                                                                                                                                                                                                                                                                                                                                                                                                                                                                                ",
"                                                                                                                                                                                                                                                                                                                                                                                                                                                                                                                                                                                                                                                                                                                                                                                                                                                                                                                                                                                                                                                                                                                                                                                                                                                ",
"                                                                                                                                                                                                                                                                                                                                                                                                                                                                                                                                                                                                                                                                                                                                                                                                                                                                                                                                                                                                                                                                                                                                                                                                                                                ",
"                                                                                                                                                                                                                                                                                                                                                                                                                                                                                                                                                                                                                                                                                                                                                                                                                                                                                                                                                                                                                                                                                                                                                                                                                                                ",
"                                                                                                                                                                                                                                                                                                                                                                                                                                                                                                                                                                                                                                                                                                                                                                                                                                                                                                                                                                                                                                                                                                                                                                                                                                                ",
"                                                                                                                                                                                                                                                                                                                                                                                                                                                                                                                                                                                                                                                                                                                                                                                                                                                                                                                                                                                                                                                                                                                                                                                                                                                ",
"                                                                                                                                                                                                                                                                                                                                                                                                                                                                                                                                                                                                                                                                                                                                                                                                                                                                                                                                                                                                                                                                                                                                                                                                                                                ",
"                                                                                                                                                                                                                                                                                                                                                                                                                                                                                                                                                                                                                                                                                                                                                                                                                                                                                                                                                                                                                                                                                                                                                                                                                                                ",
"                                                                                                                                                                                                                                                                                                                                                                                                                                                                                                                                                                                                                                                                                                                                                                                                                                                                                                                                                                                                                                                                                                                                                                                                                                                ",
"                                                                                                                                                                                                                                                                                                                                                                                                                                                                                                                                                                                                                                                                                                                                                                                                                                                                                                                                                                                                                                                                                                                                                                                                                                                ",
"                                                                                                                                                                                                                                                                                                                                                                                                                                                                                                                                                                                                                                                                                                                                                                                                                                                                                                                                                                                                                                                                                                                                                                                                                                                ",
"                                                                                                                                                                                                                                                                                                                                                                                                                                                                                                                                                                                                                                                                                                                                                                                                                                                                                                                                                                                                                                                                                                                                                                                                                                                ",
"                                                                                                                                                                                                                                                                                                                                                                                                                                                                                                                                                                                                                                                                                                                                                                                                                                                                                                                                                                                                                                                                                                                                                                                                                                                ",
"                                                                                                                                                                                                                                                                                                                                                                                                                                                                                                                                                                                                                                                                                                                                                                                                                                                                                                                                                                                                                                                                                                                                                                                                                                                ",
"                                                                                                                                                                                                                                                                                                                                                                                                                                                                                                                                                                                                                                                                                                                                                                                                                                                                                                                                                                                                                                                                                                                                                                                                                                                ",
"                                                                                                                                                                                                                                                                                                                                                                                                                                                                                                                                                                                                                                                                                                                                                                                                                                                                                                                                                                                                                                                                                                                                                                                                                                                ",
"                                                                                                                                                                                                                                                                                                                                                                                                                                                                                                                                                                                                                                                                                                                                                                                                                                                                                                                                                                                                                                                                                                                                                                                                                                                ",
"                                                                                                                                                                                                                                                                                                                                                                                                                                                                                                                                                                                                                                                                                                                                                                                                                                                                                                                                                                                                                                                                                                                                                                                                                                                ",
"                                                                                                                                                                                                                                                                                                                                                                                                                                                                                                                                                                                                                                                                                                                                                                                                                                                                                                                                                                                                                                                                                                                                                                                                                                                ",
"                                                                                                                                                                                                                                                                                                                                                                                                                                                                                                                                                                                                                                                                                                                                                                                                                                                                                                                                                                                                                                                                                                                                                                                                                                                ",
"                                                                                                                                                                                                                                                                                                                                                                                                                                                                                                                                                                                                                                                                                                                                                                                                                                                                                                                                                                                                                                                                                                                                                                                                                                                ",
"                                                                                                                                                                                                                                                                                                                                                                                                                                                                                                                                                                                                                                                                                                                                                                                                                                                                                                                                                                                                                                                                                                                                                                                                                                                ",
"                                                                                                                                                                                                                                                                                                                                                                                                                                                                                                                                                                                                                                                                                                                                                                                                                                                                                                                                                                                                                                                                                                                                                                                                                                                ",
"                                                                                                                                                                                                                                                                                                                                                                                                                                                                                                                                                                                                                                                                                                                                                                                                                                                                                                                                                                                                                                                                                                                                                                                                                                                ",
"                                                                                                                                                                                                                                                                                                                                                                                                                                                                                                                                                                                                                                                                                                                                                                                                                                                                                                                                                                                                                                                                                                                                                                                                                                                ",
"                                                                                                                                                                                                                                                                                                                                                                                                                                                                                                                                                                                                                                                                                                                                                                                                                                                                                                                                                                                                                                                                                                                                                                                                                                                ",
"                                                                                                                                                                                                                                                                                                                                                                                                                                                                                                                                                                                                                                                                                                                                                                                                                                                                                                                                                                                                                                                                                                                                                                                                                                                ",
"                                                                                                                                                                                                                                                                                                                                                                                                                                                                                                                                                                                                                                                                                                                                                                                                                                                                                                                                                                                                                                                                                                                                                                                                                                                ",
"                                                                                                                                                                                                                                                                                                                                                                                                                                                                                                                                                                                                                                                                                                                                                                                                                                                                                                                                                                                                                                                                                                                                                                                                                                                ",
"                                                                                                                                                                                                                                                                                                                                                                                                                                                                                                                                                                                                                                                                                                                                                                                                                                                                                                                                                                                                                                                                                                                                                                                                                                                ",
"                                                                                                                                                                                                                                                                                                                                                                                                                                                                                                                                                                                                                                                                                                                                                                                                                                                                                                                                                                                                                                                                                                                                                                                                                                                ",
"                                                                                                                                                                                                                                                                                                                                                                                                                                                                                                                                                                                                                                                                                                                                                                                                                                                                                                                                                                                                                                                                                                                                                                                                                                                ",
"                                                                                                                                                                                                                                                                                                                                                                                                                                                                                                                                                                                                                                                                                                                                                                                                                                                                                                                                                                                                                                                                                                                                                                                                                                                ",
"                                                                                                                                                                                                                                                                                                                                                                                                                                                                                                                                                                                                                                                                                                                                                                                                                                                                                                                                                                                                                                                                                                                                                                                                                                                ",
"                                                                                                                                                                                                                                                                                                                                                                                                                                                                                                                                                                                                                                                                                                                                                                                                                                                                                                                                                                                                                                                                                                                                                                                                                                                ",
"                                                                                                                                                                                                                                                                                                                                                                                                                                                                                                                                                                                                                                                                                                                                                                                                                                                                                                                                                                                                                                                                                                                                                                                                                                                ",
"                                                                                                                                                                                                                                                                                                                                                                                                                                                                                                                                                                                                                                                                                                                                                                                                                                                                                                                                                                                                                                                                                                                                                                                                                                                ",
"                                                                                                                                                                                                                                                                                                                                                                                                                                                                                                                                                                                                                                                                                                                                                                                                                                                                                                                                                                                                                                                                                                                                                                                                                                                ",
"                                                                                                                                                                                                                                                                                                                                                                                                                                                                                                                                                                                                                                                                                                                                                                                                                                                                                                                                                                                                                                                                                                                                                                                                                                                ",
"                                                                                                                                                                                                                                                                                                                                                                                                                                                                                                                                                                                                                                                                                                                                                                                                                                                                                                                                                                                                                                                                                                                                                                                                                                                ",
"                                                                                                                                                                                                                                                                                                                                                                                                                                                                                                                                                                                                                                                                                                                                                                                                                                                                                                                                                                                                                                                                                                                                                                                                                                                ",
"                                                                                                                                                                                                                                                                                                                                                                                                                                                                                                                                                                                                                                                                                                                                                                                                                                                                                                                                                                                                                                                                                                                                                                                                                                                ",
"                                                                                                                                                                                                                                                                                                                                                                                                                                                                                                                                                                                                                                                                                                                                                                                                                                                                                                                                                                                                                                                                                                                                                                                                                                                ",
"                                                                                                                                                                                                                                                                                                                                                                                                                                                                                                                                                                                                                                                                                                                                                                                                                                                                                                                                                                                                                                                                                                                                                                                                                                                ",
"                                                                                                                                                                                                                                                                                                                                                                                                                                                                                                                                                                                                                                                                                                                                                                                                                                                                                                                                                                                                                                                                                                                                                                                                                                                ",
"                                                                                                                                                                                                                                                                                                                                                                                                                                                                                                                                                                                                                                                                                                                                                                                                                                                                                                                                                                                                                                                                                                                                                                                                                                                ",
"                                                                                                                                                                                                                                                                                                                                                                                                                                                                                                                                                                                                                                                                                                                                                                                                                                                                                                                                                                                                                                                                                                                                                                                                                                                ",
"                                                                                                                                                                                                                                                                                                                                                                                                                                                                                                                                                                                                                                                                                                                                                                                                                                                                                                                                                                                                                                                                                                                                                                                                                                                ",
"                                                                                                                                                                                                                                                                                                                                                                                                                                                                                                                                                                                                                                                                                                                                                                                                                                                                                                                                                                                                                                                                                                                                                                                                                                                ",
"                                                                                                                                                                                                                                                                                                                                                                                                                                                                                                                                                                                                                                                                                                                                                                                                                                                                                                                                                                                                                                                                                                                                                                                                                                                ",
"                                                                                                                                                                                                                                                                                                                                                                                                                                                                                                                                                                                                                                                                                                                                                                                                                                                                                                                                                                                                                                                                                                                                                                                                                                                ",
"                                                                                                                                                                                                                                                                                                                                                                                                                                                                                                                                                                                                                                                                                                                                                                                                                                                                                                                                                                                                                                                                                                                                                                                                                                                ",
"                                                                                                                                                                                                                                                                                                                                                                                                                                                                                                                                                                                                                                                                                                                                                                                                                                                                                                                                                                                                                                                                                                                                                                                                                                                ",
"                                                                                                                                                                                                                                                                                                                                                                                                                                                                                                                                                                                                                                                                                                                                                                                                                                                                                                                                                                                                                                                                                                                                                                                                                                                ",
"                                                                                                                                                                                                                                                                                                                                                                                                                                                                                                                                                                                                                                                                                                                                                                                                                                                                                                                                                                                                                                                                                                                                                                                                                                                ",
"                                                                                                                                                                                                                                                                                                                                                                                                                                                                                                                                                                                                                                                                                                                                                                                                                                                                                                                                                                                                                                                                                                                                                                                                                                                ",
"                                                                                                                                                                                                                                                                                                                                                                                                                                                                                                                                                                                                                                                                                                                                                                                                                                                                                                                                                                                                                                                                                                                                                                                                                                                ",
"                                                                                                                                                                                                                                                                                                                                                                                                                                                                                                                                                                                                                                                                                                                                                                                                                                                                                                                                                                                                                                                                                                                                                                                                                                                ",
"                                                                                                                                                                                                                                                                                                                                                                                                                                                                                                                                                                                                                                                                                                                                                                                                                                                                                                                                                                                                                                                                                                                                                                                                                                                ",
"                                                                                                                                                                                                                                                                                                                                                                                                                                                                                                                                                                                                                                                                                                                                                                                                                                                                                                                                                                                                                                                                                                                                                                                                                                                ",
"                                                                                                                                                                                                                                                                                                                                                                                                                                                                                                                                                                                                                                                                                                                                                                                                                                                                                                                                                                                                                                                                                                                                                                                                                                                ",
"                                                                                                                                                                                                                                                                                                                                                                                                                                                                                                                                                                                                                                                                                                                                                                                                                                                                                                                                                                                                                                                                                                                                                                                                                                                ",
"                                                                                                                                                                                                                                                                                                                                                                                                                                                                                                                                                                                                                                                                                                                                                                                                                                                                                                                                                                                                                                                                                                                                                                                                                                                ",
"                                                                                                                                                                                                                                                                                                                                                                                                                                                                                                                                                                                                                                                                                                                                                                                                                                                                                                                                                                                                                                                                                                                                                                                                                                                ",
"                                                                                                                                                                                                                                                                                                                                                                                                                                                                                                                                                                                                                                                                                                                                                                                                                                                                                                                                                                                                                                                                                                                                                                                                                                                ",
"                                                                                                                                                                                                                                                                                                                                                                                                                                                                                                                                                                                                                                                                                                                                                                                                                                                                                                                                                                                                                                                                                                                                                                                                                                                ",
"                                                                                                                                                                                                                                                                                                                                                                                                                                                                                                                                                                                                                                                                                                                                                                                                                                                                                                                                                                                                                                                                                                                                                                                                                                                ",
"                                                                                                                                                                                                                                                                                                                                                                                                                                                                                                                                                                                                                                                                                                                                                                                                                                                                                                                                                                                                                                                                                                                                                                                                                                                ",
"                                                                                                                                                                                                                                                                                                                                                                                                                                                                                                                                                                                                                                                                                                                                                                                                                                                                                                                                                                                                                                                                                                                                                                                                                                                ",
"                                                                                                                                                                                                                                                                                                                                                                                                                                                                                                                                                                                                                                                                                                                                                                                                                                                                                                                                                                                                                                                                                                                                                                                                                                                ",
"                                                                                                                                                                                                                                                                                                                                                                                                                                                                                                                                                                                                                                                                                                                                                                                                                                                                                                                                                                                                                                                                                                                                                                                                                                                ",
"                                                                                                                                                                                                                                                                                                                                                                                                                                                                                                                                                                                                                                                                                                                                                                                                                                                                                                                                                                                                                                                                                                                                                                                                                                                ",
"                                                                                                                                                                                                                                                                                                                                                                                                                                                                                                                                                                                                                                                                                                                                                                                                                                                                                                                                                                                                                                                                                                                                                                                                                                                ",
"                                                                                                                                                                                                                                                                                                                                                                                                                                                                                                                                                                                                                                                                                                                                                                                                                                                                                                                                                                                                                                                                                                                                                                                                                                                ",
"                                                                                                                                                                                                                                                                                                                                                                                                                                                                                                                                                                                                                                                                                                                                                                                                                                                                                                                                                                                                                                                                                                                                                                                                                                                ",
"                                                                                                                                                                                                                                                                                                                                                                                                                                                                                                                                                                                                                                                                                                                                                                                                                                                                                                                                                                                                                                                                                                                                                                                                                                                ",
"                                                                                                                                                                                                                                                                                                                                                                                                                                                                                                                                                                                                                                                                                                                                                                                                                                                                                                                                                                                                                                                                                                                                                                                                                                                ",
"                                                                                                                                                                                                                                                                                                                                                                                                                                                                                                                                                                                                                                                                                                                                                                                                                                                                                                                                                                                                                                                                                                                                                                                                                                                ",
"                                                                                                                                                                                                                                                                                                                                                                                                                                                                                                                                                                                                                                                                                                                                                                                                                                                                                                                                                                                                                                                                                                                                                                                                                                                ",
"                                                                                                                                                                                                                                                                                                                                                                                                                                                                                                                                                                                                                                                                                                                                                                                                                                                                                                                                                                                                                                                                                                                                                                                                                                                ",
"                                                                                                                                                                                                                                                                                                                                                                                                                                                                                                                                                                                                                                                                                                                                                                                                                                                                                                                                                                                                                                                                                                                                                                                                                                                ",
"                                                                                                                                                                                                                                                                                                                                                                                                                                                                                                                                                                                                                                                                                                                                                                                                                                                                                                                                                                                                                                                                                                                                                                                                                                                ",
"                                                                                                                                                                                                                                                                                                                                                                                                                                                                                                                                                                                                                                                                                                                                                                                                                                                                                                                                                                                                                                                                                                                                                                                                                                                ",
"                                                                                                                                                                                                                                                                                                                                                                                                                                                                                                                                                                                                                                                                                                                                                                                                                                                                                                                                                                                                                                                                                                                                                                                                                                                ",
"                                                                                                                                                                                                                                                                                                                                                                                                                                                                                                                                                                                                                                                                                                                                                                                                                                                                                                                                                                                                                                                                                                                                                                                                                                                ",
"                                                                                                                                                                                                                                                                                                                                                                                                                                                                                                                                                                                                                                                                                                                                                                                                                                                                                                                                                                                                                                                                                                                                                                                                                                                ",
"                                                                                                                                                                                                                                                                                                                                                                                                                                                                                                                                                                                                                                                                                                                                                                                                                                                                                                                                                                                                                                                                                                                                                                                                                                                ",
"                                                                                                                                                                                                                                                                                                                                                                                                                                                                                                                                                                                                                                                                                                                                                                                                                                                                                                                                                                                                                                                                                                                                                                                                                                                ",
"                                                                                                                                                                                                                                                                                                                                                                                                                                                                                                                                                                                                                                                                                                                                                                                                                                                                                                                                                                                                                                                                                                                                                                                                                                                ",
"                                                                                                                                                                                                                                                                                                                                                                                                                                                                                                                                                                                                                                                                                                                                                                                                                                                                                                                                                                                                                                                                                                                                                                                                                                                ",
"                                                                                                                                                                                                                                                                                                                                                                                                                                                                                                                                                                                                                                                                                                                                                                                                                                                                                                                                                                                                                                                                                                                                                                                                                                                ",
"                                                                                                                                                                                                                                                                                                                                                                                                                                                                                                                                                                                                                                                                                                                                                                                                                                                                                                                                                                                                                                                                                                                                                                                                                                                ",
"                                                                                                                                                                                                                                                                                                                                                                                                                                                                                                                                                                                                                                                                                                                                                                                                                                                                                                                                                                                                                                                                                                                                                                                                                                                ",
"                                                                                                                                                                                                                                                                                                                                                                                                                                                                                                                                                                                                                                                                                                                                                                                                                                                                                                                                                                                                                                                                                                                                                                                                                                                ",
"                                                                                                                                                                                                                                                                                                                                                                                                                                                                                                                                                                                                                                                                                                                                                                                                                                                                                                                                                                                                                                                                                                                                                                                                                                                ",
"                                                                                                                                                                                                                                                                                                                                                                                                                                                                                                                                                                                                                                                                                                                                                                                                                                                                                                                                                                                                                                                                                                                                                                                                                                                ",
"                                                                                                                                                                                                                                                                                                                                                                                                                                                                                                                                                                                                                                                                                                                                                                                                                                                                                                                                                                                                                                                                                                                                                                                                                                                ",
"                                                                                                                                                                                                                                                                                                                                                                                                                                                                                                                                                                                                                                                                                                                                                                                                                                                                                                                                                                                                                                                                                                                                                                                                                                                ",
"                                                                                                                                                                                                                                                                                                                                                                                                                                                                                                                                                                                                                                                                                                                                                                                                                                                                                                                                                                                                                                                                                                                                                                                                                                                ",
"                                                                                                                                                                                                                                                                                                                                                                                                                                                                                                                                                                                                                                                                                                                                                                                                                                                                                                                                                                                                                                                                                                                                                                                                                                                ",
"                                                                                                                                                                                                                                                                                                                                                                                                                                                                                                                                                                                                                                                                                                                                                                                                                                                                                                                                                                                                                                                                                                                                                                                                                                                ",
"                                                                                                                                                                                                                                                                                                                                                                                                                                                                                                                                                                                                                                                                                                                                                                                                                                                                                                                                                                                                                                                                                                                                                                                                                                                ",
"                                                                                                                                                                                                                                                                                                                                                                                                                                                                                                                                                                                                                                                                                                                                                                                                                                                                                                                                                                                                                                                                                                                                                                                                                                                ",
"                                                                                                                                                                                                                                                                                                                                                                                                                                                                                                                                                                                                                                                                                                                                                                                                                                                                                                                                                                                                                                                                                                                                                                                                                                                ",
"                                                                                                                                                                                                                                                                                                                                                                                                                                                                                                                                                                                                                                                                                                                                                                                                                                                                                                                                                                                                                                                                                                                                                                                                                                                ",
"                                                                                                                                                                                                                                                                                                                                                                                                                                                                                                                                                                                                                                                                                                                                                                                                                                                                                                                                                                                                                                                                                                                                                                                                                                                ",
"                                                                                                                                                                                                                                                                                                                                                                                                                                                                                                                                                                                                                                                                                                                                                                                                                                                                                                                                                                                                                                                                                                                                                                                                                                                ",
"                                                                                                                                                                                                                                                                                                                                                                                                                                                                                                                                                                                                                                                                                                                                                                                                                                                                                                                                                                                                                                                                                                                                                                                                                                                ",
"                                                                                                                                                                                                                                                                                                                                                                                                                                                                                                                                                                                                                                                                                                                                                                                                                                                                                                                                                                                                                                                                                                                                                                                                                                                ",
"                                                                                                                                                                                                                                                                                                                                                                                                                                                                                                                                                                                                                                                                                                                                                                                                                                                                                                                                                                                                                                                                                                                                                                                                                                                ",
"                                                                                                                                                                                                                                                                                                                                                                                                                                                                                                                                                                                                                                                                                                                                                                                                                                                                                                                                                                                                                                                                                                                                                                                                                                                ",
"                                                                                                                                                                                                                                                                                                                                                                                                                                                                                                                                                                                                                                                                                                                                                                                                                                                                                                                                                                                                                                                                                                                                                                                                                                                ",
"                                                                                                                                                                                                                                                                                                                                                                                                                                                                                                                                                                                                                                                                                                                                                                                                                                                                                                                                                                                                                                                                                                                                                                                                                                                ",
"                                                                                                                                                                                                                                                                                                                                                                                                                                                                                                                                                                                                                                                                                                                                                                                                                                                                                                                                                                                                                                                                                                                                                                                                                                                ",
"                                                                                                                                                                                                                                                                                                                                                                                                                                                                                                                                                                                                                                                                                                                                                                                                                                                                                                                                                                                                                                                                                                                                                                                                                                                ",
"                                                                                                                                                                                                                                                                                                                                                                                                                                                                                                                                                                                                                                                                                                                                                                                                                                                                                                                                                                                                                                                                                                                                                                                                                                                ",
"                                                                                                                                                                                                                                                                                                                                                                                                                                                                                                                                                                                                                                                                                                                                                                                                                                                                                                                                                                                                                                                                                                                                                                                                                                                ",
"                                                                                                                                                                                                                                                                                                                                                                                                                                                                                                                                                                                                                                                                                                                                                                                                                                                                                                                                                                                                                                                                                                                                                                                                                                                ",
"                                                                                                                                                                                                                                                                                                                                                                                                                                                                                                                                                                                                                                                                                                                                                                                                                                                                                                                                                                                                                                                                                                                                                                                                                                                ",
"                                                                                                                                                                                                                                                                                                                                                                                                                                                                                                                                                                                                                                                                                                                                                                                                                                                                                                                                                                                                                                                                                                                                                                                                                                                ",
"                                                                                                                                                                                                                                                                                                                                                                                                                                                                                                                                                                                                                                                                                                                                                                                                                                                                                                                                                                                                                                                                                                                                                                                                                                                ",
"                                                                                                                                                                                                                                                                                                                                                                                                                                                                                                                                                                                                                                                                                                                                                                                                                                                                                                                                                                                                                                                                                                                                                                                                                                                ",
"                                                                                                                                                                                                                                                                                                                                                                                                                                                                                                                                                                                                                                                                                                                                                                                                                                                                                                                                                                                                                                                                                                                                                                                                                                                ",
"                                                                                                                                                                                                                                                                                                                                                                                                                                                                                                                                                                                                                                                                                                                                                                                                                                                                                                                                                                                                                                                                                                                                                                                                                                                ",
"                                                                                                                                                                                                                                                                                                                                                                                                                                                                                                                                                                                                                                                                                                                                                                                                                                                                                                                                                                                                                                                                                                                                                                                                                                                ",
"                                                                                                                                                                                                                                                                                                                                                                                                                                                                                                                                                                                                                                                                                                                                                                                                                                                                                                                                                                                                                                                                                                                                                                                                                                                ",
"                                                                                                                                                                                                                                                                                                                                                                                                                                                                                                                                                                                                                                                                                                                                                                                                                                                                                                                                                                                                                                                                                                                                                                                                                                                ",
"                                                                                                                                                                                                                                                                                                                                                                                                                                                                                                                                                                                                                                                                                                                                                                                                                                                                                                                                                                                                                                                                                                                                                                                                                                                ",
"                                                                                                                                                                                                                                                                                                                                                                                                                                                                                                                                                                                                                                                                                                                                                                                                                                                                                                                                                                                                                                                                                                                                                                                                                                                ",
"                                                                                                                                                                                                                                                                                                                                                                                                                                                                                                                                                                                                                                                                                                                                                                                                                                                                                                                                                                                                                                                                                                                                                                                                                                                ",
"                                                                                                                                                                                                                                                                                                                                                                                                                                                                                                                                                                                                                                                                                                                                                                                                                                                                                                                                                                                                                                                                                                                                                                                                                                                ",
"                                                                                                                                                                                                                                                                                                                                                                                                                                                                                                                                                                                                                                                                                                                                                                                                                                                                                                                                                                                                                                                                                                                                                                                                                                                ",
"                                                                                                                                                                                                                                                                                                                                                                                                                                                                                                                                                                                                                                                                                                                                                                                                                                                                                                                                                                                                                                                                                                                                                                                                                                                ",
"                                                                                                                                                                                                                                                                                                                                                                                                                                                                                                                                                                                                                                                                                                                                                                                                                                                                                                                                                                                                                                                                                                                                                                                                                                                ",
"                                                                                                                                                                                                                                                                                                                                                                                                                                                                                                                                                                                                                                                                                                                                                                                                                                                                                                                                                                                                                                                                                                                                                                                                                                                ",
"                                                                                                                                                                                                                                                                                                                                                                                                                                                                                                                                                                                                                                                                                                                                                                                                                                                                                                                                                                                                                                                                                                                                                                                                                                                ",
"                                                                                                                                                                                                                                                                                                                                                                                                                                                                                                                                                                                                                                                                                                                                                                                                                                                                                                                                                                                                                                                                                                                                                                                                                                                ",
"                                                                                                                                                                                                                                                                                                                                                                                                          _ E t Q ^ Q R R E ]                                                                                                                                                                                                                                                                                                                                                                                                                                                                                                                                                                                                                                                                                                                                                                                                                   ",
"                                                                                                                                                                                                                                                                                                                                                                                                    _ [ W E t u u i i u u u R ]                                                                                                                                                                                                                                                                                                                                                                                         (  .u E Q E ] +.                                                                                                                                                                                                                                                                                                                                                                                                        ",
"                                                                                                                                                                                                                                                                                                                                                                                                ) ^ ) o.o.3.4.2.Z v j j x J J u R                                                                                                                                                                                                                                                                                                                                                                                   t R E M y b M y y u E R Q )                                                                                                                                                                                                                                                                                                                                                                                                 ",
"                                                                                                                                                                                                                                                                                                                                                                                            ' [ _ +.6.4.Z v f c G F 4.t.8.v v y t t                                                                                                                                                                                                                                                                                                                                                                               t r i M k k 2 1 2 p j y u  .W W 6.                                                                                                                                                                                                                                                                                                                                                                                            ",
"                                                                                                                                                                                                                                                                                                                                                                                        ' ^ _ +.o.S Z v v k X , k v f.J Z G 2.v v u r                                                                                                                                                                                                                                                                                                                                                                           r t b x k 2 > 1 g k f f 2 2 g c M _ [ {                                                                                                                                                                                                                                                                                                                                                                                         ",
"                                                                                                                                                                                                                                                                                                                                                                                    +.E ) ' 6.` S Z N Z v v k : v v D G v v D G V b u E                                                                                                                                                                                                                                                                                                                                                                       t t y b v 2 , > , f f g 2 k f k x v M ( { =.=.p.                                                                                                                                                                                                                                                                                                                                                                                  ",
"                                                                                                                                                                                                                                                                                                                                                                                +.W W ' o.S N A Z v v v Z H v y ; k x c v v Z <.F x b E '                                                                                                                                                                                                                                                                                                                                                                   t t y l x k 6 6 2 k g x g k x k k x c v n N B y.6X} {                                                                                                                                                                                                                                                                                                                                                                               ",
"                                                                                                                                                                                                                                                                                                                                                                            ' W ~ ' +.8.o.H k l l z z v G X.v k 2 X , k k k C G G Z y u Q                                                                                                                                                                                                                                                                                                                                                                 E R a b v D v x l x l N X.2.F v l k x c c c l N H 6.u.i.} _                                                                                                                                                                                                                                                                                                                                                                           ",
"                                                                                                                                                                                                                                                                                                                                                                        *.^ ! ( o.5.5.5.N N 6 6 z v z 6 > : 1 > = : : k k k v Z x G v y Q +.                                                                                                                                                                                                                                                                                                                                                              R u k v 2.4.s.s.7.8.4.G 4.2.Z n l v c v c g v v n A X.4.p.u.{ [ i.                                                                                                                                                                                                                                                                                                                                                                    ",
"                                                                                                                                                                                                                                                                                                                                                                      Q ) ( ( o.5.5.X.P n z l k p > , k x 6 : + X X X , k k v Z x k Z y u r                                                                                                                                                                                                                                                                                                                                                             u r y x 7.8.2.G D x v k 2 k k n Z C v x k l k C n v n Z Z S 3.u.u.{ [ u.                                                                                                                                                                                                                                                                                                                                                                ",
"                                                                                                                                                                                                                                                                                                                                                                  Q / _ o.o.X.5.5.P S S S , 2 , : 2 2.N v z l 2 : = X = 2 k k v k k v z p t  .                                                                                                                                                                                                                                                                                                                                                          Q i y 7.C V Z D V Z 2 o X X : > k k x k z v l n v c v v v n n A 4.7.u.=.| p.                                                                                                                                                                                                                                                                                                                                                            ",
"                                                                                                                                                                                                                                                                                                                                                              ] [ { +.o.3.3.3.3.A n n A n : o % k 2.A k z v A 2 > 2 2 > : 1 , c p k l N p w r                                                                                                                                                                                                                                                                                                                                                         t u k 2.D V Z Z 2.k k f = k k k x v c k g k g v v v c k k k x c v v S 4.u.y.} {                                                                                                                                                                                                                                                                                                                                                           ",
"                                                                                                                                                                                                                                                                                                                                                          ' [ { 6.3.3.X.P S P A n n Z p 6 o 2 z v k p v v l G X , v G v 1 : 2 k p k k v z i t M                                                                                                                                                                                                                                                                                                                                                       R u <.F v v F D V Z k * f V V C V V c 2 2 c 2 C Z v c x k k k g k k v v Z 2.8.p.} |                                                                                                                                                                                                                                                                                                                                                       ",
"                                                                                                                                                                                                                                                                                                                                                        W { y.6.X.P P P Z S A Z N v k 2 2 6 z v l 2 6 l n v 2.1 v Z Z k 2 : g g x , k k z p b R                                                                                                                                                                                                                                                                                                                                                     t q f.Z G v V c x c , 2 x Z V Z D v c k , 2 g v G P Z c k g 6 6 g g k x x c v n ` 6.i.i.y.                                                                                                                                                                                                                                                                                                                                                  ",
"                                                                                                                                                                                                                                                                                                                                                    W | *.8.4.P P G A Z A S G N k , , 2 2 2 6 6 6 2 2 x n k n k v C C k 6 , : k 1 , p k k k b W '                                                                                                                                                                                                                                                                                                                                                   Q b v C D c V g g = : v V D G V f x g g f g k A 2.1.Z v l g 6 g g 6 g k k x x l v v 2.7.y.} i.                                                                                                                                                                                                                                                                                                                                              ",
"                                                                                                                                                                                                                                                                                                                                                _ | *.6.o.P P G A D Z Z Z Z v 6 p z v k , 2 2 6 v k 6 k v z 6 6 v v c k 6 6 : 1 > 2 2 6 6 z 2 t t                                                                                                                                                                                                                                                                                                                                                 E R J k V C x x f 1 = 2 , c D <.V v c k g g g k v C n v l x k 6 6 6 g k k k k x c c c v D 4.u.i.| u.                                                                                                                                                                                                                                                                                                                                          ",
"                                                                                                                                                                                                                                                                                                                                            y./ { 6.o.P P S A G D Z Z A c k g c Z Z v k 2 > : , 6 Z N k k p 2 p k k k k g g 2 : 2 , k l x z k w R                                                                                                                                                                                                                                                                                                                                                 t E z x C V k j k : = : : g f 2 v v v c g 6 v g Z v l v v c k 6 6 h 6 k k k x c c c c c v v Z 4.p.i.} p.                                                                                                                                                                                                                                                                                                                                      ",
"                                                                                                                                                                                                                                                                                                                                          ! } *.` H A S A A A C v z c 1 1 p v v v Z Z l 2 > , p 2 x N l l 2 2 k k g g 6 2 6 6 : > 6 k l v z S +./                                                                                                                                                                                                                                                                                                                                                 r u x g v k k c : X * * X = 1 1 = : 2 2 k v k v C v x v v x k k k k k k k k k c v v v v v v v n A 6.u.i.|                                                                                                                                                                                                                                                                                                                                     ",
"                                                                                                                                                                                                                                                                                                                                      _ } *.6.S A A G G A A n l l 6 : g k l p k z v v k , 2 2 2 2 k v l z o 6 v v g 2 2 2 2 2 2 1 g k x l n n o.-.a.                                                                                                                                                                                                                                                                                                                                              R y x g v f 2 * = * = < f g k v c : : 1 h g 6 G D x k k v x x k k k k k k k k c v v v v v v n v v v S 8.p.7X}                                                                                                                                                                                                                                                                                                                                 ",
"                                                                                                                                                                                                                                                                                                                                    [ =.+.` B N A G 1.F Z v 2 < = c C C g 2 1 , 2 l v k k k p 2 2 6 p p p X g Z c g 2 2 2 2 2 2 6 6 g c c v z m a.-.                                                                                                                                                                                                                                                                                                                                            t i y f k 2 1 : 1 f 1 1 f c x V C 4.D , : : X p A S v c k x l c x k x x k k k k x c v v v C n C Z n v v N ` 6.i.} p.                                                                                                                                                                                                                                                                                                                            ",
"                                                                                                                                                                                                                                                                                                                                ! } y.o.A A A A Z n v 2 1 = o 2 Z A x k g 1 1 > , k l 2 2 x x k 2 2 2 2 2 X > l k k 6 2 g g g g k 2 6 k x l l a 9.5Xa.                                                                                                                                                                                                                                                                                                                                          R y x g 2 g > 1 k G v 2 f D V v c Z P v 2 > X > p v v v v v v v x x x x x k k x k k x x v v v v v Z Z Z C n v o.u.i.}                                                                                                                                                                                                                                                                                                                           ",
"                                                                                                                                                                                                                                                                                                                            y.| i.' H N Z A A D v 2 : = = 2 g V v v g 2 , > 1 1 1 k x 2 6 k x x k 6 2 , : : > p k k k g g x k l v 6 1 , 2 k k 7 8 a.4X                                                                                                                                                                                                                                                                                                                                        t u x k g 2 x = 2 k D <.f 1 G Z v x x k c v l + > 6 l n Z Z Z C Z v k k x x x x k k k k k k x x c v Z D D D Z n N H 6.i.} u.                                                                                                                                                                                                                                                                                                                      ",
"                                                                                                                                                                                                                                                                                                                          ^ | 6.` N Z Z Z C n k 1 : : f 6 g 2 f k 2 2 2 , : 1 1 6 k 6 2 , 2 2 k p 6 2 , + k , g k v c 6 g k c v v k 1 > 2 7 5 q.$.m.4XK.                                                                                                                                                                                                                                                                                                                                    u r y c g f 2 : : g k Z D c f G C V k f k g x Z 6 2 6 2 6 p v Z G A Z l x x k x k x k k k g k k k x x v Z D D D D A C A X.u.=.}                                                                                                                                                                                                                                                                                                                     ",
"                                                                                                                                                                                                                                                                                                                      ) } *.' B v v Z Z v 2 , : : 2 k k 2 2 2 , 2 2 , , 1 1 1 , f 2 , , 1 1 > > 1 1 , > : 2 1 6 k k g k k k x V v v , > @ 5 r.b.G.S.rXqX                                                                                                                                                                                                                                                                                                                                    r M b g 2 1 1 1 k k x v C V 2 V c c c g g k 2 1 , 2 p k 6 > p z N n v v x x f v v x x k k k k 2 2 k x x x v D D Z Z Z Z Z H o.*.=.*.                                                                                                                                                                                                                                                                                                                ",
"                                                                                                                                                                                                                                                                                                                  ' | *.6.S v z v n v l g , > k v v 2 2 , , 1 , 2 2 , , , 1 1 2 2 , 1 1 > : : = : : : = 2 2 1 1 1 , f x k x c x k v a O U Y k.S.F.Y.Q.9XzX                                                                                                                                                                                                                                                                                                                                e u v c k g 1 : g f k k k c x f f V v 2 2 v k , 2 > , k z n v l 2 , k v v v x k x x x x x x x k 2 2 2 k k x x v Z D v Z Z n n v H 6.y.| y.                                                                                                                                                                                                                                                                                                            ",
"                                                                                                                                                                                                                                                                                                                ! } ' ` v l v n n Z v p , 2 x v Z v , 2 > > > 1 , , , , 2 , , 2 , 1 > : : : = = + + + X 1 c 1 1 1 1 2 g k x k k k 7 O e.#.l.H.Y.F.Q..XrX4X                                                                                                                                                                                                                                                                                                                              ( t y x x x g 2 , 2 k 2 f k k x 1 < Z k g D v k 2 , > 6 k n Z Z z x k > 1 2 g k v x k c v v v v v k g g k k g g x v Z Z v S Z z z k n ` y.=.[ u.                                                                                                                                                                                                                                                                                                        ",
"                                                                                                                                                                                                                                                                                                            ) | *.o.v k l l n N v l 2 > 2 l v v v k , , > > > 1 , , 2 2 2 2 2 f , > : : = X = = = + X X k C f = : : 1 > g k g > - 7 e.w.S.Y..X.XoXoXOXJ.4X                                                                                                                                                                                                                                                                                                                              ..i a x x k 2 g g 6 g 2 f k c c f 2 2 v c Z x 6 2 , > , l Z N n l k 6 g 1 > : > k k x k v v l D v x k k 2 2 f , 2 k c n N n Z N k k l k S 6.y.} }                                                                                                                                                                                                                                                                                                       ",
"                                                                                                                                                                                                                                                                                                        ' } *.+.B z p 6 6 6 l l , : > k x k 2 g k k 2 , > > > 1 , , 2 2 2 2 2 2 2 > : : : : : = = = = = 2.G C > > > - : , , > O O.e.G.+XOXmXmXmXmX%X%XoXC.a.                                                                                                                                                                                                                                                                                                                          ;.@.U 7 6 2 2 f x x k g f g f f C V f : k v v h 1 2 2 2 6 z n z l k 6 1 1 2 k x 1 = , 2 , 2 k x Z z k x x k 6 2 , , 2 k c Z Z n N l k l l l z X.+.y.} '                                                                                                                                                                                                                                                                                                   ",
"                                                                                                                                                                                                                                                                                                    +.| { 6.3.A z k , > 2 k p : > f x 2 2 2 , 2 f x g , , , > 1 , 2 2 2 2 2 2 2 , > : : : : = = + + = 1 G 8.F 2 + @ 5 5 O @ O A.b.G..XoXOXVXCXMXmX#X@XoXQ.5X                                                                                                                                                                                                                                                                                                                        V.<XV.e.8 > > 2 k V V k g k f k V f g 1 = 1 k g 6 2 g p p k n n p 2 : : > 2 x c v V 2 X : > > > , 2 2 p x x x k 6 , , 2 2 k v Z Z v k x k l l x k v P 6.i.| y.                                                                                                                                                                                                                                                                                              ",
"                                                                                                                                                                                                                                                                                                  ) =.+.` B v n k 2 : > 2 , > 2 x k 2 , > > 1 2 2 k k 2 , 1 1 , 2 2 k k 2 2 2 , , 1 : : : : : = + + = k <.G P 7 5.q.0.0.e.l.#.w.S..X%XOXmXmXCXmXmX#X@X%X!.:.rX                                                                                                                                                                                                                                                                                                                      1XK.F.k.0.4 - 6 v v c c k 2 x v x x f 1 : 1 g 2 g 2 k l k 6 k l 6 > > > > 2 x k x x x 2 : X X : , , 1 2 k x x x k 6 2 2 2 2 c v v x 2 k k b z l x l l v ` +.=.| u.                                                                                                                                                                                                                                                                                          ",
"                                                                                                                                                                                                                                                                                              ) } ' S N N n n l 2 : : > , k v v x f 1 > > : > , 2 2 f 2 , 1 1 1 , 2 f f 2 2 2 2 , 1 > > > : : = = X = k D v k 7 9.e.k.k.g.g.x.G..X%XmXmXCXMXCXmXmX#X%X%X!.9X9X                                                                                                                                                                                                                                                                                                                    5XtXQ.Y.n.$.e.4 7 n c V x k k f v x k 2 : = : 1 f k c v x p 6 6 k 6 , : : > , 2 k x x x 2 f 2 2 > : : : , 2 k k k x x k 2 2 , 2 k 6 2 , p k k z z v l z z l N X.+.} |                                                                                                                                                                                                                                                                                         ",
"                                                                                                                                                                                                                                                                                          ' | _ ( B A A v l l g : : , k v C v x k 2 1 : : : > , 2 2 2 2 , > > 1 , 2 f f 2 2 2 2 , , 1 1 > > : = = X : k x g l 7 L A.l.k.x.M.F..X%X%X%XmXMXCXCXMXMX%X%X%XT.V.1X                                                                                                                                                                                                                                                                                                                    <XrXoXOX.XS.w.e.5 l c h V x x f g 2 2 2 > = n + , x k k k 2 2 2 k k 2 : : > , 2 f k k k k f f 2 2 1 , = = > 2 g x x x x k f 2 f 2 1 : % , k x x v v v v z z v z N ` +.{ =.p.                                                                                                                                                                                                                                                                                  ",
"                                                                                                                                                                                                                                                                                      _ ^ ) ` S S N N n l k k > : 1 k v v v k f 2 , > : : : > , 2 2 2 2 , > > > , 2 f 2 2 2 , 2 , , , , , > : = = X : k k k g h m r.S.M.M.F.Q.XX%X%X%X%XMXMXMXMXMX%X#X%X`.V.2X                                                                                                                                                                                                                                                                                                                  5XrXoX%X&XmXXXF.l.U 4 7 h k x k g 1 1 : > @ I 5.+ + > : > 1 1 1 , 2 f 2 1 1 > , , 2 , 2 , , 1 f 2 2 k k k , > 2 2 k x v v x x k 2 2 : = : > 2 f k k x x z v v v v n Z Z X.+.} [                                                                                                                                                                                                                                                                                 ",
"                                                                                                                                                                                                                                                                                  +.) ) ] B S S Z v v l p 6 2 : : g v v k 2 , 1 1 > : : : : > , , 2 2 2 , > > , 2 f g f 2 2 2 2 2 2 2 , , 1 > = X X 1 6 g g k l l L }.H.D.I.Y.!.XX@X%X%X&XMXMXMXMXMX%X#X@XV.;.                                                                                                                                                                                                                                                                                                                a.tX~.oX*X&XVX%XOX.Xl.e.4 > 6 2 6 > : 1 > @ I |.|.@ + X ; : : > > > , 2 2 , 1 1 , 2 2 1 , , 1 < , 2 2 k v v x g 1 2 2 6 k v v c g , : X X > : , 2 2 2 k k x x x v D Z F G N S o.' =.{ u.                                                                                                                                                                                                                                                                          ",
"                                                                                                                                                                                                                                                                              ' [ | M a N A A Z v v l 6 : % = > f k 2 2 , > > > > 1 : : : : > , , , , , , , , 2 f g k 2 2 2 2 2 2 2 2 2 , , > = X + 7 7 7 6 k l k 8 b.}.Y.I.Y.!.XXXX%X#X%XMXMXMXMXMX%X%XI.C.2X                                                                                                                                                                                                                                                                                                                2XrX*X%X%X%XVXCX&XoX}.b.A.O 5 5 7 7 5 > 5 8 |.=X|.U @ + ; = : : > > 1 2 2 , , , , , 2 , , , : 1 1 , 2 x v v x k 1 : > , 6 g k k k , : X X X > , , , , 2 f 2 k k k k v v Z 2.X.n X.o.+.*.[ ! { y.                                                                                                                                                                                                                                                                  ",
"                                                                                                                                                                                                                                                                          _ [ { ( a N N N A Z n z k , % % : 2 g k k 2 > : : > 1 > > : : : : > 1 , , , 2 , , 2 2 f k k k k 2 2 2 2 2 2 2 2 , 1 : + @ LXq.5 7 h l l 6 8 |..X!.Y.Y.T.!.@X%X%X%X%XMX&X%X%X@X!.rX;.                                                                                                                                                                                                                                                                                                                ,XiX%X&X&XVXVXVXCXmX.XH.l.e.K T r.e.U K K b.Z.}.=X|.O + = = : : : : : 1 2 2 , , , 2 2 , , 1 1 1 1 2 g k V V x k k 2 : X ; > f k f , : X : : > 1 > > , > , 2 2 f 2 , , 2 k N G 7.8.N B ` ' +.y._ _ [ { y.u.u.p.7.                                                                                                                                                                                                                                                  ",
"                                                                                                                                                                                                                                                                  y.{ | [ ~ ( S P A N n n n v l 6 > % : , p k k k k 2 : : > 1 , , , > > > > 1 , , , 2 2 2 f 2 2 2 k x k k 2 g 2 2 f 2 2 2 2 , : @ 9.}.}.=X9 7 p y b O U +XQ.I.I.Y.!.!.XX@X%X%X%X%X#X@XXX!.C...                                                                                                                                                                                                                                                                                                              V.9XiXmXMXCXVXVXVXCXmX%XXXF.z.$.$.w.k.k.k.z.z.z.z.S.|.s + + = = = : : : , k 2 , 2 2 2 2 , , 1 1 1 1 2 g x k g f f f , , > ; = : , 2 2 ; X X X : > > > > > > , , 2 2 1 , 1 1 2 6 + X.X.v N N Z 3.3.P S H S ` ` ' { } | {                                                                                                                                                                                                                                             ",
"                                                                                                                                                                                                                                                          6.' =.{ ] ' u.` M B 4.P l z N n l l 6 : , 2 2 2 6 p k k 2 1 > : > 1 , , , , > > , , 2 2 2 2 2 2 f f f k k k x x x 2 2 g k k k k 2 2 7 8 H. X X X+X8 p t 5Xd 9 .XY.I.P.P.I.Y.XXXX#X#X#X@X@X`.!.!.V.,X                                                                                                                                                                                                                                                                                                              :.V.xXmXmXCXMXCXMXMXmXmX@X!.D.x.x.x.z.c.z.z.S.z.z.S.}.e.@ + = X : : : : , k 2 2 2 , , , , , 1 > 1 1 2 k x g 2 , 2 2 2 > > , 1 : : : : X X : : > 1 1 > : > > 1 1 1 , 1 > > 1 , 2 G 2 n v N n l A 3.G Z Z N Z H ` ` ` ( _ } *.                                                                                                                                                                                                                                        ",
"                                                                                                                                                                                                                                                    { 7X} { ( ` X.X.4.4.n n A P k l n 6 6 k 2 > , k 6 2 , 2 2 2 , 1 > > : > 1 1 1 1 1 1 , , 2 2 f g 2 f 2 k k g g g k x v v k 2 f f x x x k 2 6 m |. XR.E. X=X5 O.  &.V.J.Y.I.D.D.P.P.Y.XX#X@X@X@X@X!.!.!.V.2X                                                                                                                                                                                                                                                                                                              :.C.oX%XVXCXVXVXVXmX%X%XXX!.Q.D.N.n.n.c.c.c.c.S.z.S..X+X4 @ + : : : : > 1 1 , 2 2 2 2 2 , 1 > > 1 1 f k g f , , 1 1 1 : : 1 g k 2 : X X X : : : 1 , : : : > 1 1 1 1 , 1 > : , , : A S k z k 2 z 4.A v C C Z Z Z Z A G X.o.' | i.                                                                                                                                                                                                                                    ",
"                                                                                                                                                                                                                                                { 7Xi.+.] +.o.H n S 4.P k k k > l N 6 , k > : 6 l k , > : > > > > > : : : > 1 , 1 1 1 1 , , 2 2 2 2 2 2 k k k 6 k k x x v v x k g g x c c x k 6 s r. XR.E.R. XeX    l.V.F.I.P.D.D.D.P.I.!.!.!.@X@X@X`.@XXXV.1X                                                                                                                                                                                                                                                                                                              :.^.oX%XMXMXMXMX&X%X%X%XXXT.Q.I.P.D.D.P.D.D.S.D.H.n. X+X8 @ + : = : = > > 1 , 2 2 2 2 2 , 1 > > 1 f g g f f 1 > > > : : > k x k k 2 : X X : = : > , > : > > > 1 1 , 2 1 1 : 1 1 l , 2 p x 6 2 v Z l x v v v C Z D D G G S X.' _ | u.                                                                                                                                                                                                                                ",
"                                                                                                                                                                                                                                            { 7X{ M 8.8.n N N n l N P S 6 7 n m S 6 l > > 2 k n x p > > : : : > : > : > > 1 1 , , 1 1 1 , , 2 2 2 2 2 k k k k k k x x x x x x k g g x v v v l k z L }.T.R.E.R.C.:.Y.a.V.F.I.P.D.P.Y.T.T.!.!.@X@X@X`.`.&XW.:.eX                                                                                                                                                                                                                                                                                                              ;.^.!.%X%X%X%X%X%X%XXX!.T.T.Y.Y.T.Y.Y.Y.F.F.F.c.+XS. X Xl.4 + = : < 1 , 2 1 , 2 2 2 2 2 , , 1 1 1 f g k f 2 1 : : > > > > f f 2 k 2 , = X X X = > , > > > , > > 1 2 2 2 1 1 1 : : A k 2 k , 2 P Z 6 k k k k x v C A G G G P 3.o.o.{ [ u.                                                                                                                                                                                                                            ",
"                                                                                                                                                                                                                                        y.=.{ ( 8.4.D G A z l l l N G 3.6 , m n > > o 2 , l l p 6 2 , > : : > > 1 > > > > , , 2 , > > , , 2 g k k k 2 2 k k x x x x l l v v v v x x x v v v v v n m e. XT.E.E.I.V.V.C.F.I.I.D.D.Y.T.XXXXXX#X@X@X`.T.&X`.B.<X                                                                                                                                                                                                                                                                                                                ,X^.!.#X&X%X&X&X#XXX!.Y.I.I.I.D.D.Y.Y.Y.Y.Y.D.D.n.T. X X=XO @ = < 1 1 1 2 2 2 2 6 g 2 2 , 1 , 1 1 f f f 2 , 1 : : : : : > , f k k 2 2 > : X X X : : : : > , k k k g g 6 2 > > 1 : : , , 6 % 2 4.S 2 2 6 g 6 g k x c v Z G P 3.X.o.o.' ) {                                                                                                                                                                                                                           ",
"                                                                                                                                                                                                                                      ! } ( 8.X.2.4.G N z p k 6 p N P 4.k 6 6 7 + > z 2 k l k 6 2 , , > > > > > , > 1 1 1 , , 2 , , 2 2 g g k k k k k k k x x x c v z v v Z Z v v v c v v Z C Z v n 8 H. XR.R.U.P.I.I.I.I.I.P.I.!.XX@X@X@X@X@X!.U.U.GXF.>.0X                                                                                                                                                                                                                                                                                                                :.iXW.@X#X#X&X#XXX!.Y.P.D.D.N.c.c.D.I.Y.!.Y.Y.D.v.P.T. X+X9 @ : 1 2 1 , , 2 2 2 2 6 2 2 , , 1 1 1 2 f f 2 , > : : : : : > , , , , , > > : : X X X X X : 1 2 k k k k h g 6 2 > 1 k l 6 , > + 2 G n 2 , 6 g k k x x k k x v Z G 2.2.2.P ` ~ W                                                                                                                                                                                                                         ",
"                                                                                                                                                                                                                                  _ 7X_ 6.6.X.X.1.F Z z k 6 2 , , v P 3.Z > z + k A S n l k g 2 2 , , , 1 1 1 1 1 1 > 1 1 , , , 2 , 2 6 g k g k k x k k l z z l l z v v v v v v v v v n Z Z A A v n m s }. XT.R.I.I.I.I.T.Y.Y.XXXX%X%X%X%X%X!.T.U.`.$Xj...                                                                                                                                                                                                                                                                                                                  >.yX~.@X@X@X@X`.T.P.D.D.F.D.P.D.n.D.D.XXXX!.Y.I.P.@XR.P. XT - 1 2 2 1 2 2 6 f g g k g 2 , , 1 1 1 , 2 2 , 1 1 : : : : > 1 > > > > > > 1 , > : X X X o X : > 2 g k l k k 6 6 2 > k P p , + + S 2.x , > , 2 g l n Z Z Z c c v v Z G 3.X.Z M ] W                                                                                                                                                                                                                       ",
"                                                                                                                                                                                                                                W _ 6.5.4.X.G A A C v l p , > : : z A 2.n l n P 3.A n k 6 6 2 2 2 , , , 1 1 , , , 1 1 1 , 2 2 2 2 2 g g k k k x l c z v v v v n v n v n n n v v v v v n N Z G G n n n m Y H. XY.Y.I.U.T.!.XXXXoX%X%XmXmXmX%X#X@XW.NXC.;.                                                                                                                                                                                                                                                                                                                    K.qXJ.@X@X@X@X@XT.I.I.D.P.D.I.P.D.N.D.XX@XT.!.!.E.R.R.R.Y.0.7 2 g g 2 2 2 2 2 2 g g 2 2 2 2 , , , , 2 2 1 : : : > : > > , > > : : : > 2 f , , : = X X X X % : > 6 6 6 2 6 6 > > 2 2 6 : + + Z P k > 2 1 1 2 k c n Z G F Z v v v v Z S A z B _ ]                                                                                                                                                                                                                     ",
"                                                                                                                                                                                                                              W { 6.3.3.G n A n v v v k 1 : > : % l P P A 7 n c l 6 , > 6 6 6 6 2 2 , , , , , , , , , , , 2 2 k g k x c k k k l v v v v v v v N N Z n n v n v v v v v n Z D Z n c c C S I 5.e.S.F.I.Y.!..XoXoX%XmXmX%XmXmX%X%X@X$X^.;.~.                                                                                                                                                                                                                                                                                                                      1XrXU.@X@X@X@XT.!.Y.I.D.D.I.I.I.P.N.I.@X@X@XE.R.R.R.R.P.T 7 f g 2 , , 2 2 2 g k k 2 g f 2 , , , 2 2 2 , > 1 > 1 > > > 1 1 > > : 1 > 2 2 p k 2 1 : : : : X X + z p h > , > > , % + o X + 2 z v , : 2 k 6 g x x c v v C A A Z v c z v n n Z o.Q                                                                                                                                                                                                                     ",
"                                                                                                                                                                                                                            W ) ` A P Z n C n v c V x 2 , > > : % k n 3.P + : k 6 2 6 6 6 6 2 6 2 2 , , , , , 2 2 2 , 2 2 k k x x c v v c k k k c v v v v v v n N N v v v v v v v v l v n n n c C 2.G C S I U T .XY.XX%X%X%X%X%XOXoXmXCXCXMX&X&XHXj.^.                                                                                                                                                                                                                                                                                                                          hXC.W.@X@X@X@X@XQ.I.D.N.P.P.I.I.P.N.P.R.R.R.E.E.E.R.+XK 7 g g f k y g g 2 k k k g g g , 2 2 2 2 , , 2 2 , 1 > > > > 1 1 1 < : : > , p 2 f 2 , > : > : : : + + @ k n 6 > > , % > l 2 X z Z v , : g 2 2 6 x c v v V V n n v F F n x l l n 3._ _                                                                                                                                                                                                                   ",
"                                                                                                                                                                                                                          ! ! B S Z n v V v v v V v h 2 , : : % : p P d.4.p n k 2 2 6 6 g 6 6 6 2 2 2 , , 2 2 2 2 2 2 2 k k k x c v v v v k k k v v v v v z v v v n v v v v v v v z l v v v c Z 3.l l n a a s 0.z.M.D.Y..XoX%XVXmXCXCXCXKXKXVXKX~.rX                                                                                                                                                                                                                                                                                                                            V.qXiX@X@X@X%XoX.XQ.I.I.P.D.I.P.I.P.P.R.R.E.E.E.E.T.e.8 k x x k k g g 2 k k x x k 2 2 2 2 2 2 2 2 2 2 2 , 1 1 1 1 1 1 1 : : : : : : , 2 2 2 , > : > 2 > 1 > - + o . & 6 6 6 n 2 k : 6 A G l : : , 2 k c c V Z C V Z Z Z v l k Z Z v h h 3.( Q                                                                                                                                                                                                                   ",
"                                                                                                                                                                                                                        ~ ! B A n v c v v v c v v c f 2 1 1 > o > k 2.t.P 6 6 l v v l h g g g g g 2 2 2 2 2 2 2 2 2 k k x x x c v v v v v c l c c c v v v v v v n v v v v v v v v v n N C 6 6 2.l z n m 5 Y q.w.z.N.D.P.I.Y..XoXoXmXMXCXMXCXVXCXCXBXAX                                                                                                                                                                                                                                                                                                                            :.qXuXmX%X%X%XoXXX!.Y.Y.I.I.I.P.T.R.R.E.E.E.E.T.H.L a k x x x k k g k x x k 2 6 p k k x 2 2 , , 2 2 2 , 1 1 1 1 1 1 1 1 : : : : : : > 1 , : : : > 2 g k g 2 : + + + + % % 6 l > : v 3.G p = : , > g x Z Z Z D Z Z Z Z C n c g k l 6 h C X.~ (                                                                                                                                                                                                                 ",
"                                                                                                                                                                                                                      _ [ M n n v c c v v c v v v v 2 2 2 , , o , k P s.3.: C 2.G c 6 6 6 g g g g g g g g g g g 2 k x k x v v v v v v v v v v v v v v v v v v v v v v v v v v v v v v z l k 2.v 6 k 8 7 U e.w.x.c.N.N.P.I.Q.!.oX%XmXmX%X%X%X%XMXMXcXBXhXcX                                                                                                                                                                                                                                                                                                                          9XqXcXmX%X%X%X%X%XXX!.Y.T.T.T.R.R.E.E.E.E.E. X#.m l k x c c x k g k v v x g 2 p k l g 6 f 2 f g 2 2 , , 1 1 1 1 1 1 1 : : : : : 1 : 1 1 > : : : 1 g k c 6 > + + % + + + % . . , D 3.A , X X > , g x k x V v C v v v v v n c k k k h A B B t                                                                                                                                                                                                                 ",
"                                                                                                                                                                                                                    *.^ ' z N v c x v c c c V Z C v k k 2 2 k X > k X.d.n 6 G A l 6 1 6 g g h g k k k k k k x k k x x x v v v v v v v v v v v v v v v v v v v v v v v v v v v v v z k k l v G n A 5 7 Y e.k.x.v.c.N.D.I.Y.XXXXoXoX%X%X%XmXmX%X%X%X#X#XiXhXyX                                                                                                                                                                                                                                                                                                                          rXyXnXOX%X%X%X%X%X@X!.T.T.T.T.R.E.E.E.E. X}.L n v c v v c k k x x c v x k p k k k k 6 f 2 g k 2 2 , , 1 1 1 , 1 1 1 : : : = : : : : 1 > > > > 1 2 2 2 6 6 > > > % + o o l 2 k G P n : X X = : , k x x v c c v v v v v c c x g 1 c 1.A N u )                                                                                                                                                                                                               ",
"                                                                                                                                                                                                                  -.! ] 7.2 n c c v V V v V D G G v V k x 2 v o X k 2.7.n 6 v 1 2 6 6 k g k g g p k k k k x x v c v v v v v v v v v v v v v v v v v v v n n n v v v v v v v v v z l p 6 z 3.l N n 7 s b.z.x.c.D.N.N.P.P.!.@X%XXXoXoXoXoXoXoX%X%XoXoX%XNXBXqXBX                                                                                                                                                                                                                                                                                                                          +XyXcXOXmXCXMX%X@X!.T.T.T.U.-XE.R.R. X}.Y m v v v v v x k k x v v v v x k k l k 6 g g f k k k 2 2 , 1 1 1 , 2 1 1 1 > 1 1 1 1 : : : : : : > 1 2 , , 2 , 2 > , , 6 l + l 6 l G P v : X X X X = 1 f x x x c v v x c l x k k k > k Z G n a d =.a.                                                                                                                                                                                                          ",
"                                                                                                                                                                                                                -.=.M 3.S k l c k v Z D C Z D <.G V D v c 2 v X X x G d.v > : 6 6 6 6 h k k k g k k k k k x c v v v v v v v v v v v v v c c v v v v v v n C C v v v v v v v v z l l l , Z z 3.A a 7 b.k.z.c.D.P.P.T.T.T.@X@X%X%X%X%XoXoX%XoX%X%X%X%XVXCXCXBXfX                                                                                                                                                                                                                                                                                                                          mXBXcX%XmXCX%X%X%X@X!.T.Y.P.v.R.R.T. XT s z v Z D J v c x x v v v v v v l l k k k k k k x k k k g 2 2 , 1 2 2 2 1 1 1 > 1 1 1 1 > > > > > 1 2 , 2 2 , > > > > 6 p z A k , A 2.A k : X : > = : 2 x v V v c v c c k k k k x v 1 g Z n c l m a.3X3X                                                                                                                                                                                                        ",
"                                                                                                                                                                                                              i.6X( z S z 6 l k l v Z D Z D G <.D C Z V k 2 , X X p v 4.G P l 6 2 , 6 6 k k k k k k x x x c v v v v v v v v v v v v v v c l c c v v v v v v v v v v v v v l z k k k 6 z Z n z m s q.0.k.c.P.I.P.P.T.T.`.%XXX%XMXXX%XOXmXoXoXmX%X%X%X%XCXCXcXyXBX                                                                                                                                                                                                                                                                                                                    yXAXBXZXVXmXMXCXCX%XoXXXXX!.T.v.P.R.P.}.9.8 k k v F G D v v l v v N v v v N z l z l k k k k k k x x k g f 2 2 2 2 2 2 2 1 1 1 1 1 1 1 1 > > 1 1 2 2 2 2 , 1 > > 2 2 6 6 % : + 5.3.n g : X : : : 1 1 k x V g k x g k g 2 2 2 x x 1 2.S v p 7 L q.a.a.5X5X                                                                                                                                                                                                    ",
"                                                                                                                                                                                                            5Xa.q.m n N n k l v v v C V F <.<.<.Z Z Z v k 2 1 X : p k 8.7., n > > , 6 k k k 6 g k k k x x v v v v v v v v v v v v c c c l x c c c c v v v v v v v v v v v l k k k 6 2 N N n m s s r.k.c.N.I.I.I.T.T.T.#X!.#X%X%XXX.X%XmXoXoXmX%X%X%X%XCXCXOXBXzX                                                                                                                                                                                                                                                                                                                  2XBXZXKXKXMXMXCXCXVXCXmX%X%X!.P.n.D.D.H.U m 6 k c C P D Z C v v Z n v N v v l z z n v l x k k k k x k x x g 2 2 2 f f 2 2 2 , , , , , , , , 1 1 2 2 2 2 2 2 , , > , 6 6 , 6 n l s.7.Z 6 = o X : 1 , 1 k x v V v x x x g g 2 , , 2 2 8.5.v x 7 I q.e.A.A.K.4X4X                                                                                                                                                                                                ",
"                                                                                                                                                                                                        K.4Xa.a.O.8 6 A A k l v c x Z D D 2.1.<.V V V V v j k : X 2 v d.d.l l : > 2 6 k k k g 2 g k k x x c v v v v v v v v v c c c c l x x x x c c c v v v v v v v l l c x l 6 6 , v l z l a @ e.k.$.v.N.P.P.P.T.!.XX@X@XXX%X%XmXoX%X%X%XOXOX%X%X%X%XCXmX+XZXzX                                                                                                                                                                                                                                                                                                                tXyXZXCXKXVX%XoX%XCXCXCXmX%X%XoXN.D.D.Z.L m P z 6 x v Z P A N v n v N Z Z N n n N C n n v v v c l l k k k k g f 2 g g f 2 2 2 2 , , 2 2 2 1 2 1 2 2 2 6 2 2 6 2 , > > > 6 , A 6 z d.7.Z 2 : o 2 1 : 1 2 x V Z V x x k x k g f , , , : G G k 6 7 I 9.q.r.l.Z.K.tX4XzX                                                                                                                                                                                            ",
"                                                                                                                                                                                                      qX4XK.r.e.5.s 7 S n g C g V V x V V 2.2.F Z Z v v v k v 2 % p v 7.7.+ + 2 > > 2 6 6 p 2 2 g k k x x x v v v v v v v v c c c c l l x l x l l l l c v v v v c c l c l l k 2 2 6 v 2 6 6 5 5 A.h.g.g.c.I.P.D.Y.T.&XXX%XXXXX.XmX.XmXOX%X%XoXmXOXOXmXmXmXG.mXyX                                                                                                                                                                                                                                                                                                                tXZXCXKXCXVXCXCXCXVXKXCXMX%XXX!.I.D.z.#.m N z 2.v k v Z Z S Z Z v v v v v v v v N N C n v v v v v v c x x v c x k k g g g 2 2 2 , 2 2 2 1 1 2 2 2 2 g 6 g g g 2 2 , 1 > 6 p 7 6 P s.4.z 2 + X 1 , > k g v Z G D Z v x v c k f 2 2 , = Z Z 2 2 7 I q.9.e.w.l.H.J.rXtXfXBX                                                                                                                                                                                        ",
"                                                                                                                                                                                                    5X9XK.m.e.r.q.5 > C k g x k v V V V V D G <.G Z v x k 1 X X . : v 7.7.> : 6 > > 2 6 2 g 2 2 6 p k k x v v l v z x v v x v c c c c c l l c x k l x c v v v c l l l x l k g 2 > k , , p , @ r.w.g.h.h.v.P.P.N.I.T.&X%X#X%X@XQ.mX.X%XOXOXOXOXmXOXOXVXVX%XG.cXtX                                                                                                                                                                                                                                                                                                                tXZXCXCXCXCXMXVXVXCXmX%XoX!.Q.F.I.c.l.s 8 k Z x 3.v k v N N n v z z v n Z Z n C n n n n z l n n n c k k l n V c c k k h 6 k k , 2 2 2 2 2 2 1 2 f 2 6 g g g 2 2 2 1 2 6 l 2 S > P 7.3.7 : X X 2 2 2 v V C G <.Z C v C D V k k g k > > 2.v > > @ 5.9.e.e.l.Z.Z.G.J.cXyXhXyX                                                                                                                                                                                      ",
"                                                                                                                                                                                                  fXeXH.Z.z.A.e.q.@ > 2.g 2 x x k v V V V C <.<.D V v x k 1 = X X > k 7.7.6 k > > > 6 6 2 6 2 6 2 p k k k x l l v z x v x l v v v c c c c c l l l x l l v v c l x k k k k 6 2 > : k 2 2 2 & 5 r.k.x.h.v.c.P.P.N.n.@X@XXX&X%X%X!.mXoXOXoXOXOX+XmXOXmXCXCX%XQ.+XyX                                                                                                                                                                                                                                                                                                                tXCXCXVXCXVXVXCXmXmX%XoX!.I.F.D.N.x.l.8 7 k l c N G l z Z v z z z z n n n n n v n n n z n n n n v c x k v Z Z v c c l l x k k 6 2 g 2 2 f 1 f 2 2 f 2 g k k g 2 2 2 2 2 l A k > 4.d.P 6 X o 2 x k c x C Z G <.D Z Z F v v Z v k g 2 6 2.: + + . r.e.A.m.l.Z.S.S.F.Q.OXcXyXfXSX                                                                                                                                                                                  ",
"                                                                                                                                                                                              yXqXeXJ.S.Z.b.A.e.q.@ > G v 1 x k k k c f c D <.1.G D v v k 2 > : X > k 8.4.k 6 : > > 2 6 2 6 2 2 2 k k k k x x x x x x x x l c v v v c c c c c l x x x l c c l k k k g k k 6 2 > > k 2 2 , & @ #.k.h.x.v.n.D.P.P.P.T.@XT.%X#X%XXXoX%XXXoXOXOX.XmXOXmXCXCXoXQ.J.eX                                                                                                                                                                                                                                                                                                                tXmXKXVXVXMX&X%X%X%X%XXX!.Y.Y.D.N.c.k.e.7 7 6 l v 8.z v v v v z l v N n v n n n z n n c n n v l l l k v v v v v c v l k k k g 6 2 2 2 , g f f f f g g g g g g g 2 2 1 2 6 l 6 : 4.7.C h + o g f k V Z D D D <.<.G D V Z v x v v k : C 7.2 + + A q.r.l.l.l.Z.Z.z.S.Q.oXxXxXBXlXgXZX                                                                                                                                                                              ",
"                                                                                                                                                                                            yXhXrXG.G.G.S.m.l.e.q.m @ 6 S , k k x 2 g f x C D <.G D Z v k k 2 > X : k 5.4.c > : > > 2 2 2 6 2 2 2 k x x v c x x x x k x k x l x l l c c c c c l l k x x c c l k k g g g 6 2 > : 2 p p 2 , + @ e.k.g.v.c.v.v.N.D.P.T.@X!.#X!.%X!.%XXXoXoXoXOXoXOXmXmXVXmX.XH.9XrX                                                                                                                                                                                                                                                                                                                tXmX&X&X&X#X%X%X%X%X%XXX!.Y.I.D.N.c.c.0.U 7 7 v x 2.N k z n Z N z n n z v l z n n z z z n n n n c c l c c c l v c c c c l v k k 6 6 2 2 g g g g g g g g g k k g 2 2 2 2 > % + 7 3.4.c l + o 1 1 2 x V D D D <.1.2.G V Z x v x k 2 2 Z 4.X + . 5.e.r.l.l.Z.H.G.Q.F.Q.Q.!.oXVXMXZXhXhX                                                                                                                                                                            ",
"                                                                                                                                                                                          jXyXJ.^.Y.Y.S.Z.Z.l.e.9.I O + 2.1 g 2 g f f g x x x V F G Z V c x k 2 X : , P 4.6 + + > > 2 6 6 6 2 2 2 k k x x k k g k x x x k x k k x l l c c l x k k k k x l l k k k g g g 6 2 : % l 6 6 2 > @ O r.k.h.x.c.v.c.D.I.I.T.T.T.#XQ.XX%XoX%XOXoXOXoXOXOXmXmX%XmX.XK.;.                                                                                                                                                                                                                                                                                                                eXyX&X%X#X#X%X%X&X&X&X%X#XXX!.I.D.D.N.x.g.A.s 7 l l k 5.l 6 v n n v v z v z n n n n c n n n m v n v n n C n C c c c v c c v c v v c k k h g g k k g g g g k k k k 2 2 2 , 2 6 A N 5.n l 6 : + > 1 g c V V D D <.<.1.V Z x V V g g 2 , Z 2.X O @ q.e.b.z.z.Z.S.Z.H.G.Q.W.Q.!.oXmXNXcXyXhXZX                                                                                                                                                                        ",
"                                                                                                                                                                                      yXfXBXxXoXXX.XQ.F.M.Z.e.e.9.O.@ O A 2 2 2 f f f k k x V x v D Z v v v x f > : 2 n 4.> o = > > 2 2 6 2 2 2 2 2 2 k x x k f g k k k k k k k k k k k x k k k g g g k k x x k g 2 g 6 2 > % + k 6 p 2 2 + 4 A.k.x.c.N.c.n.D.P.I.T.T.T.!.!.XX%XoX%XoXOXOXoXoXOX%XmXxXcXV.-...                                                                                                                                                                                                                                                                                                                qXyXMX&X%X%X%X@X%X%X#X%X%XXX!.Y.P.D.N.c.x.k.A.4 7 k l Z S k z z v v v l z n n n n n n C n n m z n n n n n v v v x c v c c v c v v v c k l k k k k k g g g k k k g 2 2 2 , 6 l & 5.d.A l h + + 6 6 c C C D V <.<.G D V V V x c k k > 1 2.D X . L q.e.e.l.Z.S.H.G.+X.XoX~.~.~.oX#X#XvXvXsXtXgX                                                                                                                                                                      ",
"                                                                                                                                                                                    yXjXBXxX#XoXoX.XQ.Q.H.Z.l.e.0.#.7 O l v 1 1 f f f f k g x D V V Z Z v k k k 1 : > G d.k > > > > > , , , , 2 2 g g k k k f 2 2 2 2 g g g g g g g g g k k g g 6 6 6 g k x k g g 2 2 6 2 2 > : k k k 2 + + 5 A.%.x.c.v.v.N.P.P.I.T.T.T.!.XXXXXXXXXXoXOXOXOXoXoX%XxXiXeX2X<X                                                                                                                                                                                                                                                                                                                  1XBXMX&XMX%XXXXX#X#X%X#X%X%X#XY.Y.Y.n.c.c.x.w.r.7 l A S P n z k k n n v v n n n n v v Z n n n n n v n n c v v n c v v v v v v v v v n c x x c k k k g g k x x k 2 2 , : : , z 7 t.s.n h : + v l k v c V D <.2.<.C v V x Z k k k x 2 2 G k o . q.9.e.e.l.S.Q.Q.Q.oXQ.Q.!.%XMXvX#X#X#XNXvXnXBXjXBX                                                                                                                                                                  ",
"                                                                                                                                                                                  gXlXnXvX#X#X!..X.XQ.G.G.H.Z.m.r.e.I O 6 A = 1 1 1 f f k c V D C Z D D C f g f 1 + : A s.2 z > > > > > , , , 2 2 2 f f k g 2 2 2 2 2 2 f 2 6 2 2 2 g g k k g 2 2 2 2 2 g k g 2 2 2 2 , > = : = c A S v 2 % @ r.g.h.v.c.v.n.N.P.I.P.T.T.T.XXXX!.oXoXOXOXoX%XoXOXcXrX4XeX                                                                                                                                                                                                                                                                                                                      1XBXVXVX%X%X%X%X%X%X%X%X#X#X@X!.I.n.P.I.P.x.x.w.L 7 m l v A p k v v l z z l z n n n n Z n n n n n c n C v l c v l v v v c c v v v v n v l k c k g g g 2 g k k k 2 2 , 1 > o + @ t.7.z l + = > < g c v v v D <.<.F x k x x f k v k 1 Z G X X 5 5.9.e.l.Z.G.G.G.G.Q.Y.!.%XmXMXNXmX#X#X#XMXNX#XcXyXfXBX                                                                                                                                                              ",
"                                                                                                                                                                                gXBXnXNXbX$X#X!.~..XQ.F.H.H.H.Z.Z.A.q.@ & 4.= : X : f f k x V V Z v Z D V k g 1 = : % v s., : > > : > > > 1 , , 2 2 2 2 2 2 2 , 2 2 2 2 f 2 2 2 2 2 2 g g g g 2 2 1 1 2 g k k 2 > : 2 v c k : + > : > : X o O A.%.h.h.v.v.v.P.P.P.T.T.T.!.!.Q.Q.~.xXxXoXoXoX+XiXtX1XBX                                                                                                                                                                                                                                                                                                                        ,XyXVXMX@XVX%X*X&XoX%X@X@X#X!.@XT.T.Y.N.P.D.c.k.A.8 m S P n a k k l l z v v v n z n n n n n n n c n v l c c l c n v C v v v v n n C C x c c x k f f g g g k k 2 2 2 , 1 , : + 6 d.3.l 1 + + X : 2 x v V D <.<.D V x 2 f 2 f k f f > D x . @ I q.e.b.Z.S.H.H.H.Q.oXoX#XvXvXvXbX#XvX'.`.#X$X#XvXnXdXjXyX                                                                                                                                                            ",
"                                                                                                                                                                            BXgXBXMXbXGXGXbX#X#XoXoXQ.G.H.H.H.Z.A.A.q.m . 4.6 > 1 2 g k c V D C V V V v v x x 1 1 1 : 1 4.x + + : > : : : > : 1 , , 2 2 , 2 2 , 2 2 , , , , 2 2 , , 2 2 6 6 2 1 1 > : : : > 2 g 2 > = = = : = X g 2 1 = + + @ A.$.$.g.%.j.j.j.V.V.9X9X9X9X8X9X9X9X9XeX9XqXqXtX5XeX                                                                                                                                                                                                                                                                                                                            :.yXmXMXXXmXmXOX%X%XmX@X#X%X@X@X@X@XP.T.Y.Y.c.x.k.#.m m n m n 6 l z v l z v v n v l v n n n n n k l z l k l c c v v v v v v v n n C v x v x x x g 2 f 2 g k k 2 2 , > > > 6 : z d.3.6 6 o X : : 2 x v V F D <.V x g f f g g f 2 2 2 G : . @ q.A.A.Z.S.G.G.G..X.X%XXX#X#XbXbX'.'.#X'.vX'.$XvXvXNXMXvXdXfXAX                                                                                                                                                        ",
"                                                                                                                                                                          jXjXBXvXvXbXbXbXbXbX'.~.Q.Q.Y.S.S.S.z.A.A.r.O.O l G : f k k x V Z D Z V V v V V v k f 2 2 = = Z : > 2 : > : : : : : > 1 , 2 f k f 2 , , , , 2 f 2 , , 2 2 2 2 2 1 : : + = : 1 g k > = = = 1 , 1 : : X , 2 2 1 + @ O q.%.&.;.;.....;.>.V.rX                                                                                                                                                                                                                                                                                                                                                          eXyXCXCXmXmXOX+X%X%X%XMX&X%X@X@X&XT.T.T.I.I.N.D.x.e.s a N n N 7 p 6 c c c l v v n v v n n v v l c k c n l x v c v v v v c v v v v v c l c c k x g 2 2 , k k k 2 1 1 1 > > , 6 P 7.P 6 : o + 2 g g x c Z F D v x g g j f f f k < 1 c Z X . I r.A.Z.Z.H.G.G.G.Q..XXX!.#X$XbXbXbX'.'.'.'.bXbXbXbXbXNXNXvXiXyXtX                                                                                                                                                      ",
"                                                                                                                                                                        jXdXnX$X$X$X$XvXbXbXvX~.!.I.I.Y.F.H.G.H.Z.A.e.9.5 . 3.2 f k k k v V V v v v v v V v v k g k : X 2 l % , : : : : > > 1 1 1 , 2 f k f , > : : : > 2 , , : X : > , l c k 2 6 2 : + : > : : 1 1 2 2 1 > : : > 2 y 3 # 0 0 w @.%.m.                                                                                                                                                                                                                                                                                                                                                                          4XBXmXmX%XOXOXOX%X%X*XXX@X%X&XT.@X`.I.I.I.D.x.g.l.Y 5 a m l l , 2 k x c x l v v c v v C n v v c l l l v v v l c v l x c x v v c v v x v c g g g g g 2 2 k k , , > > > > : p P t.n 6 + o 1 l l c c v Z C V V v x x k g 2 1 1 < < F G . @ q.r.l.k.Z.G.H.H.G.Q.Q.oX#X#X#XbX$X$X$X'.'.'.].bXvXvX$XbX$XbXMXnXBXfXyX                                                                                                                                                  ",
"                                                                                                                                                                    BXhXdXsXNXvX'.'.'.$XvXbXbXvX#XoXoX!.Q.Q.G.H.Z.l.0.q.I . l C : , 2 2 x v v v v v Z C Z V V c x g 1 = > G : : + : : : > > 1 > > , 2 2 k f 2 , : = : X : k c k 2 : X = : : : : > : : 1 2 2 1 > 1 1 1 , 1 > 1 : 3 y w e # i                                                                                                                                                                                                                                                                                                                                                                                     9XyXZX&X%XoXOXOX*X%X%X!.XX%X@X@X@X!.P.P.Y.P.x.g.k.l.4 7 7 6 n , 2 6 l l x l c l l v v v v c c v k k c c v v v v n v v c l l x x l l x g k k x g f f 2 2 2 2 2 , 1 1 1 : + : 2.8.k 6 + + k c k k v Z V v Z Z C x f f f , : = : * 4.: . I e.l.Z.H.G.G.G.G..XoXoX%X#X#X$X#X'.'.$X$X'.'.'.].'.$XvXvX'.$XbXNXnXBXyXtXZX                                                                                                                                              ",
"                                                                                                                                                                  hXyXnXvXbX$X#X'.`.'.'.`.'.vX#X#X~.oX%XoXoX.XG.H.m.$.0.O.@ @ C X = 1 1 2 v v V V V Z C Z Z v v c k 1 = + Z X : = = : = = : : : : , 2 2 , : : 1 1 1 > > : + X : : : = : > 2 2 1 > : : : 1 1 : > 1 > 1 $ $ 0 0 e r # B                                                                                                                                                                                                                                                                                                                                                                                             4XyXmXmXoX+XmX%X%X&X*X@X%X@X@XT.T.P.P.P.P.v.x.g.w.#.5 7 k 6 z 2 6 h l x k l k l z v v v v c v l l l c v c l v v c x g k v v c c c k x x k k x k g 2 2 , 2 2 , , 1 > : o 6 P 7.n , + : 6 g g l v Z Z V Z V V c k k g , , 2 1 V G . @ 9.e.w.Z.S.H..XoXoX%X%X!.!.@X!.W.`.'.'.'.$X'.'.'.'.bX'.vX$X'.$XvX$XvXNXNXBXtXtX                                                                                                                                            ",
"                                                                                                                                                                jXdXnXNXbXbXvX#X'.'.'.'.`.`.'.!.W.I.!.!.Q.G.G.G.H.Z.w.0.#.L . : Z X 1 1 2 x v v v v C Z V V x Z c 2 : = X k o = = = = X : X X X : 1 , 2 2 , , > : : : : 1 2 , > : > > : > 2 2 1 : > > > > > 1 1 1 : i 0 e e w M                                                                                                                                                                                                                                                                                                                                                                                                   eXqXZXmXOXOXOX%XOXOXOX*X*X%X@X@X!.N.P.P.P.v.c.g.k.9.4 5 6 6 n > 2 6 k k k k k x c v v n v l l x c c c v l c v v c v l v c k k k x v v n c k k g g k 2 2 2 2 , 1 > > , 6 k 4.s.z + X : : 1 k v Z Z Z C V V V Z V x k k k x < 4.+ O I 9.0.k.H.H.Q.Q..XQ..XQ.I.U.`.#X$X`.$X'.`.$X'.'.bX$X'.'.'.bX'.bXFXFXbXNXMXnXiXyXhXBX                                                                                                                                        ",
"                                                                                                                                                            wXfXdXvXbXbXbXvX$X'.'.'.'.'.`.'.'.'.!.W.!.~.~.Q.Q.G.H.Z.l.w.e.#.@ . C g : 2 g k x x k v C Z Z V v Z k > : = X X c X = = = : > , , > : : : : : : : : : : : 1 > , 2 , 1 : : : : 1 1 1 1 > 1 1 1 , 3 3 0 q 0 w                                                                                                                                                                                                                                                                                                                                                                                                             9XyXcXOXOXOXOXOXOXOX%XXX*XXX!.T.P.I.n.v.v.v.x.g.w.4 5 6 6 6 h > 2 g k g k k k x c c k x c x l c l l x k l l x k l l l x k x k g k k l x k k k g 2 2 2 2 , , 1 > > , 2 X 3.7.2 + > > > 2 x c c x c v V v v v v x k x k 1 v P . @ O.$.w.z.S.S.H.Q.oXoXoX#X#X#X#X'.`.`.`.`.'.$X'.bXbX'.bXFXbX$XbXbXFXFXbXbXNXbX#XvXxXyXfXyX                                                                                                                                    ",
"                                                                                                                                                          tXlXnXvXbX$X$XbXbXbX$X'.].].'.~.`.'.#X#X'.#X#X~.Q.M.m.x.l.k.w.w.#.L O : P 2 6 g g g k k c C D Z Z C c , : = : = : k , 2 : = : > > 1 > : > : : : > > > > > > > 1 , 1 1 1 > > > : 1 2 1 1 1 1 1 > 3 0 r # M                                                                                                                                                                                                                                                                                                                                                                                                                   4XtXrX+XOXOXOXOXOX*X%X*XXX!.T.Y.Y.n.n.v.v.x.x.z.4 4 7 6 6 l > 1 g g k 6 g k x x c k p g g h k l l x x k x k k k k x k k k k k 2 k x k k g 6 2 2 , 1 > : : > > : + = k Z Z = X , 2 , k x v v v v v V v v x x k f 1 1 X n X O L #.0.k.z.S.H.S.S..XoX#X'.#X'.'.W.W.'.#X$X$X'.'.$X'.'.bXbXbXaXvXbXFXFXGXGXbX$X$X#XvXuXiXyXtXBX                                                                                                                                ",
"                                                                                                                                                      yXfXdXnXGXbXbX$XvXbXbXbX$X'.'.'.$X'.!.`.'.#X#X'.!.!.#XQ.S.z.m.%.$.$.#.#.4 . n n 2 2 2 1 f k k V Z Z c 2 , 1 , 1 1 : X = g 2 6 : > 1 , , 1 1 , , > 1 1 1 1 > > 1 1 , , 1 1 1 > > > 1 1 3 3 w w 0 q q 0 #                                                                                                                                                                                                                                                                                                                                                                                                                           eX4XtXeXeXeXeXeXeXeXeX9XK.0XV.V.V.m.m.M.N.x.l.9 4 7 6 6 v > 1 2 f g g 6 k x x x k 2 2 2 g h k x x k k k g g g k k k g 2 2 g 6 k k g 6 2 2 2 , 1 > : = = : : 1 k c = D 2 X > , k x v v v Z v Z V V v C k k 1 = 1 = g 6 . @ O.$.w.k.k.z.Z.m.F.oXoX!.'.'.'.'.W.`.NX$X$X'.'.'.'.'.'.'.'.vXvXvXbXFXJXHXHXFXbXvXvX$X'.'.~.cXyXqXBX                                                                                                                            ",
"                                                                                                                                                    tXyXBXnXNXNXbXbXbX$X$X'.'.'.'.'.'.$XvX'.`.`.`.'.`.W.W.I.I.Y.F.S.Z.k.$.$.#.K O . A 2 1 2 f f g x x f f 1 f 2 f g g l g : X g 2 2 k k j 2 y 2 2 2 2 , 1 2 2 > > > 1 1 , , 2 1 1 2 , 3 3 w e q r e 0 w                                                                                                                                                                                                                                                                                                                                                                                                                                       rXyXzXzXzXrXeX9X9X<X<X,X2X2X;.>.j.m.h.l.K 4 + 1 v k 1 > 1 2 , , 2 2 k x k 2 , 2 2 2 g g k x x 6 2 2 2 2 g 6 6 2 , 1 6 2 2 g 2 , 2 1 1 2 1 > : : : : > 1 : = : G : X : 2 k v x v Z J J V v c x x k f 2 1 : = G o O Y #.#.$.$.k.S.H.Y.Q.!.!.!.!.!.W.'.#XbXbXbX$X$X'.'.'.'.'.'.'.$XFXFXGXJXJXGXJXFXFXbXFXGXbX$X#X~.uXrXqXyX                                                                                                                          ",
"                                                                                                                                                yXgXdXnXNXNXGXGXbXvX$X'.'.'.'.'.'.'.'.'.bXbX#X`.`.`.W.W.W.I.U.Q.F.M.z.k.$.#.#.Y 5 O > k : 1 1 1 2 = X 2 f f f k g x h l k , 3 $ w 0 t q # # # q q e e e q q q q q q q q q q q q q q e 0 0 $ M                                                                                                                                                                                                                                                                                                                                                                                                                                                                               %.&.@...-.-.# # # w B b : : : : > 2 2 2 k k 2 1 , , 2 2 2 g k k 6 2 2 2 1 2 2 2 1 2 2 2 2 2 g g g 2 , 1 1 > > : : : : : ; $ $ $ p o X % 1 k v Z x v Z Z Z V c v x x k k g > Z h O @ #.#.$.w.k.S.M.S.Y.Y.Q.U.Q.!.!.`.`.#XNXbXbX$XbX$X'.'.$XbX'.'.FXFXGXFXFXGXGXJXGXGXFXFXGXFXbXbXbX#X#XxXrXqXyX                                                                                                                      ",
"                                                                                                                                              qXyXdXnXNXGXGXGXGXFXFX$X'.'.'.'.$X'.'.'.$XbXbX$X'.`.`.!.W.W.!.Q.Y.F.z.z.k.$.$.$.U U 4 O z 2 = = : : = : f k x x k x x x k f y y e e # i                           u u i w w w w w w                                                                                                                                                                                                                                                                                                                                                                                                                                                                                                     &.i w q r r t # # 3 3 : 1 , p 6 p , : o o X , 2 g 6 2 2 1 , 2 2 1 2 2 1 1 2 2 2 2 f g k f 1 , > > : : > : % $ # 0 q t w $ $ ; : : : 2 v v Z D Z v x f 1 2 g f g g 2.O O Y U #.#.$.k.Z.z.M.Q.Q.Q.!.Q.Q.!.!.!.'.$XbX$X$XbX'.'.bXbXbX$X'.'.bXFXGXGXJXGXFXHXFXFXJXHXJXGXFXbXNXMX#XuXrXeX4XrX                                                                                                                  ",
"                                                                                                                                          yXfXdXnXbXFXGXGXGXGXGXFXGXFX'.'.'.$X$X'.$X$X$X$XvX$X`.!.`.W.W.U.I.Q.Q.Q.D.M.z.l.w.$.#.U L @ . l : + = = = 1 2 f k k k k j y u t R # M                                                                                                                                                                                                                                                                                                                                                                                                                                                                                                                                                                   z y $ o $ # 0 0 e q q q 0 # # 0 w y a y y , 1 : : : : = : = : : 1 1 1 f , 1 3 3 $ # # 0 q q q 0 # $ x     y $ r e q w i 3 : , k v v x k x f , 1 > 2 D = . L U #.$.$.k.z.S.S.F.Q.Q.Q.T.I.!.Q.U.!.'.'.$X'.#X'.'.'.'.].bX'.'.'.bXFXGXGXFXFXFXFXFXFXJXJXJXJXJXGXNXNXNX#X#X~.iXeXfXrX                                                                                                              ",
"                                                                                                                                        tXyXsXnXGXJXHXGXFXbXFXFXFXGXbXbX'.'.'.'.'.'.$X$X$X#X'.`.W.W.W.I.L.L.L.I.I.M.z.x.z.k.w.#.#.U m @ O 6 = + = = < 1 1 2 g k y i r q u                                                                                                                                                                                                                                                                                                                                                                                                                                                                                                                                                                                             M u w 0 q r r q q 0 0 # $ o $ 3 ; ; ; > : : : > 3 1 3 y y 0 q e q # w u                     u r e R e i y 2 f > : , f 2 2 , : k 6 o 7 U U $.$.k.k.z.z.M.D.D.I.I.I.Q.!.Q.Q.!.#X`.'.'.'.'.'.'.'.].'.'.'.bXbXFXGXbXbXbXbXFXFXFXGXJXJXJXJXGXbXbXbXNXvX#X~.^.rX9XyX                                                                                                            ",
"                                                                                                                                    yXgXBXMXNXHXGXHXJXFXFXbXFXFXFXFXbX$X'.'.'.'.'.'.'.'.#X'.'.`.!.W.W.W.W.L.L.N.N.M.z.z.z.k.w.$.T U Y s @ - 6 > o + > : $ 3 w q r w                                                                                                                                                                                                                                                                                                                                                                                                                                                                                                                                                                                                                     Z J X o o o # q q q 0 0 0 # 0 0 # # # $ a                                         ` 0 r e w w $ ; ; : : = > n . . s Y T #.%.k.k.k.z.M.F.F.F.I.T.U.`.Q.!.`.'.`.#X'.'.'.'.'.FXFX'.'.'.bXbXFXFXFX'.bXbXbXbX].bXFXFXJXJXJXGXbXbXvXvXvX'.`.~.~.0X4XdX                                                                                                        ",
"                                                                                                                                  tXyXdXnXbXGXHXHXHXHXbXbXbXbXFXFXFXbX$X'.'.'.'.'.'.'.'.#X'.'.`.!.!.!.`.W.I.L.N.I.D.D.M.S.S.k.$.$.#.U Y L 5 @ l h X : $ 0 e q t                                                                                                                                                                                                                                                                                                                                                                                                                                                                                                                                                                                                                                                                                                                 M e 0 q # 3 X X ; v o . 5 L T #.$.w.l.z.S.H.H.F.D.F.I.I.W.!.!.!.#X#X'.$XvX'.$X'.FXFXbX'.'.'.vXvXbXbX$X'.bXbX$X$XaXbXbXbXFXFXJXGXbXaX'.vXbXvX'.'.~.^.rXqXdX                                                                                                      ",
"                                                                                                                              tXqXdXnXNXbXJXHXHXJXHXFXbXbXbXbXbXFXFXbXbX'.'.bXbX'.'.$X$X$X#X'.'.'.`.!.W.W.U.L.B.N.B.D.M.x.z.k.w.$.#.T U U Y m 7 & w t w 3                                                                                                                                                                                                                                                                                                                                                                                                                                                                                                                                                                                                                                                                                                                             b 0 0 q q e 0 o a I U T #.$.k.l.z.S.S.M.M.M.M.I.!.!.!.!.'.'.`.`.'.'.'.'.'.'.FX'.'.bXbXbXvXbXbX'.bXbXbX$X$XbXbXbX'.aXbXFXGXbXpXaXvXGXbXvXvX'.!.~.iXqXqX                                                                                                    ",
"                                                                                                                            tXtXiXnXNXbXGXHXHXHXHXFXFX$XbXbX$XbXbXbXbXvX'.'.'.bXbX'.'.'.'.'.'.`.'.`.!.W.W.U.I.B.N.N.D.D.x.k.k.k.$.$.$.#.9.U U I B ! (                                                                                                                                                                                                                                                                                                                                                                                                                                                                                                                                                                                                                                                                                                                                         u ] t Q ,.O.#.#.#.$.w.k.k.k.c.F.I.Q.!.#X!.Q.W.Q.W.!.`.`.'.'.'.`.].'.bXbXbXFXbX'.'.bXbX$X$XbX$X$X$XFXFX'.[.].aXaXbXvX'.aX'.'.vX'.aXvX'.'.pXiX0XqXdX                                                                                                ",
"                                                                                                                          fXyXxXvXNXbXGXHXHXJXFXFXFXbX'.bX$X$XbXbXbXvXvXaX'.'.'.'.'.'.'.`.`.'.'.`.!.!.W.W.W.W.!.W.Q.Q.D.c.c.z.k.$.$.$.0.9.#.O.,.~                                                                                                                                                                                                                                                                                                                                                                                                                                                                                                                                                                                                                                                                                                                                                     ~ @.@.&.$.%.w.k.z.c.M.I.Q.I.Q.!.~.W.W.W.W.!.`.`.`.'.'.].'.bXbX$XbX'.'.'.bXbXbX'.'.$X$X].].'.'.].'.'.aXaXbXbX'.aXaX'.aX'.'.vX`.'.'.`.~.iX0XfX                                                                                              ",
"                                                                                                                        1XwXiXvXNXbX'.bXHXJXGXbXbXbXbX'.$XbXbXbXbXbXaX'.aXaX$X$X$X`./.`././././.W.W.`.W.W.!.W.W.N.N.I.I.D.D.M.m.z.l.w.0.#.@._ _                                                                                                                                                                                                                                                                                                                                                                                                                                                                                                                                                                                                                                                                                                                                                         @./ @.%.k.z.z.M.F.F.I.N.N.I.Q.!.~.'.!.~.W.!.`.`.'.'.'.'.'.'.'.'.bXbX'.'.bX'.'.].bX'.'./.'.[.[.).'.FXbXFXFXbXFXaX$X$XbXbXpX'.aXaX'.'.'.^.rXqXBX                                                                                          ",
"                                                                                                                    rX4X0XuXnXNXbX'.'.FXJXFXbX'.'.bXbX'.$XbXFXbXaXaXaXaX'.'.'.$XbX'.`.`././././.W.!.`.`.`.`.`.!.W.W.I.M.D.M.M.m.x.k.0.&.@./ >.                                                                                                                                                                                                                                                                                                                                                                                                                                                                                                                                                                                                                                                                                                                                                              ,...>.a.m.M.M.M.N.I.!.`.#X#X#X`.~.'.`.`.`.`.'.'.'.].'.'.'.'.bX'.'.'.'.'.).'.'.'.'././.'.].$XFXFXFX].].'.).).].bXFXbX'.'.'.'.'.'.'.'.~.iXtXAX                                                                                        ",
"                                                                                                                  rX4XyXiXpXpXbXaX'.'.bXbXFX$X].'.aX'.'.$X$XbX$X'.].].'.].'.'.'.'.'.'.'././.`.`.!.!.`.`.`.#X`.!.!.I.F.N.D.S.M.m.l.w.$.@./ a.                                                                                                                                                                                                                                                                                                                                                                                                                                                                                                                                                                                                                                                                                                                                                                    ..-.a.M.H.Y.I.I.I.Q.U.U.'.'.`.`.'.'.`.!.`.'.`.'.'.'.'.#X'.'.'.vXaX'.'.'.'.'.`././.`.).).'.)././././.).).].aXbXvX'.'.$X'.'.'.aXvXvX~.iXwXhX                                                                                      ",
"                                                                                                                wX4XrXpXpXaX'.bXbXbXbXaXFXGXFX'.'.'.'.'.'.'.'.'.].'.]./.].].'.'.'.'.'.'.'./.`.`.`.'.`.'.#X'.U.U.I.F.F.F.F.H.F.S.l.%.-.-.                                                                                                                                                                                                                                                                                                                                                                                                                                                                                                                                                                                                                                                                                                                                                                          >.-.>.m.I.F.I.I.I.I.I.W.'.W.'.'.'.`.`.'.'.`.'.'.`.`.'.'.'.$XvX].[.'.'.'.`.`.W.W././.W.).'.)././.).'.'.'.'.'.$XbX'.bX'.'.'.'.'.'.'.#X^.rXqXlX                                                                                  ",
"                                                                                                              wXqXdXpXpX'.aX'.'.'.'.'.].bXGXFX'./.'./.`.'.'.'.'.'.bX'.).).].'.`.'.'.'.'.'.'.`.`.`.`.`.`.'.L.I.I.I.F.F.F.Y.H.F.m.%.;.,X                                                                                                                                                                                                                                                                                                                                                                                                                                                                                                                                                                                                                                                                                                                                                                                ..>.C.I.D.N.N.L.L.I.W.!.'.!.'.`.'.'.'.'.$X`.W.`.'.'.'.'.'.'.'.`././.`.W.{.W./.'./.'.'.'.'./.'.].'.].'.].$XaX'.'.`.).].bX].bXvX'.'.uXiXwXjX                                                                                ",
"                                                                                                            qXqXiXpX'.'.'.FXaX'.'.'.).).'.[.'.].`././.'.'.'.'.'.).'.'.'.).'.'.'.`.`.'.'.'.'.'.`.`.!.`.`.W.W.L.I.F.F.I.Y.Q.F.M.%.;.eX                                                                                                                                                                                                                                                                                                                                                                                                                                                                                                                                                                                                                                                                                                                                                                                    >.;.C.^.I.I.I.I.!.!.!.`.`.~.`.'.$X$X$XbX$X`./.$X$X].W.L.W./.W.W././.{.{.'.'.'.`.'.'.'.'./.'.$X'.'.FX$X].].'.'.'.'.'.'.'.bX].'.'.pX'.uXdXfXdX                                                                            ",
"                                                                                                          wXwXiXpX'.'.].aXaXaX].'.'.)./././.`./.'.`.W./.'.'.'.'.'.'.'.'.'.'.'.'././.'.'.'.'.'.'.'.`.!.`.!.!.I.I.I.I.Y.Q.Y.B.%.;.5X                                                                                                                                                                                                                                                                                                                                                                                                                                                                                                                                                                                                                                                                                                                                                                                        :.;.V.^.I.I.I.I.I.I.W.W.'.bXbX$X$X'.'.$X'.'.'.'.W.U.U.W.'./.`.'.'././.'.'.'./.`.'.`.`./.'.$X$X'.$XFX$X'.)./.).].bX'.'.bX).'.'.W.'.'.uXdXtXjX                                                                          ",
"                                                                                                        qXwXsXaX'.].aX].].aX].aX'.'.).).].].'././.`.W.U./.`.'.`././././.'.$X$X'./.`.'.'.'.'.#X#X'.`.W.U.I.I.I.Y.!.Y.Q.Q.S.V.:.9X                                                                                                                                                                                                                                                                                                                                                                                                                                                                                                                                                                                                                                                                                                                                                                                            V.;.V.J.Q.Q.Q.I.I.U.W.`.'.$X$X$X'.'.$X'.'.`.`.`.'.'.'.'.bX'.'.'.'.'.'.'./.W.`.'.`./.'.'.'.$X].'.].$X).)./.).].FXFX'.].aX].aXaXaXaXvXvXuXyXfXjX                                                                      ",
"                                                                                                      qXyXsXvXvX'.).].].'.].].].].'././.'.'.'.'.'.'./.W./.`././.W.{.L.L.U.`.'.`.`.$X'.'.'.'.$XvX'.W.I.I.I.I.I.Y.!.XX!.F.m.,X9X                                                                                                                                                                                                                                                                                                                                                                                                                                                                                                                                                                                                                                                                                                                                                                                                  ;.9XJ.!.Q.Q.!.!.W.!.!.`.$X'.'.$X$X].`.$X#X'.'.bX'.'.$X'.`.`.`.'.'.'./.W././.W.W.`.'.'.`.'.'.].'.aX].).).[.].].].].aX).].'.'.FX'.#XvXvXiXyXgX                                                                    ",
"                                                                                                  dXfXiXsXvXbX'.].).'.'.'.'.'.'.'.].)./.).'.`./.`.'.'.'.'.'.'.'.'./.W.W./.`.'.'.].'.'./.W.'.#X'.!.!.Q.Q.W.Q.!.XXXXoXI.V.:.V.                                                                                                                                                                                                                                                                                                                                                                                                                                                                                                                                                                                                                                                                                                                                                                                                      ;.<X0X^.#X!.!.Q.Q.!.'.'.#X$X'.].].$XGXGXbXbX$X'.'.'.'.'.'.'.'.'.`.`././.W.W.W.`.'.'.`.'.'.].'.'.].].aXaX].].].[.].].].).].].'.$XbXbXvXvXdXgXSX                                                                ",
"                                                                                                rXqXiXpXbXbXbX$X].'.'.].].'.bX'.aXaX'././.).'.W./.'.'.'.'.'.'.$XbX'.].'.].'.$X$X$X$X$X$X'.'.'.!.!.`.!.Q.!.!.#XoXXXI.V.,XrX                                                                                                                                                                                                                                                                                                                                                                                                                                                                                                                                                                                                                                                                                                                                                                                                          eX2XV.~.oXQ.Q.Y.Q.!.`.'.'.'.$X$X].'.$X$X$X$X'.].'.'.'.'.'.'./././.'.`.`././.'.$X]./.`.FX$X'.).].].].).].].FX].].].).]._.].'.'.'.].$X#XpXdXyXjX                                                              ",
"                                                                                              hXhXiXaX>XbXbX>X].'.'.`.'.'.'.'.'.'.'.]././././././.'.'.'.'.'.'.'.'.'.].].'.bXbX$X$X$X$X'.'.'.'.`.Q.I.I.Q.!.#X#XoXF.V.,XJ.                                                                                                                                                                                                                                                                                                                                                                                                                                                                                                                                                                                                                                                                                                                                                                                                                ;.:.rX^.Q..XoX!.~.'.'.$X$X$X].'.$XbXHXHXFXFX$X'.'.'.'.'./.W./.'.'.'.'.'.$XbX'././.'.`.'.'.FX].[.[.]._.JX[.[./._.]._.].[.].].].].].'.'.uXdXgXAX                                                          ",
"                                                                                            hXwXiXpXaX$XbX$XbX].].].].].'.'.'./.W.'.'./.W./.W.W.W.`.`.'.'.'.'.].`.`.].$XbXbX$X].'.$X$X$X'.'.`.!.!.Q.W.!.!.'.'.J.V.,X                                                                                                                                                                                                                                                                                                                                                                                                                                                                                                                                                                                                                                                                                                                                                                                                                      <X2XrXuX%X#X!.!.!.U.I.L.U.W.W.`.'.bXGXFXFXbX'.'.'.'.'.`.W.'.'.'.'.'.'.].].`./.`.].].].].aX[._.].[.].DX].].).].].].].].aX].].).).'.'.'.uXiXhXhX                                                        ",
"                                                                                          fXdXpXaX'.'.$X$X$X'.].].].'.[.'.[.'././.'.'.'././.`.`.`././.`.'.'.'.'.'.'.FXGXGXGX$X'.'.'.`.`.`.!.W.W.!.`.'.#X'.~.C.8X<X                                                                                                                                                                                                                                                                                                                                                                                                                                                                                                                                                                                                                                                                                                                                                                                                                            2X<XrXxX!.!.Q.#X#X#X'.'.'.'.$XFXGXHXFXbXbX'.].'.'.`.`.'.'.'.'.'.'.'.].`./.`.'./.[.aX].].[.[.(.].].].].].].'.'.'.].aX].[.(./.).'.'.'.'.uXyXgXBX                                                    ",
"                                                                                      sXkXdXpX].].'.].].$X$X'.'.'.].'.'.'.].'././.].'.'.'.].'.'./.W./.'.].'.$X'.$XbXFXFXGXbX'.W.L.U.L.U.U.W.W.`.'.#XvX%X%XC.<X9X                                                                                                                                                                                                                                                                                                                                                                                                                                                                                                                                                                                                                                                                                                                                                                                                                                :.,XrXoXXX!.@X#X#X#X#X'.$X$XbXGXGXHX$XbXbX].].'.'.'.'.'.'.'.$X'./.`.`.`.[./.).].).[.].[.(.DX_.].DX[._.].aX].aXDX;X].].].).).].'.'.'.pXuXdXhXlX                                                  ",
"                                                                                    dXqXiXaX].].].'.].].].].$X'.].[.'.'.'.'.)././.).].)./.'.'.'.'.W./.'.].$XbXbXFXGXHXFXbX$X'.'.'.#X$X#X@X`.!.!.~.#X%X~.V.<XrX                                                                                                                                                                                                                                                                                                                                                                                                                                                                                                                                                                                                                                                                                                                                                                                                                                    rX,XeXxXoX#X#X#X#X$X$X#X'.'.'.$XbX$X$XFXbX$X].].'.].'.'.'.'.`.`.'.'.].].[.[.[.).].].{.FX[.].DX_.DXDX].].].].DXDXDX].].].].DXaXaX'.].'.$XuXwXfXBX                                              ",
"                                                                                  yXwXiXpXaX].].].].].].].].].].).'.].'.)./././././.)./.].'.].'.'.`.`.`.`.].bX$XbXbXFXFX$X'.$X$X'.`.@X@X@X`.!.~.#X#X~.V.,XrX                                                                                                                                                                                                                                                                                                                                                                                                                                                                                                                                                                                                                                                                                                                                                                                                                                          ,XtXcXmX#X#X$X$X$X'.$XbXbXbXbXbX$XbX$X].'.'.`.`.`.`.`.'.'.'.'.].].].).].).].].{.].].].]._.].DXaXDXDXaXaX].DX]._.].].].].].aX].].].'.vXnXrXhXAX                                            ",
"                                                                                qXwXiX).].].].DX].].].].].aX].].).[.'.'.[./.).).).'.'.).'.).`.'.].'.'.'.'.'.FXFX$X].].].'.'.$X'.#X$X&X#X&X%X#XvX#X^.V.<X                                                                                                                                                                                                                                                                                                                                                                                                                                                                                                                                                                                                                                                                                                                                                                                                                                                V.<XrXxX#X#X$X$X$XbXFX].'.$X$XFXFX'.].'.].'.'.'.'.`.$X'.$X'.`.'.).].(.[.].).(.[.].DXaXDX].].DXFXDX].DXDX;X]._.].].(.[.].].].].].'.bXvXvXuXwXjX                                          ",
"                                                                            iXqX0XuX).].].].aX].aXaX].].].aX].[.(.[.[.`.].'.).].[.].'.[.[.[.).[.].].].'.'.].FXFXGXFX$X$XbXbXvX#X#X$X$X#X#X#X#X#X~.9X4X                                                                                                                                                                                                                                                                                                                                                                                                                                                                                                                                                                                                                                                                                                                                                                                                                                                    rX1XrXxX#X'.'.'.$XbX$X$X'.].bXFX$X$X$X$X$X$X$X$X'.$X'.$X'.'.'.[.[./.[.).(.[.].].].[.[.(.DXDXFXDX].].]._._.].]._./.(.].].].].].].FXbXpXpXsXyXwX                                        ",
"                                                                          dXfXiXaX].].].].].DX].aXaX;X;X].aX].].].(.[.]./.].[.'.).].'.[.[.[.'.[.].].].].].].$X>XFXbX$X$XbXbX$X'.#X#X#X#X$X#X#X^.V.<X                                                                                                                                                                                                                                                                                                                                                                                                                                                                                                                                                                                                                                                                                                                                                                                                                                                          <X0XuX#X'.'.'.'.$XbXGXbX$X$XFXGXFX$XFXbX`.`.W.U.W.'.`.$X`./.`.[.).(.(.(.].].].{.(.;XDXDXDXDX].]._._._._._._._._.].].].].].;XFXaX'.aXaXvXiXfXdX                                    ",
"                                                                        yXwXiXpXaX].].].].DX].].;X].DX].].[.].].[.].(.[.).).).).).'.].'.].'.'.'.'.].'.].].'.$X$X$X$X].`.$XbX$X'.'.'.'.#XmXvX~.0X1X                                                                                                                                                                                                                                                                                                                                                                                                                                                                                                                                                                                                                                                                                                                                                                                                                                                              <X9XxX&X$X'.`.`.'.$X$X$X'.$XbXbXFX$X$X$X$X'.'.`.$X$X].`.).[.]./.[.).].[.).(.(.;X;XDX;X;X;X_._._.].]._._.].;X].].].;XFXDX].DXFX'.aXaX$XaXiXqXyX                                  ",
"                                                                      kXwXpXaX].].].].].].].].].FXFXDX].(.[.].].].).(.(.).).)./.).'.`.'.'.'.].'.'.].'.$XbX$X>X$X$X$XFXGX$X'.'.`.#X#X$X#X#X~.0X4X                                                                                                                                                                                                                                                                                                                                                                                                                                                                                                                                                                                                                                                                                                                                                                                                                                                                  :.9XiXxX#X#X'.'.$X$XbX$XbX$X$X$X$X$X$X$X].'.$XbX].].].).[./.[.].[.[.].].(.DXDXDXDX].DX_.;XDXDX;X;X].].;X;X_.;XDXDXDXFXDXDXJXFX].].;X;X].pXwXkX                                ",
"                                                                  sXqXiXpX].;X;X]._._.].].].].;XDXFXDXDX].(.].].[.[.(././.).).(.).[.`.`./.{.W.`.].].$X$X'.'.$X$X].$XFXFX$X`.`.'.'.#X#X#XoXrX,X                                                                                                                                                                                                                                                                                                                                                                                                                                                                                                                                                                                                                                                                                                                                                                                                                                                                      rX1XrX#X#X$X$X'.$XbX$XbX$X$X].].'./.`.`.$X$X].].[.].].).[.].{.[.].].[.FXDXDX].DXDX(._._.;X;X].].aX].;X;X].;X].DXDXFXDXDXJXFX].].].].[.'.pXiXqXBX                            ",
"                                                                yXkXsXFXFXFX;X;X].]._.].[.].].].DXFX;XDXDX[.(.[.).[.[.(.).(.(.(.'.).].].).'.`.'.].'.$X$X'.'.$X$X$X$X$XbX'.'.'.#X#X#X#X~.rX4X                                                                                                                                                                                                                                                                                                                                                                                                                                                                                                                                                                                                                                                                                                                                                                                                                                                                            <XeXuX#X'.`.'.$X$X$X$X].$X$X`.`.'.'.$X$X].].].].).'.[.`.[.[.].].].DXDX].].DX_.(._._.].].].].]._.].].].;X].DXaXDXDX].DXDX;XDX].[.).[.].aXiXwXjX                          ",
"                                                              kXwXiXaXFXDXDX;X;X;X]._.].].].].].].].].;XDXFX[./.].[.).].[.(./.).).).].aXbX'.'.`.`.`.'.'.$X$X$X$X$X$X$X$X$X'.'.'.'.'.oXrX<X                                                                                                                                                                                                                                                                                                                                                                                                                                                                                                                                                                                                                                                                                                                                                                                                                                                                                ,XeXxX#X`.!.`.'.$X$X$X$X$X$X$X].`.).`.].].].].].].).].[.].[.].;X;X].[.]._.(.;X].].].].].].].].].[._._.].].].[.DXDXDX;XDX].[.(.(.].>XbXvXnXyXkXZX                      ",
"                                                          yXqXdXpXDXFXDXDX;X;X;X;X;X;X:X].].].].].].].].DXFXFXFX[.[.[.).).)./.).).].'.].].].'.`.)./.'.'.].'.$X$X$X'.'.'.'.#X#X#X#X~.rX1X                                                                                                                                                                                                                                                                                                                                                                                                                                                                                                                                                                                                                                                                                                                                                                                                                                                                                    9X9XiXxX`.'.$X$X$X$X$X$X$X$X$X].].].$X].$X].[.[.).[.].].].].;X;X[.].[._.].;X;X;X].].[.].].].].[._.[.].]._._.;XDX;X_.].(.[.[.(.].FXFXFXbXaXsXkXkX                    ",
"                                                        hXwXiXaX].FXDX;XDX;X;X;X;X:X].;X:X;X:X:X].].].].DXDXDXDX].[._.[.[.).[.[.[.'.'.'.].[.[.[.[.].].'.$X].'.].$X'.`.'.'.#XvX#X~.rX1X                                                                                                                                                                                                                                                                                                                                                                                                                                                                                                                                                                                                                                                                                                                                                                                                                                                                                        9X1XiXpX#XbXbXbXbXbXFXGXFXbX$X].].$X$X$X$X].].].$X].].].].DX].;X].].;XDX;X].].].].].].].].].[.]._._.].]._.].].;X;X]._.(.(.(.].].;XFX].].aXsXdXhXAX                ",
"                                                    dXfXdXpX].].;XFX;X;X;X;X;X;X;X:X:X;X:X].:X;X;X].].].].].].].].[._._.[.(.).).[.].].].].).).].>XFXFX$X$XFXbX].$X'.'.'.#X#X#XuXrX<X                                                                                                                                                                                                                                                                                                                                                                                                                                                                                                                                                                                                                                                                                                                                                                                                                                                                                            rX<XyXuXpX$X$XbX$XbXbX$X$X$X$X$X$X$X].$X].].].].$X].].].].].].].].DXFXDX].].].].].].;X]._._._._._.].].].].;X;X;X;X(.(._.:X].].].FXDX;X>XFXbXnXdXfXBX            ",
"                                                  yXwXdXpXaX;X;X;X;X;X;X;X;X;X].].].].].;X].;X].].;X].].[.[.].].].].[.[.[.).).(.].].].].].].[.[.$XFXFXbX$XFXFX'.$X$X$X$X#X~.~.rX4X                                                                                                                                                                                                                                                                                                                                                                                                                                                                                                                                                                                                                                                                                                                                                                                                                                                                                                  <XqXiX#XbXbX$X].'.$X$XbX$X].$X>X>X$X$X$X>XFXGXFX].].].].].;XDXDXDX].].].].].].].]._.]._._.(.[._._.].].].;X;X;X(.(._.:X;X;XFXFXFX].].$XbXbXnXdXyXhXZX        ",
"                                                kXyXsX].].].].].;X;X;X;X;X].].].].].].].].].].].].].DX].].].].].].[._.].].].[.].].;X].].].].].[.>XFXFXbX$X$X].'.$X$X$X#X~.^.eX<X                                                                                                                                                                                                                                                                                                                                                                                                                                                                                                                                                                                                                                                                                                                                                                                                                                                                                                      V.1X0XuXNXFXbX$X$X$X$X$X$X$XFXFX>X$X].FXHXGXFX].;X].].].].DXFXDX].].]._.(.(._.]._._._.(._._._.].].]._.;X;X;X_.(._.;XFXDX;XDXDX].[.].;XbXFXGXNXBXhXjX      ",
"                                            sXqXdXpX'.].].].].].].].;X;X].].].;X].].].:X].].].].].DXDXDXDX].].].].[.].].].DX].[.].].].].].].].].FX$X$X$XbXFX'.$X$X#X#X~.^.9XqX                                                                                                                                                                                                                                                                                                                                                                                                                                                                                                                                                                                                                                                                                                                                                                                                                                                                                                            1X0XsXvX'.'.'.].].$X$X].].>X$X$X].[.>XFXFX].DXDXDX].DXDXFXDX].].].(.(.(.[.].]._._.].].;X].].].].[.].].;X_._._.;XDXDXDXDXDX].].].'.].$XbXFXNXsXdXtXdX  ",
"                                          hXyXsXaX].[.].].].].]._.;X;X].].].].].].:X_.].].].].].].].DXFXDX].].].].].].;XDXFXFX;X].].].].].].].].$X>XFX>XbXHXFXbX$X#X~.rX9XrX                                                                                                                                                                                                                                                                                                                                                                                                                                                                                                                                                                                                                                                                                                                                                                                                                                                                                                                9XqXdXnXvX#X`.`.$X$XFXFX>X$X$X].[.>XFXFX].DXDXDXDXFXDXFX;X].].].].(.(.[.].].].].].].].].].].[.].;X].;X_._.:X;X;X;X;XDX;X].].].].;XaXbXbX'.bXFXnXdXlX",
"                                      BXqXdXsXbXbX].].].].;X;X]._._.].].]._.].]._.].:X].].].].].].].;XDXDX].].].;X;X].DXFXFXFXFX].].].].].;X].;X;X].].].$XFXbXbX$X~.rXqXiX                                                                                                                                                                                                                                                                                                                                                                                                                                                                                                                                                                                                                                                                                                                                                                                                                                                                                                                      1XqXuXbX'.'.$X$X>X$XFX$X$X$X$X$XFXFX].DXFXDXDXFXDX;X].].;X]._.(.(.[._.].].].].].]._.[.[.[.].;X;X]._._.:X;XDXDXDXDXDX].[.].].;X].'.'.aX'.bXbXNXnX",
"                                    wXkXdXvXFXFXFX>XFX;X].;X].]._._.].].]._.].].].].:X_._._.].].].].].DXDXFX;XDXDXDXDXFXFXDX].[.].].].;X;X].].].].;X].].'.bX$X$X#XiX9X                                                                                                                                                                                                                                                                                                                                                                                                                                                                                                                                                                                                                                                                                                                                                                                                                                                                                                                            0X9XuX#X$X$X$X$XFXFX$X>XFXFXFXGXFXDXDXDX;XDXFXDX].]._._._._.(.[.[.].].].].]._.(.[._.[.[.].;X;X].(._.;X;XDXDXDXDX].].].].].;XDXaXaX].].bXFXbXbX",
"                                  gXjXsXvXbXFXFXFX;X;X;X;X;X].].].].].].].[.].].].].].].].].].].].].].;XFXFXFXFXDX].DXDXDXDX].].].].>X;X;X;X].;X[./.[.].$XvX$XvXuXrX                                                                                                                                                                                                                                                                                                                                                                                                                                                                                                                                                                                                                                                                                                                                                                                                                                                                                                                                ~.rXxX$X$X$X].$XFX>X>XFXFXFXFXFXFXDXDX].].[.]._._._.[.]._.(.[.[.].].].].;X_.(.[._.[.[.].;X;X].(._.;X;XDXDXFXDX;X].].;X;X;X;X].].DXFXDXDXaXbX"
};
