/* XPM */
static char *_e90a1049f06415cff4c489bb21b7a907BADyhnjFVYoXIo5[] = {
/* columns rows colors chars-per-pixel */
"250 250 174 2 ",
"   c None",
".  c #040404",
"X  c #080707",
"o  c #090807",
"O  c #070608",
"+  c #080708",
"@  c #07090B",
"#  c #0B0A0C",
"$  c #100F0F",
"%  c #0F100E",
"&  c #11110F",
"*  c #0D0E11",
"=  c #0F1114",
"-  c #0F1319",
";  c #121415",
":  c #171914",
">  c #1A1B16",
",  c #131619",
"<  c #16191C",
"1  c #1C1D1B",
"2  c #201E17",
"3  c #201F1A",
"4  c #1F201C",
"5  c #23231E",
"6  c #28241E",
"7  c #161C22",
"8  c #1B1E22",
"9  c #201F21",
"0  c #1E2124",
"q  c #1D2329",
"w  c #242522",
"e  c #282721",
"r  c #262923",
"t  c #2B2B25",
"y  c #232529",
"u  c #26292C",
"i  c #2C2E2A",
"p  c #302E26",
"a  c #382E27",
"s  c #302F28",
"d  c #2F3027",
"f  c #2E312B",
"g  c #313027",
"h  c #33332C",
"j  c #39362E",
"k  c #36382F",
"l  c #39382F",
"z  c #272C31",
"x  c #2B2E31",
"c  c #2E3134",
"v  c #2E3338",
"b  c #333532",
"n  c #383730",
"m  c #363932",
"M  c #3B3C35",
"N  c #333639",
"B  c #36393C",
"V  c #3B3D3A",
"C  c #403E36",
"Z  c #423E3E",
"A  c #3D4037",
"S  c #3E4139",
"D  c #404037",
"F  c #42443C",
"G  c #4B463D",
"H  c #44483F",
"J  c #48493F",
"K  c #51463D",
"L  c #373C40",
"P  c #3B3E41",
"I  c #3E4144",
"U  c #3F4448",
"Y  c #414544",
"T  c #454941",
"R  c #4A4C44",
"E  c #424649",
"W  c #45494C",
"Q  c #494C4E",
"!  c #504F45",
"~  c #4D5047",
"^  c #4E5149",
"/  c #515047",
"(  c #5E5147",
")  c #52544B",
"_  c #56584F",
"`  c #474C51",
"'  c #4A4E51",
"]  c #4D5155",
"[  c #4E5459",
"{  c #515456",
"}  c #565951",
"|  c #5C5C52",
" . c #52565A",
".. c #55595D",
"X. c #585D5F",
"o. c #614F45",
"O. c #6B584D",
"+. c #655C50",
"@. c #6E6357",
"#. c #7A6456",
"$. c #70665A",
"%. c #796658",
"&. c #565C61",
"*. c #595E62",
"=. c #575F68",
"-. c #5C6165",
";. c #5E6469",
":. c #61676B",
">. c #656A6E",
",. c #66696A",
"<. c #666C71",
"1. c #696E73",
"2. c #696E71",
"3. c #696E73",
"4. c #6A7074",
"5. c #6A7076",
"6. c #6D7275",
"7. c #6C7175",
"8. c #6D7378",
"9. c #6F7478",
"0. c #6E747B",
"q. c #6D7479",
"w. c #717576",
"e. c #71767A",
"r. c #707579",
"t. c #70777D",
"y. c #71767C",
"u. c #71757A",
"i. c #72787E",
"p. c #72797E",
"a. c #787C7C",
"s. c #826758",
"d. c #826B5C",
"f. c #8A6E5E",
"g. c #826F63",
"h. c #907260",
"j. c #977866",
"k. c #9B7966",
"l. c #9E7C6B",
"z. c #A07D6A",
"x. c #A6816D",
"c. c #A9836F",
"v. c #AC8672",
"b. c #AF8975",
"n. c #A48170",
"m. c #B38B75",
"M. c #B68F79",
"N. c #B99077",
"B. c #B7907A",
"V. c #BC937B",
"C. c #C1977D",
"Z. c #C4997F",
"A. c #6F7780",
"S. c #757D82",
"D. c #747C83",
"F. c #797F85",
"G. c #757E89",
"H. c #798186",
"J. c #7A848B",
"K. c #76818A",
"L. c #7F8A92",
"P. c #81898F",
"I. c #838D94",
"U. c #8A949A",
"Y. c #8E999D",
"T. c #BE9681",
"R. c #8E99A3",
"E. c #8995A3",
"W. c #949FA9",
"Q. c #94A3AA",
"!. c #9EA8B8",
"~. c #C09782",
"^. c #C79C82",
"/. c #C89D83",
/* pixels */
"                                                                                                                                                                                                                                                                                                                                                                                                                                                                                                                    ",
"                                                                                                                                                                                                                                                                                                                                                                                                                                                                                                                    ",
"                                                                                                                                                                                                                                                                                                                                                                                                                                                                                                                    ",
"                                                                                                                                                                                                                                                                                                                                                                                                                                                                                                                    ",
"                                                                                                                                                                                                                                                                                                                                                                                                                                                                                                                    ",
"                                                                                                                                                                                                                                                                                                                                                                                                                                                                                                                    ",
"                                                                                                                                                                                                                                                                                                                                                                                                                                                                                                                    ",
"                                                                                                                                                                                                                                                                                                                                                                                                                                                                                                                    ",
"                                                                                                                                                                                                                                                                                                                                                                                                                                                                                                                    ",
"                                                                                                                                                                                                                                                                                                                                                                                                                                                                                                                    ",
"                                                                                                                                                                                                                                                                                                                                                                                                                                                                                                                    ",
"                                                                                                                                                                                                                                                                                                                                                                                                                                                                                                                    ",
"                                                                                                                                                                                                                                                                                                                                                                                                                                                                                                                    ",
"                                                                                                                                                                                                                                                                                                                                                                                                                                                                                                                    ",
"                                                                                                                                                                                                                                                                                                                                                                                                                                                                                                                    ",
"                                                                                                                                                                                                                                                                                                                                                                                                                                                                                                                    ",
"                                                                                                                                                                                                                                                                                                                                                                                                                                                                                                                    ",
"                                                                                                                                                                                                                                                                                                                                                                                                                                                                                                                    ",
"                                                                                                                                                                                                                                                                                                                                                                                                                                                                                                                    ",
"                                                                                                                                                                                                                                                                                                                                                                                                                                                                                                                    ",
"                                                                                                                                                                                                                                                                                                                                                                                                                                                                                                                    ",
"                                                                                                                                                                                                                                                                                                                                                                                                                                                                                                                    ",
"                                                                                                                                                                                                                                                                                                                                                                                                                                                                                                                    ",
"                                                                                                                                                                                                                                                                                                                                                                                                                                                                                                                    ",
"                                                                                                                                                                                                                                                                                                                                                                                                                                                                                                                    ",
"                                                                                                                                                                                                                                                                                                                                                                                                                                                                                                                    ",
"                                                                                                                                                                                                                                                                                                                                                                                                                                                                                                                    ",
"                                                                                                                                                                                                                                                                                                                                                                                                                                                                                                                    ",
"                                                                                                                                                                                                                                                                                                                                                                                                                                                                                                                    ",
"                                                                                                                                                                                                                                                                                                                                                                                                                                                                                                                    ",
"                                                                                                                                                                                                                                                                                                                                                                                                                                                                                                                    ",
"                                                                                                                                                                                                                                                                                                                                                                                                                                                                                                                    ",
"                                                                                                                                                                                                                                                                                                                                                                                                                                                                                                                    ",
"                                                                                                                                                                                                                                                                                                                                                                                                                                                                                                                    ",
"                                                                                                                                                                                                                                                                                                                                                                                                                                                                                                                    ",
"                                                                                                                                                                                                                                                                                                                                                                                                                                                                                                                    ",
"                                                                                                                                                                                                                                                                                                                                                                                                                                                                                                                    ",
"                                                                                                                                                                                                                                                                                                                                                                                                                                                                                                                    ",
"                                                                                                                                                                                                                                                                                                                                                                                                                                                                                                                    ",
"                                                                                                                                                                                                                                                                                                                                                                                                                                                                                                                    ",
"                                                                                                                                                                                                                                                                                                                                                                                                                                                                                                                    ",
"                                                                                                                                                                                                                                                                                                                                                                                                                                                                                                                    ",
"                                                                                                                                                                                                                                                                                                                                                                                                                                                                                                                    ",
"                                                                                                                                                                                                                                                                                                                                                                                                                                                                                                                    ",
"                                                                                                                                                                                                                                                                                                                                                                                                                                                                                                                    ",
"                                                                                                                                                                                                                                                                                                                                                                                                                                                                                                                    ",
"                                                                                                                                                                                                                                                                                                                                                                                                                                                                                                                    ",
"                                                                                                                                                                                                                                                                                                                                                                                                                                                                                                                    ",
"                                                                                                                                                                                                                                                                                  1.<.2.                                                                                                                                                                                                                            ",
"                                                                                                                                                                                                                                                                                I B 7.] B                                                                                                                                                                                                                           ",
"                                                                                                                                                                                                                                                                                P x ,.{ z                                                                                                                                                                                                                           ",
"                                                                                                                                                                                                                                                                                P 8 u y w                                                                                                                                                                                                                           ",
"                                                                                                                                                                                                                                                                                V , , , 8                                                                                                                                                                                                                           ",
"                                                                                                                                                                                                                                                                                B ; = ; 0                                                                                                                                                                                                                           ",
"                                                                                                                                                                                                                                                                    I.I.F.8.:...N , = = y                                                                                                                                                                                                                           ",
"                                                                                                                                                                                                                                                                  S.P.4.N z c E N , * * 1 y u                                                                                                                                                                                                                       ",
"                                                                                                                                                                                                                                                                -.2.S.-.u W W W E L v y y u u z                                                                                                                                                                                                                     ",
"                                                                                                                                                                                                                                                            D.8.>.:.:.' z P B N N N N z w 8 8 0 P ;.:.5.                                                                                                                                                                                                            ",
"                                                                                                                                                                                                                                                          W *.D.9.5.2.X.Y N N c c c c u y 8 8 8 x *.-.:.1.5.                                                                                                                                                                                                        ",
"                                                                                                                                                                                                                                                        ' Q Q 3.F.t.8.>...W U I P P V B B N b b B -.>.2.5.5.t.                                                                                                                                                                                                      ",
"                                                                                                                                                                                                                                                        ] ' Q  .5.S.e.7.2.,.-.-.&... . ...-.-.;.>.9.e.e.p.p.p.p.                                                                                                                                                                                                    ",
"                                                                                                                                                                                                                                                      Q ' ] ] { ..p.e.e.7.2.>.,.*.......*.:.,.>.3.e.e.e.p.p.p.p.t.                                                                                                                                                                                                  ",
"                                                                                                                                                                                                                                                      ' W ]  . .{ ,.S.e.9.7.2.>.-.X.X.*.;.:.>.>.1.7.7.7.8.9.t.t.t.t.                                                                                                                                                                                                ",
"                                                                                                                                                                                                                                                      W Q ' ]  . ...8.S.e.9.7.2.,.;.;.:.>.2.2.5.5.5.7.5.5.5.7.7.5.2.5.                                                                                                                                                                                              ",
"                                                                                                                                                                                                                                                      E Q Q ' ]  ...-.K.H.p.e.9.2.>.:.,.2.2.4.7.7.7.7.9.e.e.9.7.9.8.8.t.p.                                                                                                                                                                                          ",
"                                                                                                                                                                                                                                                      Y E W W '  ...*.1.K.S.t.e.4.2.>.1.2.4.w.e.e.9.7.e.e.w.e.e.e.e.e.9.9.9.                                                                                                                                                                                        ",
"                                                                                                                                                                                                                                                      Y Y W W W ]  ...*.8.K.e.8.7.2.1.>.2.4.7.9.e.e.e.e.e.e.e.e.9.8.8.7.8.8.5.                                                                                                                                                                                      ",
"                                                                                                                                                                                                                                                      Y Y E W ' ' ] ..*.-.D.D.5.2.2.1.1.2.3.7.8.e.7.9.9.8.8.8.8.8.7.7.8.9.8.8.8.                                                                                                                                                                                    ",
"                                                                                                                                                                                                                                                      I Y Y E ' ] '  .*.*.<.J.F.2.>.1.2.2.4.4.7.r.e.e.e.8.8.8.5.5.3.3.4.4.5.5.5.9.                                                                                                                                                                                  ",
"                                                                                                                                                                                                                                                      I Y Y Y W ] ]  ...*.;.9.I.8.1.1.2.5.7.7.7.7.7.7.4.2.2.3.5.2.5.7.2.4.4.7.7.8.0.                                                                                                                                                                                ",
"                                                                                                                                                                                                                                                      Y I Y Y E W ]  .{ ..*.*.5.I.5.>.>.1.1.2.2.4.2.2.2.2.2.2.2.2.3.3.2.5.7.7.7.5.3.2.5.                                                                                                                                                                            ",
"                                                                                                                                                                                                                                                      I I I Y E E ]  .{  .....X.S.F.*.........*.&.*.*.X.X.X.*.*.*.*.*.&.&.*.*.-.-.-.*.-.-.                                                                                                                                                                          ",
"                                                                                                                                                                                                                                                      I I I I E E ` ]  .[ [ [  .&.z 1 < 7 < < 1 8 8 w w y y y y y y y y y w y y y y w 8 y v                                                                                                                                                                         ",
"                                                                                                                                                                                                                                                      I I I I E E E ' [ [ ]  . .N < , 1 < < < 1 8 8 8 u W  .] Q I B x w 8 8 1 1 1 1 1 9 8 y                                                                                                                                                                         ",
"                                                                                                                                                                                                                                                      I I I I E E E W ]  .]  .] y , 1 8 , , , ; , < c >.:.W c u u u z b u , ; = = # ; 9 8 8 w                                                                                                                                                                       ",
"                                                                                                                                                                                                                                                      I I I I E E E E ' [ { -.W y 1 8 8 1 < ; ; ; 0 b u = # X . . X # 1 z w ; # * # # : w 8 8 y                                                                                                                                                                     ",
"                                                                                                                                                                                                                                                    I P P I I Y E E E E ] ] ;.E u w 8 8 8 1 ; ; ; y w # . . . . . . . X ; b 1 * * # # ; w 0 8 0                                                                                                                                                                     ",
"                                                                                                                                                                                                                                                    E V V P I I Y Y E Y E Q ..' N c w 8 1 1 8 8 u y , = = = ; ; ; ; ; ; ; y V w 0 y u u b N N z P                                                                                                                                                                   ",
"                                                                                                                                                                                                                                                    E P B P P I I I Y Y I Y ]  .W B c y 1 E J.A.:.>.>.>.>.>.<.1.1.<.<.<.<.1.2.2.1.<.<.<.3.<.:.:.:.:.:.:.S.                                                                                                                                                          ",
"                                                                                                                                                                                                                                                    ] Y V V P I I Y E E U I E ' ..E P N c *.8.I.5.:.>.>.>.>.1.2.2.>.1.2.2.5.5.9.9.8.7.7.7.3.<.<.<.>.:.:.,.9.                                                                                                                                                        ",
"                                                                                                                                                                                                                                                     .E I B P I I E E U I I I E ] ..U P ' *.:.F.F.1.>.>.>.>.1.2.2.1.1.2.2.2.2.7.7.9.9.7.2.2.>.>.>.:.:.:.:.>.9.                                                                                                                                                      ",
"                                                                                                                                                                                                                                                  Y ' ' I P P P P E E I I I I I W -... .....&.:.L.0.1.>.>.>.>.2.2.2.1.2.2.2.1.>.2.1.>.1.1.>.-...p.3.<.>.:.1.3.8.      b ..3.<.>.:.<.                                                                                                                                ",
"                                                                                                                                                                                                                                                  I E ] W I V P P Y W I I I I P Y [ ;....... .*.:.J.t.<.>.>.<.>.>.>.2.2.2.2.2.2.2.2.1.1.2.2...B ;.-.' ` E E W *.>.2.  u y E ' ' ` ` ' '                                                                                                                             ",
"                                                                                                                                                                                                                                                  I I ' ' E V V P E W Y E I I P I '  . ..... ...-.p.J.1.>.>.:.>.>.>.1.3.3.3.2.2.2.1.1.1.>.>. .N N y 8 0 P 1 , E :.>.-.c w 0 8 V c 1 1 y                                                                                                                             ",
"                                                                                                                                                                                                                                                  I I E  .W P V P E W E W I I I P U W Q  .......*.;.9.D.<.:.<.1.<.>.>.>.>.2.2.>.>.>.>.:.:.;.W N x , , ..a.] , P &.&.] P u 8 N a.w.0 , <                                                                                                                             ",
"                                                                                                                                                                                                                                                  P P I ' ' E P V I W I E I I P P I Y Y Q  . .X.X.*.-.S.D.<.<.3.2.>.>.>.>.2.2.&.:.-... ...;.Y N u ; ; u b w ; P [ ] W I c y 1 b b < ; ,                                                                                                                             ",
"                                                                                                                                                                                                                                                    V P E ' W I P P E E W I I P P ' E I I W  .X.X.X.X.,.P.F.3.3.2.2.1.3.3.5.&.P E ] [ [  .' I b y ; ; ; , < < V ] [ ] E P z ; ; ; = ; ;                                                                                                                             ",
"                                                                                                                                                                                                                                                    P V I W ` U P V I E E Y I P I ] Q Y I Y Q ..*.X.*.-.e.I.8.1.2.2.2.2.3.:.` I P u c E ' W I N y ; ; ; ; < < B ' ] ..[ E c ; ; ; = ; ;                                                                                                                             ",
"                                                                                                                                                                                                                                                      V I Y ' W E P V I E Y E P W ] ] E I Y E ' ..X.*.-.;.5.K.1.<.2.1.1.:.' W P b < 0 b P I I B y ; ; ; ; , , u b N B E E u ; ; ; ; ; ;                                                                                                                             ",
"                                                                                                                                                                                                                                                      V P I W ' E P B P E E W I ' ' ] W E E E W W  .X.*.&.-.9.D.>.:.>.;.] E I B u ; 8 u c N B N u < , , , , : 1 8 8 1 1 8 1 , , ; : ; ,                                                                                                                             ",
"                                                                                                                                                                                                                                                        P P Y ] Q I B B I Y W Y W ' ' ' W W W E W Q  .*.X.X.-.J.9.:.:.-. .P B c 8 ; 1 y u u c c u < < < < ; , , , : , , < < < < < < < <                                                                                                                             ",
"                                                                                                                                                                                                                                                        P P I W ' E P B V I W Y I W W ' ' W Q W W W '  .X.-.*.<.U.D.<.;.*.E x w < ; < 8 0 y y u u 0 0 8 1 , ; , < : , < 1 1 8 1 8 1 < < u                                                                                                                           ",
"                                                                                                                                                                                                                                                        P V P E ' W Y B B P E I P I W ' ] Q Q W W W Q Q  .*.-.;.D.U.9.;.*.{ b 8 < , ; ; < 1 c E N u u y 0 1 < 8 0 0 8 8 0 y y y y 0 8 0 B ]                                                                                                                         ",
"                                                                                                                                                                                                                                                          P V I E  .W P B B Y I P P E W ] ' Q Q Q Q Q Q ' { -.;.;.D.I.1.-...] U P N u , * , P ] ` N v v c c N B B L B N c c c x c c b B W ] ..*.                                                                                                                    ",
"                                                                                                                                                                                                                                                            V P I ] W I P B P I P V I W ' ' Q ' ' ' ' ] ] ] ..-.-.:.I.D.:... .' E P B u = 1 B P [ ` P P P P I U W W W U P L B N N N B I ` ] ]  .]                                                                                                                   ",
"                                                                                                                                                                                                                                                            V P P E Q I P B B B P V B I W Q ' ' ' ] ] { { { {  .*.-.1.L.p.&.[ Q W I V N w y N N P N y u z z z x v v c c z z u u y y y y y u u u y z                                                                                                                 ",
"                                                                                                                                                                                                                                                            P P P P W E I B B B V B B P E Q ' ] ' ] [ { {  . . ...*.:.p.L.<. .W E I V N u z c N z , = = ; ; = ; ; , - = = = = ; = = = = = ; ; ; ; 1                                                                                                                 ",
"                                                                                                                                                                                                                                                              P P P Y W Y P B B V V B B I W E W ' ] [ { {  .......&.:.5.S.P.*.Q E I P B c u c b u , , = = ; ; ; ; , ; ; , ; = ; = ; = = ; ; ; ; ; , N                                                                                                               ",
"                                                                                                                                                                                                                                                              I P V P W E P B B P B B B V P P P Y E Q ]  ...&...*.-.;.>.4.I.9.] Q E P B c u z N 0 < < , , < < < < < < < < < < < < < < , 1 1 , , , , w [                                                                                                             ",
"                                                                                                                                                                                                                                                                P V P Y W I B B B B B B B N B N I I I E W ] ..&.-.;.:.,.1.S.U.5...W U P u y z c 8 < 8 8 8 8 8 8 8 8 8 8 8 7 1 1 8 8 8 1 8 8 8 8 < 1 1 P ..;.                                                                                                        ",
"                                                                                                                                                                                                                                                                E B B V E I V V B B B B B N c c V I Y Y E W W ] ..-.,.>.1.5.H.R.p. .W E B y z z < 8 0 8 8 8 0 0 8 8 q 8 1 < 1 1 1 8 8 8 8 8 0 0 0 0 8 u W  .;.                                                                                                      ",
"                                                                                                                                                                                                                                                                Y B B V I E I I V B B B B N c z b P I Y Y Y W Q ]  .X.:.>.2.9.U.Q.5. .] E N u 8 < 0 y q w y u u z z z u y y y r u u z z u y y y y y 8 8 W [ ..1.                                                                                                    ",
"                                                                                                                                                                                                                                                                Y B B B V E Y I V B B B B b c z N B V E Y Y E W ' ]  .*.-.:.3.S.Y.W.:. .] Q P z u z z z z x c c c c c c c c c b c c x x c c c x c c c b W ] ] *.1.                                                                                                  ",
"                                                                                                                                                                                                                                                                W B B B B P W Y V B B B B b c z c b B Y Y Y E E Q ] { ....*.:.>.p.H.] B B B B c u z z u u u u w w y y y u u u u u y y y u u u u c z x c c v N P E *.                                                                                                ",
"                                                                                                                                                                                                                                                                  B V V B V W E B B B B N b c x z c N B Y E E E Q ] {  . ...*.;.e. .u w w w w w 0 y y w y y w y w w 8 1 0 0 w 0 0 8 8 w 0 0 u z y w y y w y y u w B `                                                                                               ",
"                                                                                                                                                                                                                                                                  I B V B B I E B B B B N b c c z z c B I Y W E Q ' ] ] { ..&.1.*.c 0 w w w w w w w w 8 x y < : ; ; ; = ; ; ; ; ; ; ; ; ; ; 1 8 y w y y w w y u w w c                                                                                               ",
"                                                                                                                                                                                                                                                                    B V B B B V B B B B N b c N z u c b V E E Y W W ' '  . .-.&.L u y w y y y w y y y z y X . X X X X X X X X X X X X X . . O O 1 u w w w w y u y w u b                                                                                             ",
"                                                                                                                                                                                                                                                                    P B B B B B B B B N N b c c z u z z B I W E E E W ' ] ..:.N u y w y y u u y y y i u X . . X X X X X X X X X X X X X X . + O X w u w w w y y y y u u b                                                                                           ",
"                                                                                                                                                                                                                                                                      B B B B B B B B N N b z z z u z z N B W W Y E W ' ] X.] z y y y y y y y w w w u ; . . X X X X X X X X X X X X X X X X O O . X u w w 0 8 y y y y y y                                                                                           ",
"                                                                                                                                                                                                                                                                      E W B B B B B B B N b x z z u u u z b P W E E W W ' ..b y y u y y y w w w w 0 w # . . X X X X X X X X X X X X X X X X O O . X u y w w 0 w w y y u u u                                                                                         ",
"                                                                                                                                                                                                                                                                      ;.&.P B B B B B V N b c c z u u u u z c Y Y W W W ] P u y y y y y y w w w 8 1 8 # . . X X X + X # X X X X X X X X X X O O . . u y w w w w w y u u u u u                                                                                       ",
"                                                                                                                                                                                                                                                                      ;.-.W V B B V B B N b c c u u z u y y z B Y W W Q E y y u y y w w y y y w 8 8 0 # . . X X X X X # # O X O O X X X X X O O . . w 8 0 w w w y y u u y y y                                                                                       ",
"                                                                                                                                                                                                                                                                      ..*.[ B N B B B B N b c c u y z u y y z c Y W W W L y y y y w w w y y y y w 8 0 = X X X X # # X + # # # # # + X X X X O O . . 8 w 0 w y y y u u u y u y u                                                                                     ",
"                                                                                                                                                                                                                                                                      W ..&.E N B B B B N b c N u y u y y y u z Y W W P z u y y y y y w w w w w 8 8 8 * X X X O + # # # + # # # # + + X X X X X . . 8 y y y y y y u u y u u u z N                                                                                   ",
"                                                                                                                                                                                                                                                                      B ` &.[ B B B B B N b c N u y u y w y y c Q ' W N y y y y y y y y y y y y 0 8 8 * X X O O # # * * # # # # # X X X X X O X . . 1 y y y y y y u y y u u z y N                                                                                   ",
"                                                                                                                                                                                                                                                                      b I &.=.W N B B B N b c N u y u y w y y b W ] W x y y y y y y w w w w w 0 0 0 8 * . X O # = 1 w 0 8 , # # # X X X X X X X . . 1 y y y y y y y y y u u z y z I                                                                                 ",
"                                                                                                                                                                                                                                                                        B ;.<.[ B B B B N b c c u y u u y y y x I E W z w y w y y y w w y w 0 0 0 0 0 ; X X O * < 0 u u u 0 ; # # X X X X X X X . . : y w y y w w w y u u u u u u V                                                                                 ",
"                                                                                                                                                                                                                                                                        b ] [ U N B B B N b c c u u u u u u y z B B P u y w y y w y w w y w w 0 0 0 0 ; X O # ; 8 y x b x w , # # X X X X X X X . . ; w 0 w 0 0 w y u u u u u y y B Y                                                                               ",
"                                                                                                                                                                                                                                                                          N N c z N B B N b x c u y u u u u y x N B V u w y y w y y y y y w w w w 0 8 ; X O # ; 8 y c b z 0 ; # # X X X X X X . . . # 0 0 w w 0 w y u u z z x u y N Y                                                                               ",
"                                                                                                                                                                                                                                                                          i u u w b B B N b c N u y u u u u y x N B V u 0 y y y y y y y y w w w w 8 8 ; X O # * < 8 u z y < * # O O X X X X X X . . # 8 0 w w w y y y u c b c u u B Y                                                                               ",
"                                                                                                                                                                                                                                                                            i u w w B B N b c N u u u u u u w z N N B u y y y y u y y y y w w w 8 1 1 , X # # # ; , 8 8 , = # # # # # # O X O X . . # 1 8 w w w y y y u u x u y y B Y                                                                               ",
"                                                                                                                                                                                                                                                                                i x B B N b c z u y u u u u w x N N N u y y w w y y u u y 8 0 0 8 1 1 : # # # + # * * # # O # # # # # + O X O X . . # 1 8 8 w w w y y u u u u y y c V                                                                               ",
"                                                                                                                                                                                                                                                                                b N B B N b x z u u z z u y y x N N N y w y y w y u y y w 8 0 0 8 1 1 : # # # # # # # # # # # # # # # O + X O X . . # 1 8 0 0 0 8 w y y u y y y y c V                                                                               ",
"                                                                                                                                                                                                                                                                                B N P B N b x z u y z c u u w u N N b y w w y y y u y w w 8 8 w 8 1 1 , # # # # # # # # # # # # # @ # O X X O X . . # < 8 8 8 8 8 0 w y w y y w y x B                                                                               ",
"                                                                                                                                                                                                                                                                                P B P P N b x z y y u z z u w u N N N u 8 0 y y y y 0 0 0 w w 0 0 1 1 1 # # # # # # * # # # # # # # O O X X O X . . + , 1 8 8 8 0 0 w y y w w w y z V                                                                               ",
"                                                                                                                                                                                                                                                                                W N L P B b x z u y u u u u w u N N N u y y y y y y 0 0 0 w w 8 8 1 1 1 # # # # # # # # # # # # # # # O X X O X . . X , < 8 0 0 0 w w y y y w w y u B                                                                               ",
"                                                                                                                                                                                                                                                                                  N B P B b i u u y u u u u w u N b N z u y y y w w 0 0 q w 0 0 0 8 1 1 # # # # # # # # * # # # # # # # + O O X . . + , 1 0 w 0 w w w y y y y y y u B                                                                               ",
"                                                                                                                                                                                                                                                                                  N B L N b x u u y u u u u y y b b c y 0 q w w w w w 0 0 0 0 0 0 0 1 1 # # # # # # # # # # # # # # # # + + O X X . X , 8 0 y w y w w y y y y y u z N                                                                               ",
"                                                                                                                                                                                                                                                                                  N N N N b i y u y u u u u y y b b c u 0 0 w w w w 0 8 8 0 8 0 0 8 1 1 # # # # * * * # # # # # # # # # + + O X . X X , 8 0 0 w y y w y y y y y y z N                                                                               ",
"                                                                                                                                                                                                                                                                                n.N b N c N b y x y u z z u y y N b c y 8 0 w w w y 0 8 8 0 0 0 8 1 1 < # # # * * # # # # # # # # # # # O # O X . . X , 7 0 0 y w y y y y y y y 0 u b                                                                               ",
"                                                                                                                                                                                                                                                                            ~.T.b.B b c z N P y z y z c z u y u N b c u 0 0 y w w y y 0 0 0 0 0 8 1 7 < # # # * * # # # # # # # # # # # O + O X . . X ; 8 0 0 0 0 0 y y w y y y y u c                                                                               ",
"                                                                                                                                                                                                                                                                          T.B.B.v.V x x z N U z z w u c c c y u N N c u w 0 0 y y y 0 0 y w y 0 8 8 8 1 # # # * # # # # # # # # # # # + O O O X . . X ; 8 0 0 w 0 0 y w w y y y y u c                                                                               ",
"                                                                                                                                                                                                                                                                      T.T.M.m.b.x.V x u u x P v u y u c c c w y N N x y 0 0 y y y y w w w 0 w w 0 8 0 0 * # # # # # # # # # # # # # # + O O # X X . X , 0 0 y y w w y y w 0 y y w u c                                                                               ",
"                                                                                                                                                                                                                                                                      B.m.v.c.x.z.Z x u y u L N u 0 u c z z w 0 N N x y 0 0 y y y y w 0 0 0 0 w 0 8 0 8 * # # # # # # # # # # # # # # O O O O O X . X < y 0 y y w w y y 0 0 w y w y x V                                                                             ",
"                                                                                                                                                                                                                                                                    M.v.x.l.k.k.h.G x y w B ` [ B w u z z z w 0 N b x y 0 0 0 w w w 0 y 0 0 0 q 8 1 1 8 ; # # # # # # # # # # # # + + O X X O + X . X , 0 0 0 y y w w y w w 0 y y y x V                                                                             ",
"                                                                                                                                                                                                                                                                    v.z.k.h.%.+./ F h N q.5.;.=.' y y z z z y u N b x y 0 0 0 y y q 0 0 0 0 0 0 8 1 1 8 ; # # # # # # # # X X + + + O O O X X O X . X ; 8 y q 0 0 w w w w w 0 y w y x B                                                                             ",
"                                                                                                                                                                                                                                                                  v.l.d.@.} ) ~ R J k V K.W.E.G.=.u u c z u y u N b b y 0 8 0 0 0 0 0 0 0 8 8 8 8 1 1 1 # X X X X X X + X X X X X X X X X X X X X . . ; 8 0 0 0 8 0 8 8 8 8 8 0 w y z B                                                                             ",
"                                                                                                                                                                                                                                                                  g.$.| } ) ~ ~ R R M M ' G.!.R.D.E c c u u y u b b x y 0 8 8 0 0 8 8 8 8 1 1 1 1 1 1 8 # X X X X X X X X X . . X X . . . . . . . . X ; 1 1 8 8 8 8 8 8 8 1 1 0 w y z V                                                                             ",
"                                                                                                                                                                                                                                                              | | | | ) ) ) ~ ~ T F F n w b ..0.p.:.U c u u y u b b c y 0 8 8 8 0 0 1 1 1 1 1 1 1 < < 8 ; . . . . . . . . . . . . . . . . . . . . . . ; 1 < < < 1 8 8 1 8 8 1 8 w y u N                                                                             ",
"                                                                                                                                                                                                                                                          | | | _ ) ) ) ) ^ ~ R T F F D i 1 1 z I U U N u u y u b b c y 0 8 8 0 z c y y 0 8 1 1 1 < < 1 # . . . . . . . . . . . . . . . . . . . . . . # , ; , ; , , , < 1 8 8 8 8 w y N                                                                             ",
"                                                                                                                                                                                                                                                      | | | _ _ _ ) ) ) ~ ~ ~ R R T F F M i 8 , 1 u c P u u y u b N x 0 0 0 8 0 z w # # # # # # # + X X . . . . . . . . . . . . . . . . . . . . . . . . . X X X X X X X X # 1 8 8 w y b                                                                             ",
"                                                                                                                                                                                                                                                      _ ) _ _ _ ) ) ) ~ ~ ~ R R R T T F D n y 0 w 1 w N u y y u c N z 0 0 0 8 8 z 1 . . . . . . . . . . . . . . . . . . . . . . . . . . . . . . . . . . . . . X X . . . X X , 8 8 9 y b                                                                             ",
"                                                                                                                                                                                                                                                      ) _ ) ) ) / ) ~ R R R R R T T T T F A i 1 y < < b B y u y x b x w 0 0 0 0 u 1 . . . . . . . . . . . . . . . . . . . . . . . . . . . . . . . . . . . X X # # X . . . X : 0 8 8 y b                                                                             ",
"                                                                                                                                                                                                                                                    ~ ~ ~ ~ ~ ~ R R R ~ R R R R R T T T T F m 1 y : ; w c y u w z c z y w 0 0 8 y < X X X X X X X X X X X X X X X X X X X X X X X X X X X X X X X X X X X X # # # X . . X X ; w 8 0 y b                                                                             ",
"                                                                                                                                                                                                                                                    R R R R R R R R ~ ~ R R R R T T T T T T F c u ; # < x c u w i b u y y 0 0 0 y 1 # # # # # # # # # # # # # # # # # # # # # # # # # # # # # # # # # # # # # ; ; + . . X X ; 8 8 w y x                                                                             ",
"                                                                                                                                                                                                                                                    R R R R R ~ ~ ~ ~ ~ R R R R R T T T F F F m u = # = u N y y c b u y 0 8 0 0 y 8 ; ; ; ; ; ; ; ; ; ; : ; : : ; ; : ; : : : ; : ; ; ; ; ; ; ; ; ; ; $ # # ; ; ; # X . X X # 1 8 0 y i h                                                                           ",
"                                                                                                                                                                                                                                                    R R R R ~ ~ ~ ~ ~ ~ R R R R T T T F F F A V u ; # # 8 z y u c b u y 0 8 8 8 y w 1 : 1 1 1 1 1 1 1 1 1 1 1 1 1 1 1 1 1 1 1 1 1 1 1 1 1 1 1 1 1 : 1 : : : : : : # # X X X # 1 1 8 0 u b h                                                                         ",
"                                                                                                                                                                                                                                                  T T R ~ ~ ~ ~ ~ ~ ~ R R R R T T T T F F A A A i , # # ; , ; y x b x y 0 0 8 8 y w 1 1 1 1 1 1 1 1 9 9 w w w w w w w w w w w w 9 w 8 9 w 3 9 1 1 1 1 1 1 1 1 < : ; # X X X # < 8 8 0 i h s                                                                         ",
"                                                                                                                                                                                                                                                  T T ~ ~ ~ ~ ~ ~ ~ ~ R R R T T T T F F F A A V f : # # # # # 0 u c u y y 0 0 8 w w 9 w w w w w w w w w w w w w w w u y y w w w w w w w w w w w w w w w 3 3 1 1 1 : # + X X # < 8 0 0 i f r i                                                                       ",
"                                                                                                                                                                                                                                                  F T ) ) ) ~ ~ ~ ~ R R R T T T T T F F F A A V h 1 1 1 ; * ; 0 z x z y w 0 0 8 0 w 8 8 0 w 0 0 w w 0 w 0 y y w y y y w q 0 0 q 0 0 0 w w y u y w i i r r r e 5 1 1 ; # X X # < < 8 0 u f e w e                                                                     ",
"                                                                                                                                                                                                                                  ) ) _ }       A F R ) ~ ~ ~ ~ R R R T T T T T T T F F D A V V V h i r : * ; < u u z y y 0 0 8 8 8 < < < 7 7 7 7 7 7 7 7 8 8 q q 8 q 8 q q 8 7 7 7 0 0 0 q y y 0 r t t t t h e 5 1 : # # X # , < 8 0 u h r e w w                                                                   ",
"                                                                                                                                                                                                                                ~ ~ R R ) ) )   V F R ~ R R R R R R R T T T T T F F F A A A M V V V V m 0 = = , w u u u y 8 0 8 8 8 < < 7 7 7 7 7 7 8 8 8 7 7 q 8 8 8 8 8 q q q q q q q q q q q 8 t i t t s t e 5 5 1 ; # X # , < 8 0 w i r r e r                                                                   ",
"                                                                                                                                                                                                                            R R R R R R R R R H V F R R R R R R R R R R R R T F F F F D D D D D D A A V N 8 ; , 8 u u u y 8 8 8 8 8 < < < < < 7 7 7 7 7 7 7 7 8 8 8 8 8 7 7 7 8 q q q q 8 q q q 7 i h s t s h e 5 5 1 : # X # , 1 8 8 w i e w e r i                                                                 ",
"                                                                                                                                                                                                                          ~ R R T T T H H F F V V F R R R R R T T T T T T T F F F F F F F F F F F F D M V z , ; , 0 u u 0 < 1 8 8 1 , , < < < < < < < 7 7 7 7 7 7 7 7 7 7 7 7 7 8 8 7 7 7 7 7 7 7 r f t t s t e 5 5 5 1 $ # # ; 1 8 0 y i e e e r t                                                                 ",
"                                                                                                                                                                                                                      R R R R R R T F F F F A m V F R R R R T T F F T T T T T T F F T R R R J F F F D M V f : # # * y y 0 , < < 8 < = = = - - - = = - , , , - - - - - - - - , - , , , - - - = - 1 t t t t t s e 5 5 5 4 > # # ; < 1 1 w i e e r r r e                                                               ",
"                                                                                                                                                                                                                  R R R R R R T T T F F A A M h V F R T T R T F F T T T F T T T T T R R R R J F F D D M V M f ; . . , w 0 , < < < < * * * * * * * * * * * * * * * * * * # @ @ @ # @ # # @ @ + * 1 r t t s s t e 5 1 4 5 5 : # ; < 1 1 y r e e w w w w r                                                             ",
"                                                                                                                                                                                                              ~ R R T T T H H F F F F A M V m h V F T T T T T F F F T F T T T R R R R R J H F F D D D M M V M h > # . ; 1 , , , , : + . . X X X X X X X X O . . . . . . . . . . . . . . . . . # e t t s e e 5 5 5 5 1 1 5 e ; = < < 8 0 w w e w w w w 5 r                                                           ",
"                                                                                                                                                                                                            R R R R T T F F F F A A A V V M h h V A H T T T F F F F T T T T R R R R F F F F F D D M M M V V V n h e ; # = - , ; , : X . . . . . . . . . . . . . . . . . . . . . . . X # & > 5 r t t e e 5 5 5 5 1 > > > 1 1 w ; < 1 8 w e 5 w w e 5 5 4 5                                                           ",
"                                                                                                                                                                                                        R R R R R T T T F F D A A M V V m m h h M A F T F F F F T T T T T T R T T F F F F D D D A V V M M V V M b h r r e 1 1 1 1 1 # # # # # # X X X . . . . . X X X X X X # : 1 5 r e e e t t t r e e e 6 6 3 > : : : 1 1 1 w i i e r i r r w w w 4 5 5 e                                                         ",
"                                                                                                                                                                                                    R R R R R T T T T F F F A A M V V n m h f b M A F F F F F F T T T T T T T F F F D D D D A V V V V V V V V V m m h t r e e e e w 5 4 4 4 4 4 1 1 1 1 > > > > > > > 1 > 1 4 5 5 w e r r e e e r t t t e 5 3 5 1 > 1 1 1 1 1 1 4 w w r r r 5 w e w 0 1 e e 5                                                       ",
"                                                                                                                                                                                                R R R T T T T T H F F F F A A M V V n m b h f b V V F F F F F F T T T T F F T F G F F F D A A A M V V M V V V M m m m f t e e 5 e w 5 5 5 5 5 5 5 4 4 4 4 4 4 4 4 1 1 1 1 1 1 1 4 5 5 e r r r r e e 5 e 5 > : > : > 1 1 1 1 1 1 4 5 5 5 5 5 5 5 5 w w 4 5 5 1                                                       ",
"                                                                                                                                                                                              R R T T T T T T T F F D A A M V M m m b h h f f b M V A F F F F F F T T F F F F F F F F D A A A A A V V M V V V V V M M m h r e 5 w w w w 5 5 5 5 5 5 5 5 5 5 5 5 4 1 1 1 1 1 1 1 1 4 5 5 w e r r r r 5 5 3 > > > > : 1 5 5 1 1 1 1 4 5 5 4 4 4 5 5 5 w e e 5 : :                                                     ",
"                                                                                                                                                                                          R R R T T T T T T T T F D A A M V M m m k h h h i f h M V A A F F F F F F F F F F F F F F D D A A V V A A V V V V V V V M V M m i r e w w w w 5 5 5 5 5 5 w e w 5 5 5 5 5 4 1 1 1 1 1 1 5 5 5 w w r r r r e e 5 > > > > 1 1 1 4 5 4 1 1 1 5 5 4 4 1 4 5 5 w e s e ; ;                                                     ",
"                                                                                                                                                                                        R T T T T T T T T T T T F A A A V V m m b h h f f i i h m V V A D A D F F F F F D F F F F G A A S A A A M M V V V V V V M M V V M h t r e e r e w e r w e e e e e w 5 5 5 e w 5 5 5 4 4 4 5 5 5 5 5 w w r r e 5 3 > 3 5 e e 1 1 1 4 1 1 1 1 1 5 5 5 4 4 4 5 5 e t e : ;                                                     ",
"                                                                                                                                                                                    R R T T T T T T T F F T T F F S A A V V m m h h h f i t i h m m M A A A F F F F F A A A D F F F A D A F A A A M M M A A A A V M M M n m f r r r r e r e r r r r e e e e w w e e r e e 5 5 5 5 5 5 4 5 5 5 w e e e 5 5 5 5 e r r r 5 5 5 1 1 1 > > 1 4 4 4 4 1 4 4 4 5 t > : :                                                   ",
"                                                                                                                                                                                R R T T T T T T T H H F F F F F F A A A A V m m h h f i i t i h b m V A A D F F F F F D A A A F F F F F F D A A A A A A A A A A V V V V V V m i t r r r r r r r r r r e r r r r r r r r r r e w w 5 5 w w w w w 5 e e 5 5 3 5 r t t h h e 5 1 5 1 1 1 1 4 4 5 1 1 1 4 5 5 t 1 > >                                                   ",
"                                                                                                                                                                              R T T T T T T T T T T T F F F F F A A A A V V m m h h f i t t i h h b V A S F F F F F F D D D D F F A F F F A A A S A A A A A M M V V V V V V V h i r r r r r r r r r r r r r r r r r r r r r r r e e w w w w w w e e e e 5 3 e r t f h h t e 3 1 4 1 1 1 1 4 4 4 5 1 1 1 4 5 e > :                                                   ",
"                                                                                                                                                                          R T T T T T T T T T T T T T T F F F F A A V V V V m b h h f i t r i f h m V A F F F F F F F F F F D D A A F F A A A A S A F A A A M M M A A M M V V b f t e e r r r r r r r r r r t t r r r r r r r r r r r r e w w e r e e 5 3 5 r i i h h t t i r e 3 1 1 > > 1 4 4 5 1 1 1 1 1 e 1 > ;                                                 ",
"                                                                                                                                                                        T T T T T T T T T T T T T T T T T F F F A A V V V m m k h h f i r r i f h n V A F F F F A A D F F D D A A D F F S D F F S S A A A A A A A A A A A A A M h i t t t i t t r r r r r r t r r r r t t t t t t t r r r r r e t e 6 5 5 r i f h h s t h h s t t 5 5 1 1 1 1 4 5 1 1 1 1 1 1 5 > :                                                 ",
"                                                                                                                                                                      T T T T T T T T T T T T T T T T T T T F F A A V V M m m h h f f t t r i f k m V A F F F A A A D F F D A A A D F S S F F F F A A A A F S A A A A A A A A V m h t t t t t t t t t t r t t t t t t t t i i t t t t t t e e t s e 6 5 e r t i h s t t s h h h i t e e 1 4 1 4 w 4 1 4 5 5 > 1 1 >                                                 ",
"                                                                                                                                                                    T T T T T T T T T T T T T T T T T T T T H F F A A V M m m h h f i t r r t f h m V F F F A A A D F D D A A A A A A A F F F F F A A A S F F S A A A A A A V V n h i t t r r r r t t t t t t t t t i i i i i i i t t t t t s h s e e e r t i i s s t s i t h h s s t t e 5 5 5 5 5 1 1 5 4 1 > 1 > :                                               ",
"                                                                                                                                                                  T T T T T T T T T T T T T T T F T T T T T T F F S A V V m b h h f f t t t t f h m A A A A A A A F D D D A D D A A D F F F F F S A A S F F F F A A A A V V V V V m h t t t r r r r t t t r t t t t t i i i i i t t t t r t h h s e e r t i i h h s t t s i h h h h s i t e 1 5 5 e 5 1 1 1 1 > 1 5 >                                               ",
"                                                                                                                                                                  T T T T T T T T T T T F F H T T T T T T F F F F A A M V m m b h h f i t r t f h m V A A A A F D F F D D F F D A A F F F F F F A A S F F F F S A A A V V V V V V m h f t t t t i i t r r t t t t t i i i t t t t t r r r t h h s e r t t i h h h s s s i h s h s s s i s t e 5 3 5 5 1 1 > > > 1 5 5                                               ",
"                                                                                                                                                                T T T T T T T F F T T F F T F F F F F T F F F F D A A V V m m b h h f i t t t i b m V V A A A D D F F D A F D A A A F F F F F A A A A F F F F S A A A V V V V V V M h f t t t t s i i t r t t t t t i i i t t t t t t t t s h h t e r t t f h h h s s t s i s s h t t t i s s t 5 3 5 4 1 > > > > 3 5 >                                             ",
"                                                                                                                                                              T T T T T F F F F T T F F F F T F F F F F F F F F A V V V V m m b h h f i t r r f b M V V A A A D D F F D A A A A A F F F F F F A A F F F F F F A A A A M A A V V M V m h t t t t i i i i t t i i i i f f f f i i t t t t t h h h t r t t t h h h g s h s i i i s h s t t t i s h s e e e 1 1 > > > 1 5 1                                             ",
"                                                                                                                                                            T T T T F F F F T T T F F F F F F F F F T F F F F D A A V V m m m b h f f i t r t f m m M V A D D D F F D A A A A A A F F F F F A A F F F F F F A A A A A A A A A A D D M m h i i i i i i t t i i f f f f f f f i i i t i t t h j h t r t t t h h h s h h s s t i h s h h h i t i h h s t e 5 1 > > 1 1 3 5                                             ",
"                                                                                                                                                          T T T F F F F F F T T F F T F F F F F F F F F F F F A A A A V M m b h h f f f t r t h m m m M D D D D F F D A A A A A D F F F D S S S F F F F F F A A A A A A A F F D D D D M b f i i i t t t t t i f f f i i i f f i i t i t t h h h t r r i i s h h h s h h t g s i h s h h s t i i s h h t 5 5 > > 1 5 3 5                                             ",
"                                                                                                                                                        T T F F F F F F F F F F F F F F F F F F F F T F F F F A A A V V V m k h f f f i t r t h m m m M D D D D F D A A A A A A A F F F A S A F F F F F F F A A A A A S F F D A A D F A n h i i i i t t t t i f f i i i i i i f i t i i t h s s t r i f h h h t i h s s h t t h i h h s s t t i s s h h r 5 1 > 1 5 3 5 >                                           ",
"                                                                                                                                                      F F F F F F F F F F F F F F F F T T T T F T T T F F F F S A A V V M m k h h f f i t r t h b b m M D D D D D A A A A A A A A F F S A A S F F F A A A A A A A D S A S A A A A A A A V h i t t i i i h h h h f i i i i i i t t t i t t h h s t i f h h h k f t t s s h h t t h s h h s t t t t s h h s 5 1 > 1 5 5 5 1                                           ",
"                                                                                                                                                      F F F F F F F F F F F F F F F T T T T T F T T T T F F F S A A V V M m k h h f f i t r r f h b n M A A A A A A A A V A A A D F F A A A S F S A A A A A A A F A A A A A A A A A A A A m h i t t t t h h h h i t t i i i t t t t t t t h h s t i f h h h k h t i t s h h h s t s s h h s t s s s h h h t 5 5 1 5 5 5 5 :                                         ",
"                                                                                                                                                    F F F F F F F F F F F F F F F F T T T T T F F F F F F F F A A V V V m m b h h f f i r r r f h b n M V V M A A A A V A D A D D F S A S A S S A A A A A A A A A A A A A A V A A A S A A V k h t t t t i i i i t i i i i t t t t t t t t h p p t t f b b h k h t t s s s h h s s t s s h s s s s h s h h s 5 5 1 5 5 3 5 >                                         ",
"                                                                                                                                                  F F F F F F F F F F F F F F F F F T F T T F F F F F F F F S A A M V V m m b h h f f i t r r t h b n V V V A A A A A F D F F D F S A A A A S A A A A A A A A A A A A A A V V V A A A A A V m h i t t i i i i i i i i i t t t r t t t t t h p s t t f b b h k h h t s t g s h s s s t s i h h h s s s i h h t 5 3 3 5 1 3 5 >                                       ",
"                                                                                                                                                  F F F F F F F F F F F F F F F F F F F F F F F F F F S D D A A A M V V m m m b h h f i t r e r f b m V V A A A A A V D D D D F A A V A A A A A A V V A A A A A A A A A A V V V A A A S D A V h f i i i i i i i i i f f i i i t t t d t t h s s t t i b b h k h h d i d t t s h h s t t t s h s s s t s s h s e 3 > 3 3 > 5 3                                       ",
"                                                                                                                                                F F F F T F F F F F F F F F F F F F F F F F S F F F F A D A A A M V V M m m m h h h f i t r r r f h m V V A A A V D V V D D D D A V V V A A V V A V V V V A A A A A A V A V M A A A A S F F A m f i i i i i i f f i f f h f i i t t f f t h h h s t i f b b h k h h i s t t s s h h t t s t h h s h t i h i s t e 1 3 5 1 1 5 1                                     ",
"                                                                                                                                                F F F T F F F F F F F F F F F F F S A A S A D D S F D A A A A A V V V n m m m h h h f f t r r e t h m V V A D D D D M A D D A A A V V V A A M V A A A A A A A A F A A V A A A A A A A S F F F V h f i f f i f f f f f f f h s s i s h h f h h h h s i f b b b h s h h s h t g s h h s t t t t s s s h h s h t t e 5 1 5 1 1 5 1                                     ",
"                                                                                                                                              F F F F F F F F F F F F F F F D S S A A A A A A A A A A A A V V V V V V n m k h h h h f f i t r e r h M V A D D D A M V A D A M M V V V A A A V V V M A A A A A A A A A A A A A A A D S F F T T F m f i i f f f f f f i i i i i i h h h h h g h h h h s h b b m h h s h h h t t s h h s s t t t t t s h h s t s t t e 5 1 1 > 5 3 5                                   ",
"                                                                                                                                              F F F F F F F F F F F F F F F D D S S A A A A A A A A A A A A M V M V M m m h h h h h f f i t r r e f M M D F D A A A A A A M V V V V A A A M V V V M M M A A A A A A A A A A A A A D F F F F F F V h f f f f f i f i i i i i i h h h h h h h h h h h s s h b b b h h i h h h t i i h h s s s t t t s h h h t t t t t e 5 1 > 3 3 3 r                                 ",
"                                                                                                                                            F F F F F F F F T T F F F F F F D A A A A A A A A A A A A A A A A M M V M m m h h h f f f i t t r r w t M V A A A A V A A M M V V V V V V V V V V V V V M M A A V V A A A A A A A A A D F F F F F F A b f i f f f f i i i i i i t h h h h h h h h h h h h s h h b m h h s i h h h t t t s s g s t t t t s h h t s t t t t 5 1 > 1 5 1 5                                 ",
"                                                                                                                                            F F F F T T F F T T F F F F F F A A A A A A D A A A A A A A A A A A V V V m b h h h f f i i t t r r w r m V V A A M V V V M V V V V V V V V V V V V V V V M A V V V A A A A A A A A A S F D D F F F D m h i i f f f i i f i t t t s h h h h h h h j h j h s s h h b b h h s i h h s s t t t g s s s s t t s h s s s t t t e 3 1 > 1 1 1 i                               ",
"                                                                                                                                            F F F F T T F H T F T F F F F F F F F S S S A A A A A A A A A A A A A V V m b h h h f i i t t r r r e w h V V M V M V V V V M V V V V V M M V V V V V V V M M V V A A A S S D F D A A S S A A A F F F V h i t t i f i i i f i t t s h h h h h h j j j j j h h h h h h h h s h h h h s t t t t s h s h s t t s s s s s t t t 6 3 > 1 1 > e                               ",
"                                                                                                                                          F F F F F T T T F F F T F F D A A F F F F F F D A A A A A A A A A V A A A M m m h h h h i t t r r r r e w f m V M V M M V V V V V V V V V n M V V V V V V V V M M V A F F F F F F F F F F A A A S F F A V b i r r t i f i i i i s h h h h h h k j j j j j j j h h h h b h k h h s h h h s s s i t s s s s s t t t s t s t t t t 5 > 1 1 > 5                               ",
"                                                                                                                                          F F F F F F F F F F F F F F F A F F F F F F F F D A A A A A A A A M A A A V m n m k h h f i t r r r r r e t b n M M M V V M V M V V V V V M M M V V V V V V V A A A F F F F F F F F F F F F S A A A A A A n f r r r i i f i i i h h h h k j h h k j j j j j j h t i h b b h j h h t h h h i t s s s s s s t t t t s s s t e t t e 5 1 1 1 5                               ",
"                                                                                                                                        F F F F F F F F F F F F F F F F F F F F F D A A S A A A A A A A A A M M A A V M m m k h h f i r r r r r r r r h n M n n V V V A A V V V V V n m V V V V V V V M A A D F F F F F F F F F F F D A A A A A A V V h r e e r t t i s s h h h h h h h h h h j j j j j h s t f h b h h h s h s t h h s t s t s s s s t t t t s s t e t t e 5 5 1 5 6                               ",
"                                                                                                                                        F F F F T F F F F F F F F F F F F F F F F A A A A A A A A A A A A A A A A A V V m m h h f f i t r e e r r r r h m n n M V V V M V V V V V m m m V V V V V V M A A S F F F F F F F F G F F F A A A V V V M M M b f t r r r r r r r t i s s s h h h h h h h h j j j h s f f b h h j h h h h t s h s t t t s s t t t t s e e t t t e e 5 5 1 3 5                               ",
"                                                                                                                                        T T T F F F F F T F F F F F F F F S S S A A A A A A A A A A A A A A V V V V V V M m h h h f i t r e 5 e t r r h b n n M M V V V V V M m m m m n V V V V M A A A S F F F F F F F F F F D F A A A A A V V M V A V m f i r r r r r r r t t t i i i s s s h h h h h h h h i f b b h h j t h h s t s s s t s s s s t t s s 5 5 5 e t e t e 5 > > 5                               ",
"                                                                                                                                      F F T T T T F F F F F F F F T T F F F S A A A A A A A A V V V V A V V V V V V V V V m k h f f i t r r e e r r r f k b n M M M V V V M m m m m n n V V V A A A A D F F F F F F F F F F F D A A A A A M M M D F F F V h i r r r r i i i i i i i i f f f i i f f i s s t t t i f h h h j h h h h t t s s t t s s t t t e 6 3 5 5 5 t e t e 5 1 1 5 t                             ",
"                                                                                                                                      F F F T F F F F F F F F F F F F F F A A A A A A A A A A A A A A V V V V V V V V V M m m h h f f t r r e r r r r f h k n M M V V V m m m m m m V V V V M A A A S F F F F F F F F F D D A A A A A V M V D F T T T T F V h t r r r r t i i i i i i i f f f f f f f f i i i i i i i f h h j h h h h t t s s s s s s t t t 5 1 e e 6 e e t t 5 1 > 5 e                             ",
"                                                                                                                                    F F F F F F F F F F F F F F F D A A A A A A A A A A A A A A A A A V V V V V V M V V V n m h h f f i r r r r r r r i h k n V M V V M m m m m n M V V V M A A A A F F F F F F F F F F D D A A A M M V F T T T T T T T F A b i r r r r r r r t i i i i f f f h h f f f f f f f f i i i i i h h s h h s i s h h s t s s t s 5 1 t 5 > 5 e t t e 1 > 5 e                             ",
"                                                                                                                                    F F F F F F F F F F F F F F F A D D F F F A A A A A A A A A A M M M V V V V V V V V V M m k h h f i t r r r r r r i h h b M M M V V n m m m V V V V M V A A A S F F F F F F F F F D D D D V M M S T T T T T T T T T F A n h r r r r r r r r r i i i i i f f f f f f f f f f f i i i i i i s s h h h h h h h h s t s t s 5 > e 3 > 5 t t t e 1 1 3 5                             ",
"                                                                                                                                  F F F F F F F F F F F F S A A A D F F F F F S A A A A A A A A A M M M M M V V V V V V V M m k h h f i t r r w r i r t f h b n n m V V M m m M V V V M V A A A A F F F F F F F F D D D D D D D S F T T T T T T F F F D A A m h r r r r r r r r r r r r r r r t t i i i i i i i i i i i f f f i t s h h h h h h h h s t t r e 3 1 5 > 5 e t t t 3 3 1 5                             ",
"                                                                                                                                  F F F F F A D F F F F S A A D F F F F F F F A A A A V V V A A V V M V M M A V V V V V V V m m h h f i t r r w r r r t f h b n m m n M m m m n V V M A V V A A A F F F F F F F A A A V A M A F F T T T T T F S S A A A A V m h t r r r r r r r r r r r r r r r r r r r t t t t t t i i f h f f i s h h h h h h h h h s t t t 5 1 e 5 3 5 t t t 5 5 1 5                             ",
"                                                                                                                                F F F F F F A S F F F F A A F F F F F F F F D A A A V V V V A A V V V V V M V V V V V V V m m m h h h i t r r w w r r r i f b m m m m m m m m n V V V A V V A M A A F F F F F A A M M V V F F T T T T F S S A A A A F A A V m h i e e w 5 e r r e e e r r r r r r r r r r r r t t t t i i f i i i f s h h h k h k h h h s s t e > 5 5 1 1 t t t e 5 1 5                             ",
"                                                                                                                                F F F F F F F F F F F A A S F F F F F F F F A A A V V V V V V V V V V V V V V V V V V V V M m m b h h f t r r w w w e r i f k m m m m m m m n m V V V V V V V V V A A A A A A V M M V F F F T T F F F A A V V A D S A A A V M m f r e w 5 5 w w 5 5 w w r r r r r r r r r e e r r t r r r t t t i f f s h h h k k h h h h h s t 5 1 5 3 > 5 t t e 5 1 1                             ",
"                                                                                                                              F F F F F F F F F F F F S S F F F F F F F F A A V V V V V V V V V V V V V V V V V V V V V V M m m m h f f t r r r w w w e i f h b m m m m m M M V V V V V V M n m M V V V M n b M A A F F F T F F S S A A V V V A A A M V V A V n h t r w 5 5 w w w e 5 5 5 5 5 r e r r r r e e e r r r r r r e r t i i i i h h k k k h h h h h s t 5 1 5 > > e t e 6 > 1                             ",
"                                                                                                                              F F F F F F F F F F F D A S F F F F D F F A V V V V V V V V V V V M V V V V V V V M M V V V V m m m h h i t r r e 5 5 5 r i f h b b b m m m M V V V V V M M M m m m m m m b b V A S S F F F S S A A A A V V V M V A V V M M M M n h f r r 5 5 5 5 w e r w 5 5 5 e e 5 e e r e e e e r t t t t r e r r i i f i h h h h h h h h h h i t 5 1 5 > 5 t t e 1 1                             ",
"                                                                                                                            F F F D F F F F F F F F D A F F F F A D F A A V V V V V V V V V M M M M V V V V V V M M V V V M m m m h h i t r r 5 5 4 5 r t f h h b b m m m M M V V V V M V M n m m m b m M V S S S S S S S A A A A V V V V M M V V V M m n n n n m h t r e 5 5 5 5 w r w w w 5 5 e r r e e e e e e e t i t i t e r r i i i f i s h h h h h h h h h i s 5 5 > 5 t t e 5 3                             ",
"                                                                                                                          F F F F F F F F F F F D D F A F F S S S F A A V M m n V V M n m n n m m M V V V V M M m m M M V n m m b h f i t r w 5 4 1 4 r t i h h b b m m n n M V V V V V V M n m m h h V A S S S F F F S S V V A A V V V V M M M M n M V M m m m k h i r e w 5 5 5 5 e e w w e r r r r r r t t t t t t i t i t t e e r r t i i i i h h h h h h h h h i s 5 > 1 t s t 5 5                             ",
"                                                                                                                          F F F F D F F F F D A D D F A S S S S F D A V m m m m m M m m m m m m m m m V V M n m m m n M V n m m h h f i r e 5 4 1 1 5 e r i f h b b m M M V V V V V V V V M m m b h m A S F F F F F F S V V V V M M V V M m n M M V V V m m m m m h f r e 5 5 5 5 5 5 e w w w e r e e e e e r t t t t t t r t e e e e r r r i i i i t s s h s h h h h t e 1 > 5 s t e 3 e                           ",
"                                                                                                                        F F F F F F F F F F A A S A A D A A A A A A V m m m m m m m m m m m m m m m m m m m n n V V m m V m m h h h f t r w 5 4 1 1 4 e r t f h h b m m V V V m V V V V V M m m b b M A F F F F F F D A V V M A A V M M M M M M M M M m k k k m m h f r w 5 5 5 5 5 5 5 5 5 e r r e e e e e e e e e e e r r e e e e e e r r r i i i t r t s s s h h h h t 5 > 1 t t e 5 5                           ",
"                                                                                                                        F F F F F F F F F F F F S A A A A A A A A V m b h k h b b b m m m m m b b b m m m m m m V V m m M m b h h h i t r w 5 1 1 > 1 w r t i f h b m m V V V M V V V V V n m m k n A D F F F F D F D A V M A A A V M M M M M M V m m m k k k m m m f t e 5 5 5 5 5 5 5 5 5 e r r e e e e r e e e e e e e e r r e e r e w r e r i i i t r t t t s h h h s 6 > > e t e 6 e                           ",
"                                                                                                                        T T T H H T H H F F F F F F F F F F D A A V m b k h h h h h h h k k b h h h h b b m m m m m m m m m b h h h i r e 5 4 1 > > 1 w r r i f h b m m V V V M V V V V n n m b k V D D F D D D D D D A V V V A A A V V M M M M M m m m k k m m k k h t r w 5 5 5 5 5 5 5 5 e r r e e e e e e e e e e e w w e r r r r r w w r r r r i i t r e e r t s h h e 3 > 5 s t e                             ",
"                                                                                                                      T T T T T T T T T H H F T T T F F F F F D M M A M M n m h h h h h h h b h h h h h h m m m m m m m m m h h i i t r w 5 1 1 > > 1 5 r r i f h h m m V V V M V V V M n n b k n A F D D D D F D D M V V V V A A A M V m m n n m m m m m m m k h h h f r w 5 5 5 5 5 5 5 5 w e w e r e r r r r e 5 e e w e w e r e r r e w w r r r r t i t r e e e r s s s 5 1 > r t e                             ",
"                                                                                                                      T T T T T T T T H H H H T T T T T F F D D F F F D D V V V m h h h h h b h h h h h h h m m k k m m m h h h i r r e 5 4 1 > > > 1 5 r r i f h h m m M V V M M M n m n n k k V D D A D D D D D A V V M M M M A A M V m m M M m m b m m m k k h h h f t w 5 5 4 5 5 5 5 5 5 5 w e r e r r r r e 5 w e 5 5 e e r e e r r w w e r r r r t i i t t e e t s s e 1 > 5 t t                             ",
"                                                                                                                      T T T T T T T T H H H H H T T F F F F R R R R F D D A V M V m m k i i f h f f f f h h h b k k k m k h h f i r r w 5 1 1 > > : 1 5 e r t i f h b m n V V M M M m m n k k k V F D D D D D D M M V M M M M M M V V V m m m M m b b h k k k k h h k h f t e 5 5 5 5 5 5 5 5 5 w e e r r e e r e w w w 5 w e 5 e e w e r r w 5 w e r r e t i i i s r t t t t 5 > > t t                             ",
"                                                                                                                    T R R T T T T T T H F F F F F T T R R R R R R F D D M M M V V M M M b h i t t i f f f f h h h k k k h h h h t r 5 5 4 > > > : : 1 5 e r t i f h b m V V V V V V n n n k k m D A D D D D D A V V V V A M V V V m M V m m M m m k h h k k m m b m m m b f t e 5 5 5 5 5 5 5 5 5 e e e e e r e e w w w w w e e e e 5 w e e e w e 5 r r r e t i i i i r t t i e 1 : e t                             ",
"                                                                                                                    R T R R T T H F T R J T T T T T R R R R J F F D D D C M V D M M M M M m h h i i f h k h h h h h h h h h h f t e 5 4 1 > > : : : 1 5 e e r i f f h m V V V V V n n n b k k V A A A D D D D D M V V V V V V V M m m m m n V M m m m m m b b b m m m m m b i r w 5 5 5 5 5 5 5 e e e e 5 e r e e e w 5 5 w w e e e 5 5 e e e e e e r r r r r r i i i i t s t t 3 > 5                               ",
"                                                                                                                  R R T T T T T T R R R R R R R T R T T F R T F D A A A D D D D D M C M n n m k h h h h k n n j k h h h h h h f e 5 5 4 > > > : : : 1 5 5 e r i f f h b m V M V V n n n k k b M A A M D D D D D M V M V V m m n M m m m m n V n n n n n m m b b m m b m m m f r e 5 5 5 5 5 5 e e e e e e e e e e e e e w w w w e e 5 5 5 r e e e e e r r r r r r i i i t t t t 5 1 >                               ",
"                                                                                                                  R R T T T R R ~ ~ R R R R R R R R F F F F F D A A V V D D D D D D D M n n M m m m b k k k n n n k h k k k h g t e 5 4 > > > : : : 1 5 5 e r t i f h h m M M M n n n n b k m M V A M V M D D D M M n V V m m m n m m m m m V M n M n n m m b b m b h h b m h i r e 5 5 5 5 5 e e e e e e e e e e e e e e e w w e r e 5 5 5 r r e r e e r r e r e r t i t t t t e 5 > 5                             ",
"                                                                                                                  R R R R R ~ ~ R R R R R R R R R F F A A D A A A A V V D D D D F D D M M M n m m m m j l n n M n j j h j k h h t e r 5 1 > > > : : 1 3 5 5 e t i f h b n n M M n n n n k h V M M M M C M M C M M M M M n m k m n m m m m m n n M n n n m k h h h h m m n n b h t e e e e e e e e e e e e e e e 5 5 e e e e e w e r e e e 5 5 e e e e w e e e e e e r r r i t t t 5 1 1                             ",
"                                                                                                                R R R R R ) ) R R / / R R R R F F F F A D D A A A V M M D D D D D D M M M M M n m V n k k n n n n n n b k j j h h t e 5 4 1 > > : : > 1 5 5 r r i h h k b n M M V m m n k m V M V M C C M V M M V V M m k m m k m m m m m m m n n M n n m k h h h h b m n n b k h r e e r t t r r e e e e e 5 5 5 5 e e 5 e e 5 e r r e e e 5 5 e e w w e r e e r e e r e r t r t e 1 >                             ",
"                                                                                                                R R R R ! / R R ! ! R R R R F F F D D D D A A A A V V V M D D D D D D M V D A V V V M n n n n n b b M M M n h k h s t e 5 1 1 > : > > 1 5 5 e r t h h h k n M M M n m n b M M C C C M M M M M M V V n m k m m k m m m m n m b b m m n m k h h h h h h k b b k h h t e e e t t t t r r r e 5 5 5 5 5 e e 5 e e e e e e e 5 5 5 5 e e e e e e e t e e e r e r r t t t 1 > 5                           ",
"                                                                                                                R R R R J R J R R R R R J F F F F D D D D A M A M n m n M D D M A V M M A D D A M V V M M M n b k m n M n l h i i t e e 5 5 5 > > > > 1 1 5 5 r r i i h k n M M M n n k n M D D D M M M M M M M M M n n m m m k k m m m M m m k h h h h h h h h h f f h k b k h i t e e e e e e e e e e 5 5 5 5 5 5 e e e 5 e e e e e e e 5 5 5 e e e e e e r e e e r e r e e e r t 5 1 1                           ",
"                                                                                                              R ~ R J J J R R R R R F D F F F F F F D A M V V V M m M V M M M V M A M M M C D C A M M M M M M V n m n n n n k h i t t e 5 5 5 3 > > > 1 1 1 5 w e r f h h n n M M n k b V V D D D M n M A V M M M M V M n n m m m m m m n n h h h h h h h h h h h f f h k b k h i t e r e e e e e e e e 5 e e 5 5 5 5 5 5 5 5 e e e e e e e 5 5 5 r e 5 e r e e e e e e e r 5 e r r r 1 1                           ",
"                                                                                                              R R R J J J J J R R J F D F F F D A M M V M V V V n m n V V M M M M M M D D D D D D D M M M M M V V M n M n n n k i t t t t 5 5 3 2 2 > 1 1 1 5 5 w e r t f h l M n k h b V V M C C M M M A A M M M M M M n n m m m m b k b m k k k h h h h h h h f f f h h k k k h t e e e r e e r 5 5 5 5 e e e 5 5 5 5 5 5 5 5 5 e e e e e e e 5 r e e e e e e e e e e e e 5 5 5 e e 5 1 1                         ",
"                                                                                                            R R R F F F J R R H F F D F F F F A M V V V V M A A M M M M M M M M M n M M D D D M M C C M M M M M V V M M M M n k h i i f h h t 5 3 2 > > 1 1 4 5 5 w e r r t f k b h k m V M M M M V M M M M M M M M M M n n M n n n n n n b k k k h k h h h h h f f f f f f f h h i t e e e e 5 5 5 5 5 5 5 e e 5 5 5 5 5 5 5 5 5 5 e e e e e e e e e e e e e e r e r r e e e 5 5 5 e e 4 1                         ",
"                                                                                                            R R H F F F F F F F D A D F D D V m n M V V M M D M M M C M M M n M M n M M C D M M M M D D D D M M M M M M M n b b h h h h h g s s e 5 > > 1 1 1 1 4 5 w e r r t i h h m n V M V M M M M M M M M C M M M n n n n n n n M M M b k k k k b k k h h h f i f f f f f t i t r r e e e e 5 5 5 5 5 5 5 5 5 5 5 5 5 5 5 5 5 5 5 5 5 5 e 5 e e e e e e r e e e e 5 e e e e 5 5 e r e 1                         ",
"                                                                                                            R R J F D D D F F M M V D D M V V M V V M M n M M M C D D D M M M M M n M M D D M M M C C C D D D D C M M M n m b n b h h h h h h s s e 5 > > 1 1 1 1 5 5 w e r r i h m n n M M M M V M M M M M M C M M n n k k n n n n n n M n b k k k b n n b k h h i t i f f t t t t r r 5 5 5 e e e 5 5 5 5 5 5 5 5 5 5 5 5 5 5 5 5 5 5 5 5 e 5 5 e e e e e r r e e e 5 5 5 e e e 5 5 e r 4 >                       ",
"                                                                                                          R R R J F D D D D D M A A D D M M M M M M M M M M M M M D D F D M M M M n n M V C M M M M C D D D F F D M n n n m m b b k h k k k k h s e e 5 > 1 1 1 1 1 4 5 5 5 e r h n V V M V M n n M M M C M n M M n n n k k k k k b b n n n k k k k k j n n k h h s s h h h i t i t r r 5 5 5 5 5 e e e 5 5 5 5 5 5 5 5 5 5 5 5 5 5 5 5 5 5 e e 5 5 e e e e e r r e e e e e e r e 5 5 5 e w 1                       ",
"                                                                                                          R R J F J D D D D D D D D D D V M C M M M M M M n M M D D D D C M n M M n n M C C V V M M M D F F D D D C n k m m k k k h h h k n k h h h e e t e 4 1 1 1 1 1 1 4 5 r h m m V n n m M n M M M M n b n n n n n n n b k b k k k k k b k h h h k k j k h h h h h h i i i i i t r e 5 5 5 5 5 5 e e 5 5 5 5 5 e e 5 5 5 5 5 5 5 5 5 5 5 e 5 5 e e e t e e e e e e t e e 5 5 r e 5 5 e 4                       ",
"                                                                                                          T F F J F F F D D D D C C C M M M M M n M M M M M C C D D D D M M n n n M M M M M M M M M n M M M M M M M n m n m m k h k h h h j k h h h h t t t e 5 1 1 > > > 1 5 r k b m n n n n n M M M M M M n b n n n n n n k k k k k k k h k h h h h h h k h h h k h h h s i t t t t r e e 5 5 5 5 5 5 5 5 5 5 5 5 5 5 5 5 5 5 5 5 5 5 5 5 5 5 5 5 5 e e e e r 5 5 5 5 r t r e 5 5 e e 5 e e >                     ",
"                                                                                                        T F F F J F F D D M M M M C D M M M M M n M M M M M M M M M M n l n n n M M M n n n M M M M n n n M M M M M n m m m m m h h k h h h h h k h h h t t e 5 > > : : : > 5 t m m n m m n V M M M M M M n n n n n b k k k k k k k k k h h h h h h h h h h h h k k k h h i t t t t t t r e e 5 5 5 5 5 5 5 5 5 5 5 5 5 5 5 5 5 5 5 5 5 5 5 5 5 5 5 5 e e e e e 5 5 5 5 e t t e 5 5 5 e w 5 r 1                     ",
"                                                                                                        T D F F F F F D C C M M C D D M n M M M n M M M M M M M C M M n n n M M M M M n n n n M n n l n M M M M M n n m m m m m k k k k k k k k k j h h h s t e 5 1 > : : : 5 f n m M m m n n M n n M M M n n k n n k k k k h k k k k h s h h h h h h s h h s h h h h s t t r t t t t t t r e e e 5 5 5 5 5 5 5 5 5 5 5 5 5 5 5 5 5 5 5 5 5 5 5 5 5 5 e r e e e e 5 5 5 e e e e e 5 5 5 5 5 e w >                   ",
"                                                                                                      T A D F F F F F D D D M M D D M M M M V M M M M M M M M M C M M M M M M M M M M n n n m m k k j n M C C M M M n n m m m m k k k k k l k k k k k k h s t t e 5 5 > : : e h n m m k m n n M M n n n M n k k l l k h h h h k h h h h h h h h h h h t t t t s s s t e e r r t r t t r r r e e e 5 5 5 5 5 5 5 5 5 5 5 5 5 5 5 5 5 5 5 5 5 5 5 5 5 5 5 e e e e e e e e 5 e e e e e 5 5 5 5 5 r 5                   ",
"                                                                                                      F A F F F F D D M D D M D D D M M M M M M M n n n M M C C C M M M n n M M M C C M l j k k k k k k n M C M M M n n m k m n n k k h j k l n k k h h s s s t t r 5 > : : r h n m m k m n M M M k k n M n k k k k j h h h h h h h h h h h h h s t t t t t t t t t r e r t t r e e e e e e e e e e 5 5 5 5 5 5 5 5 5 5 5 5 5 5 5 5 5 5 5 5 5 5 5 5 5 5 5 e e e 5 e e e e 5 e e e e 5 5 4 5 5 5 r                   ",
"                                                                                                    S A D F D D D M M M D D D D M n n n n n n m n j l M M M C C C C M M M M M M M C C C M n l l l n n n M M M n n M n k k k k n n k k h h k k k j k h s t t t t i t e 5 > > t h m n k m n n M n M b k n M M n k j h h h h h h h h h h s h h h h h t t t s s s t r r e e e e e e e e e r e e e e e e e 5 5 5 5 5 5 5 5 5 5 5 5 5 5 5 5 5 5 5 5 5 5 5 5 5 5 5 5 e 5 e e e e 5 5 5 w e 5 5 5 5 5 5 e                   ",
"                                                                                                    A M F F D D D C M M D D D M n k n b n n k k j n M M M M C C C C M n n n M M M M M M M M M M M M M M M M n j l n n k k k k k n n n k h h h k k k h h g t t i i t t e 5 4 i k n n k k b k b n n b k n M M j k h t d h h h h k h h s s s h s s s s t t s s t t r e e e e e e e e e 5 5 5 e e e e r e e 6 5 5 5 5 5 5 5 5 5 5 5 5 5 5 5 5 5 5 5 5 5 5 5 5 5 5 5 5 5 e e e e e 5 5 5 5 5 5 5 5 5 5 r                 ",
"                                                                                                  M D F F D M C M M M M M n n b k k k j j j l n M M M M M M M C M M l n n j n n M M n M M M n n M n n M M M k k l l j j k n k k b n n n k h h h h h h s s g h s i t t e 5 e i k n b m b m m b M k k k j n n k k h h h h h h h h h t t t t s s s h h s t t t t r r r e e 5 5 5 e e 5 5 5 5 5 5 5 5 5 5 5 5 5 5 5 5 5 5 5 5 5 5 5 5 5 5 5 5 5 5 5 5 5 5 5 5 5 5 5 5 5 5 e 5 e e e 5 5 5 5 5 5 4 4 5 5                 ",
"                                                                                                  M F J D D C M M n M M k n n k k k k k k j j l n j j j M M l l M n n n k k k k k k k k k k k k j n j n M n k k k k k k k k k k k k b n k k h h h h h t t t s i t i t e e e i k m m m n n b b n k k k k j l k k h h h h h h h h s t t t t t t s s t t t t e e e e e e e e 5 5 5 5 5 5 5 5 5 5 5 5 5 5 5 5 5 5 5 5 5 5 5 5 5 5 5 5 5 5 5 5 5 5 5 5 5 5 5 5 5 5 5 5 5 5 5 5 e e e e e e e 5 5 4 4 5 5 e               ",
"                                                                                                  D J F D D M n l n n j b n n k k k k l l j k j j k j j l l l l j j l l k h h h h h h k h h h h k k j n n k k k k k k k j k k k k k k l k h h h k k h s t t t t t t t t r e g k k b V M n k b b k k k k k k h h h h h h s h h h t t t t t t t t t t r r e e e 5 e e e e e e e e 5 5 5 5 5 5 5 5 5 5 5 5 5 5 5 5 5 5 5 5 5 5 5 5 5 5 5 5 5 5 5 5 5 5 5 5 5 5 5 5 5 5 5 5 5 5 e e e e e e w 5 5 4 5 5 5               ",
"                                                                                                D F F C M M n k k k k k k h h h k j j j j j j k j j j j j j j j j j l j k k h h h h h h h h h h h k k j k h k k k k k k n n j k k h k k k h h h h k k s t i i i t t t e r e h k h h M M j k b k h k h k k k h h h s t t t t s t t r r r r e e t t t r e e e e 5 5 5 e e e e e e 5 5 5 5 5 5 5 5 5 5 5 5 5 5 5 5 5 5 5 5 5 5 5 5 5 5 5 5 5 5 5 5 5 5 5 5 5 5 5 5 6 e 6 e 5 5 5 e e e e e e 5 5 5 5 5 5 e             ",
"                                                                                                D F M l n k k h h h h h h h h k j j k k h h h h h h h j j j k j j j j k j k h h h h h h h h s h h h j k h h h h h h h k k n j k h h h h h h h h t h h g t h i i i t r r e e h h h m D D n n k h b k h k k k h h s t t h s s t r e e e e e e e e e e e e r r e e e w e e e 5 5 e e e 5 5 5 5 5 5 5 5 5 5 5 5 5 5 5 5 5 5 5 5 5 5 5 5 5 5 w w w e e w 5 5 5 5 5 5 5 6 5 5 5 5 5 5 e e e e e 5 5 5 5 5 5 5 e           ",
"                                                                                              D F D k k k h h h h h h h k h h k k k k k h h k h h h h k j j k j k k h h j k h s s h h h h s s h h h k h h h h h h h h h k k k k h h h h h h h k h h h h i i i t t t r r r e h h h n D D n k h h b k h h k h h h h t s h s t r e e e e e e e e e e e e r r e e e w w e e e 5 5 w w e w w w 5 5 5 5 5 5 5 5 5 5 5 5 5 5 5 5 5 5 5 5 5 5 5 w w w w e w w w 5 5 5 5 5 5 5 5 5 5 5 5 e e 5 e e e 5 5 5 5 5 5 e           ",
"                                                                                              F D n k h h h h h h k k k k h h k h h h h h h h h h h h h h k h h h h h h k h h s s s h h g s h h h k k h h h h s h h h h h h k h h h h h h h h h j h h h h h t t t e r r e r h h h n M M n h h h h k h h h h h h t t t t t e e e e e e e e e e e e e e e e w w w w w w w w w w w w e 5 w e w w w w w w w w w w w w w w e w w w w w w w w w w w e e e e w w w w 5 5 5 5 5 5 5 5 5 5 e 5 5 e 5 5 5 5 5 5 5 5 r         ",
"                                                                                              F M k h h h h h h h b b b b b b h h h f h h h s s h i i s h h h h h h h s h h h g s s h h h h h h k k h s h h h s s h h h h h h h h h h h h h t h h h h h t g t t r r e e r r f f h m M n h h f f h h h h h s t t t t e e e e e e e e e e e e r e e w w w w w w w w w w w w e w r r r e e e e w w e w 5 5 5 w e e e e e e e r e w w w w w w e w w w w w w w w w w e 5 5 5 5 5 5 5 5 5 5 5 5 5 5 5 5 5 5 5 5 w         ",
"                                                                                            F M k k h h h h b b b b b b b b b b b b f c b b b h h i t t i h h h h h h h h h h s s h h h h h h h h h s h s h h s i s h h h h h h h h h h h h s t i f f t t t t t r r e e r r h h h k n k h f t i h h h h s t t t t e r e e 5 5 e e e e e e e e e w w w w w w r w w w w r e e e e e 5 5 5 5 5 5 5 5 3 1 3 5 5 5 e e 5 5 e 5 5 5 5 5 5 e w e r w e w w e r e w w w w w w e 5 5 5 5 5 5 5 5 5 5 5 5 5 5 5 5 5 5 r       ",
"                                                                                            M k h h h h b b b m b f f f f f f h f f i i f f b f f f i i i h h h s s s s s h s s h h h h h h h h h s t i s s i i i i s h f i f f f f h h h h t t t t i t t t r r r r e e e r h k h h m h f i t i h h h h s t t i e r e 5 5 5 e e e e 5 5 5 5 w w y w y w w w e e e e e e e e e e 5 5 5 3 3 3 3 3 3 3 3 5 5 5 5 e 5 5 5 5 5 5 5 5 5 5 5 5 5 5 5 5 w r r r r e w w w w w e e 5 5 5 5 5 5 e 5 5 5 5 5 5 5 5 5 5 e       ",
"                                                                                          n k h b b b f M ( f.j.#.G n i t t i i i i t r r i i i i i f f i i s s s s i i t i t t s h h h s t s h h t t t t t t t t i i i i t t i i f f f h h t t t t t r t e r r r r e e e r h k f h h f t t t i h h h h t t t t e e e 5 5 5 e 5 5 5 5 5 w w w r w w w e e e 5 5 5 5 5 5 5 5 5 5 5 5 5 5 3 3 2 3 3 3 5 5 5 5 5 5 5 5 5 5 5 5 5 5 5 5 5 5 5 5 4 4 5 w w w w e e e w w e e e e 5 5 5 5 5 5 5 5 5 5 5 5 5 5 5 5 5 e     ",
"                                                                                      n m b b b b m ( d.c.N.m.m.m.v.l.#.K j s i i i t t r r r r r r r i i i i i h h i t t t t t t t t t t t t s t t r t t t t t t t i i i t t i t t t t t t t t t t t e r e e r r e 5 r e t k k h h h i t i i i h h h s t t t e e e 5 5 5 5 5 5 5 5 w w w w w e e w w 5 5 5 5 5 5 5 5 5 5 5 5 5 5 5 5 3 5 5 3 3 3 3 5 5 5 5 5 5 5 5 5 5 5 5 5 5 5 5 5 5 5 5 5 5 5 5 5 5 5 5 w w w e r r e e e e 5 5 5 5 5 5 5 5 5 5 5 5 4 5 5 5 e   ",
"                                                                                    n b b b b b M #.B.Z.C.V.m.m.m.m.v.v.x.s.o.j i i i i t t r e e e e r r i i i i i i r t t t i t t t t t t t t t r e t t t t t t t t t t t t i t t t t t r r t t t t e r e 5 5 e e 5 e e t k k h h f t t f h h h s s t t t e e e e 5 5 5 5 5 5 5 w w w w w w w 5 5 5 5 5 5 5 5 5 5 5 5 5 5 5 5 5 5 5 5 5 5 5 3 3 3 3 3 3 3 3 3 3 3 3 5 5 5 5 5 5 5 5 5 5 5 5 5 5 5 5 5 5 5 5 5 5 w e r r w e e 5 5 5 5 5 5 5 5 5 5 5 5 5 5 5 5 r   ",
"                                                                                  m b b b b M d.m.^./.^.Z.C.V.V.V.B.M.m.v.c.c.x.f.O.M t t t t t r e e e r r r r i i i i i t t t t r t t t e e e e e e t t t t t t t t t t t t t t t t t t r r r r e r e r e 5 5 5 5 5 w e t k k h h f t i i h i i i t t r e e e 5 5 5 5 e e w e w w r e w 5 5 5 5 5 e e e e e 5 5 5 s s p e e 5 5 5 5 5 3 5 3 2 3 5 6 6 6 e p p p a a p e 5 1 3 5 5 5 6 6 6 6 6 6 5 5 5 5 5 5 5 e w e e r r r e e e e 5 5 5 5 5 5 5 5 5 5 5 5 5 e e "
};
