/* XPM */
static char *_aac6832de65485efba33b72757210fcURfJDeeesWNlu8wV[] = {
/* columns rows colors chars-per-pixel */
"250 250 179 2 ",
"   c None",
".  c #040404",
"X  c #080707",
"o  c #070807",
"O  c #070708",
"+  c #080708",
"@  c #07080B",
"#  c #0A0A0B",
"$  c #100F0F",
"%  c #10110E",
"&  c #0C0E12",
"*  c #100F10",
"=  c #0E1115",
"-  c #0F1519",
";  c #121315",
":  c #171915",
">  c #1A1B16",
",  c #12161A",
"<  c #14191D",
"1  c #1B1D1B",
"2  c #201E17",
"3  c #211F1A",
"4  c #1F201C",
"5  c #23231D",
"6  c #28251F",
"7  c #161C22",
"8  c #1B1E22",
"9  c #201F25",
"0  c #1E2124",
"q  c #1B2228",
"w  c #232523",
"e  c #282721",
"r  c #262923",
"t  c #2B2C25",
"y  c #232629",
"u  c #26292C",
"i  c #2C2E2A",
"p  c #302E27",
"a  c #312F28",
"s  c #2E312B",
"d  c #2D3027",
"f  c #323027",
"g  c #33332C",
"h  c #39362E",
"j  c #35382F",
"k  c #39382F",
"l  c #2B2E31",
"z  c #262A30",
"x  c #2E3134",
"c  c #2E3439",
"v  c #343632",
"b  c #383730",
"n  c #363932",
"m  c #3B3C34",
"M  c #333639",
"N  c #383739",
"B  c #36393C",
"V  c #3B3D3A",
"C  c #403F36",
"Z  c #433E3F",
"A  c #3D4037",
"S  c #3E413A",
"D  c #404037",
"F  c #42443C",
"G  c #48473E",
"H  c #45483F",
"J  c #49493F",
"K  c #363C42",
"L  c #3B3E41",
"P  c #3E4144",
"I  c #3E454A",
"U  c #3E4850",
"Y  c #424544",
"T  c #4C4541",
"R  c #454941",
"E  c #4A4D44",
"W  c #424649",
"Q  c #45494D",
"!  c #494C4E",
"~  c #534C45",
"^  c #4D5047",
"/  c #4E5149",
"(  c #505147",
")  c #52544B",
"_  c #54594F",
"`  c #585A4F",
"'  c #454B51",
"]  c #4A4E52",
"[  c #4D5155",
"{  c #475259",
"}  c #4E5459",
"|  c #515555",
" . c #5C5C52",
".. c #52565A",
"X. c #54595D",
"o. c #595D5E",
"O. c #575951",
"+. c #60574C",
"@. c #625C52",
"#. c #6A5E52",
"$. c #715E51",
"%. c #6D6257",
"&. c #7D6253",
"*. c #776356",
"=. c #4F5A61",
"-. c #565C61",
";. c #595E62",
":. c #5C6164",
">. c #5D6369",
",. c #566167",
"<. c #5E6973",
"1. c #61666B",
"2. c #656A6E",
"3. c #696D6F",
"4. c #666C71",
"5. c #696E71",
"6. c #696E72",
"7. c #6B7075",
"8. c #6A7177",
"9. c #6D7277",
"0. c #6E7377",
"q. c #6D7175",
"w. c #6F7477",
"e. c #6B7175",
"r. c #677078",
"t. c #6D7378",
"y. c #6F7479",
"u. c #6E757A",
"i. c #6D7379",
"p. c #6F787F",
"a. c #717477",
"s. c #707377",
"d. c #707579",
"f. c #71767A",
"g. c #71767A",
"h. c #71777C",
"j. c #72777C",
"k. c #70757A",
"l. c #72787E",
"z. c #73797D",
"x. c #7A7E7E",
"c. c #836656",
"v. c #866959",
"b. c #8B6D5D",
"n. c #90705F",
"m. c #957463",
"M. c #9A7865",
"N. c #9C7A68",
"B. c #A17E6C",
"V. c #A4816D",
"C. c #A8846F",
"Z. c #AA8572",
"A. c #AE8973",
"S. c #A58372",
"D. c #B28C77",
"F. c #B68F7A",
"G. c #B7907B",
"H. c #BB937D",
"J. c #6D7881",
"K. c #767D82",
"L. c #747C82",
"P. c #768186",
"I. c #798187",
"U. c #76818A",
"Y. c #7B848B",
"T. c #7F898E",
"R. c #7E8893",
"E. c #828C93",
"W. c #869096",
"Q. c #85919A",
"!. c #89939B",
"~. c #BD9681",
"^. c #BF9884",
"/. c #8993A0",
"(. c #939EA3",
"). c #919CAB",
"_. c #97A1B0",
"`. c #C09781",
"'. c #C49A85",
/* pixels */
"                                                                                                                                                                                                                                                                                                                                                                                                                                                                                                                    ",
"                                                                                                                                                                                                                                                                                                                                                                                                                                                                                                                    ",
"                                                                                                                                                                                                                                                                                                                                                                                                                                                                                                                    ",
"                                                                                                                                                                                                                                                                                                                                                                                                                                                                                                                    ",
"                                                                                                                                                                                                                                                                                                                                                                                                                                                                                                                    ",
"                                                                                                                                                                                                                                                                                                                                                                                                                                                                                                                    ",
"                                                                                                                                                                                                                                                                                                                                                                                                                                                                                                                    ",
"                                                                                                                                                                                                                                                                                                                                                                                                                                                                                                                    ",
"                                                                                                                                                                                                                                                                                                                                                                                                                                                                                                                    ",
"                                                                                                                                                                                                                                                                                                                                                                                                                                                                                                                    ",
"                                                                                                                                                                                                                                                                                                                                                                                                                                                                                                                    ",
"                                                                                                                                                                                                                                                                                                                                                                                                                                                                                                                    ",
"                                                                                                                                                                                                                                                                                                                                                                                                                                                                                                                    ",
"                                                                                                                                                                                                                                                                                                                                                                                                                                                                                                                    ",
"                                                                                                                                                                                                                                                                                                                                                                                                                                                                                                                    ",
"                                                                                                                                                                                                                                                                                                                                                                                                                                                                                                                    ",
"                                                                                                                                                                                                                                                                                                                                                                                                                                                                                                                    ",
"                                                                                                                                                                                                                                                                                                                                                                                                                                                                                                                    ",
"                                                                                                                                                                                                                                                                                                                                                                                                                                                                                                                    ",
"                                                                                                                                                                                                                                                                                                                                                                                                                                                                                                                    ",
"                                                                                                                                                                                                                                                                                                                                                                                                                                                                                                                    ",
"                                                                                                                                                                                                                                                                                                                                                                                                                                                                                                                    ",
"                                                                                                                                                                                                                                                                                                                                                                                                                                                                                                                    ",
"                                                                                                                                                                                                                                                                                                                                                                                                                                                                                                                    ",
"                                                                                                                                                                                                                                                                                                                                                                                                                                                                                                                    ",
"                                                                                                                                                                                                                                                                                                                                                                                                                                                                                                                    ",
"                                                                                                                                                                                                                                                                                                                                                                                                                                                                                                                    ",
"                                                                                                                                                                                                                                                                                                                                                                                                                                                                                                                    ",
"                                                                                                                                                                                                                                                                                                                                                                                                                                                                                                                    ",
"                                                                                                                                                                                                                                                                                                                                                                                                                                                                                                                    ",
"                                                                                                                                                                                                                                                                                                                                                                                                                                                                                                                    ",
"                                                                                                                                                                                                                                                                                                                                                                                                                                                                                                                    ",
"                                                                                                                                                                                                                                                                                                                                                                                                                                                                                                                    ",
"                                                                                                                                                                                                                                                                                                                                                                                                                                                                                                                    ",
"                                                                                                                                                                                                                                                                                                                                                                                                                                                                                                                    ",
"                                                                                                                                                                                                                                                                                                                                                                                                                                                                                                                    ",
"                                                                                                                                                                                                                                                                                                                                                                                                                                                                                                                    ",
"                                                                                                                                                                                                                                                                                                                                                                                                                                                                                                                    ",
"                                                                                                                                                                                                                                                                                                                                                                                                                                                                                                                    ",
"                                                                                                                                                                                                                                                                                                                                                                                                                                                                                                                    ",
"                                                                                                                                                                                                                                                                                                                                                                                                                                                                                                                    ",
"                                                                                                                                                                                                                                                                                                                                                                                                                                                                                                                    ",
"                                                                                                                                                                                                                                                                                                                                                                                                                                                                                                                    ",
"                                                                                                                                                                                                                                                                                                                                                                                                                                                                                                                    ",
"                                                                                                                                                                                                                                                                                                                                                                                                                                                                                                                    ",
"                                                                                                                                                                                                                                                                              | -.>.}                                                                                                                                                                                                                               ",
"                                                                                                                                                                                                                                                                              B ! x.Y                                                                                                                                                                                                                               ",
"                                                                                                                                                                                                                                                                              M l W u                                                                                                                                                                                                                               ",
"                                                                                                                                                                                                                                                                              v , , ,                                                                                                                                                                                                                               ",
"                                                                                                                                                                                                                                                                              x ; = ,                                                                                                                                                                                                                               ",
"                                                                                                                                                                                                                                                                            X.l , = ;                                                                                                                                                                                                                               ",
"                                                                                                                                                                                                                                                                      L P W ] u , & ; u M P                                                                                                                                                                                                                         ",
"                                                                                                                                                                                                                                                                      8 W W ! L l w 1 y u l                                                                                                                                                                                                                         ",
"                                                                                                                                                                                                                                                              6.4.1.| y P B B B M c y 8 8 8 u X.1.7.                                                                                                                                                                                                                ",
"                                                                                                                                                                                                                                                          -.L.i.4.2.o.L B M M x x x u w 8 8 y [ :.1.4.                                                                                                                                                                                                              ",
"                                                                                                                                                                                                                                                        ! Q 8.L.u.7.1.[ L B M M M x x l y y y W :.2.4.7.u.                                                                                                                                                                                                          ",
"                                                                                                                                                                                                                                                      | [ ! [ 6.l.d.7.3.1.:.;.o.| | } -.:.:.>.6.h.h.h.l.l.l.                                                                                                                                                                                                        ",
"                                                                                                                                                                                                                                                    ! ! [ | | X.d.d.d.7.6.3.1.;.X.X.-.:.1.1.6.7.d.d.l.l.z.z.l.                                                                                                                                                                                                      ",
"                                                                                                                                                                                                                                                    ] ! ] | X.| 1.K.d.0.7.6.1.:.o.;.:.1.1.2.4.7.7.7.7.u.h.h.h.h.                                                                                                                                                                                                    ",
"                                                                                                                                                                                                                                                    ! ! ! [ X.X.o.u.K.d.0.7.4.1.:.:.1.2.6.7.6.7.7.7.7.7.7.7.7.7.7.                                                                                                                                                                                                  ",
"                                                                                                                                                                                                                                                    W W ! ] [ | X.1.I.K.l.d.7.6.1.1.2.6.7.7.7.7.7.7.u.u.7.7.7.7.7.h.                                                                                                                                                                                                ",
"                                                                                                                                                                                                                                                    W W ! ! ] | X.;.4.T.L.d.7.6.6.4.3.7.a.d.d.d.7.0.d.d.d.d.d.d.u.u.u.u.                                                                                                                                                                                            ",
"                                                                                                                                                                                                                                                    W W W ! ! [ | o.;.L.I.d.i.7.6.3.6.6.7.i.d.d.d.d.d.a.a.d.u.i.i.7.i.i.7.                                                                                                                                                                                          ",
"                                                                                                                                                                                                                                                    Y W W ! ] ] [ X.:.:.I.p.7.6.6.4.4.6.7.7.u.0.u.d.i.i.d.i.7.7.i.i.i.i.i.i.                                                                                                                                                                                        ",
"                                                                                                                                                                                                                                                    P P W W ! [ [ X.;.:.4.E.l.4.4.6.6.7.7.7.7.d.d.d.i.7.7.7.6.6.6.6.7.7.7.i.u.                                                                                                                                                                                      ",
"                                                                                                                                                                                                                                                    Y P W W W ] [ | | ;.>.h.E.7.4.6.6.6.6.7.7.7.7.6.6.6.7.6.6.7.7.7.7.7.7.i.u.u.                                                                                                                                                                                    ",
"                                                                                                                                                                                                                                                    W W P W W ! [ | | X.;.;.K.T.7.2.4.4.6.6.7.6.6.3.3.3.6.6.6.6.6.6.7.7.7.7.6.6.7.                                                                                                                                                                                  ",
"                                                                                                                                                                                                                                                    Y P P P W W { | | X.X.X.:.i.] P L L L L L L L L L L L L L L L L L P P P P P P W                                                                                                                                                                                 ",
"                                                                                                                                                                                                                                                    P P P P W W ! [ | } [ | | l < ; 7 y 0 w w w w y y y y y y y w w w w 8 0 w w 1 < 0                                                                                                                                                                               ",
"                                                                                                                                                                                                                                                    P P P P W W W ] } } [ | ! 8 ; , L X.X.] ! ! Q ! ! ! Q W P L L B M M v x x x l u < y                                                                                                                                                                             ",
"                                                                                                                                                                                                                                                    P P P P W W W ! [ | | | M 8 : w M 4.L.-.} } X.X.| } [ ! Q ! Q P L B B M M x x v 0 1                                                                                                                                                                             ",
"                                                                                                                                                                                                                                                    P P P P W W W W ! | | :.M 0 0 8 y Q 4.:.:.:.:.-...} ] Q P N M x l u u y y w 0 8 1 < 0                                                                                                                                                                           ",
"                                                                                                                                                                                                                                                  W L L P P P W W W W ! [ X.B l u 8 8 u u u u y y y 0 0 y y u u u u u u y y w w 8 8 8 0 1 M                                                                                                                                                                         ",
"                                                                                                                                                                                                                                                  ! P B L L P W P W W W ! X.] M x y 7 u -.} ] [ } } } } | | ..X.X.X.......| | | | X.X.X.X.;.2.4.L.                                                                                                                                                                  ",
"                                                                                                                                                                                                                                                  [ Y B L L P P P W W P P [ | ! B M y ] U.R.4.2.2.2.2.4.4.6.4.4.6.4.6.6.7.7.6.6.6.7.4.4.4.2.1.1.2.d.                                                                                                                                                                ",
"                                                                                                                                                                                                                                                  | ! P B L P P P W P P P W ! X.Q L Q ;.2.U.L.4.2.2.2.3.6.6.6.4.6.6.6.6.7.u.d.u.7.6.2.2.2.1.1.1.1.2.7.d.                                                                                                                                                            ",
"                                                                                                                                                                                                                                                  ] ] W L L P P W W W P P P W ..-.! X.o.:.4.E.i.2.2.2.3.6.6.6.4.4.6.6.4.2.6.4.4.6.2.;.1.i.1.2.1.4.2.6.u.      1.4.1.1.4.                                                                                                                                            ",
"                                                                                                                                                                                                                                                  W [ ] P L L P W ! P P P P P ] 1.;.X.X.X.:.7.U.6.2.2.4.3.3.3.6.6.6.6.6.6.6.6.4.6.6.[ P 7.1.X...] } X.4.6.6.l u -.X.X.X.| }                                                                                                                                         ",
"                                                                                                                                                                                                                                                  P ! [ W L B L W ! W W P P P W [ X.X.X.X.o.:.l.P.4.2.4.2.2.4.6.6.6.6.6.6.4.3.4.4.2.! B x 1 1 W B ; u >.1.1.B w 8 y [ y , 1                                                                                                                                         ",
"                                                                                                                                                                                                                                                  L W [ ! P B L W ! W ! P P P P W ! | X.X.o.:.1.P.L.4.4.4.4.2.2.4.2.4.6.3.1.1.1.;.1.W M u ; 1 3.o.< y | X.[ P u 1 N 2.! , ,                                                                                                                                         ",
"                                                                                                                                                                                                                                                  L P ! ] W L L P ! W W P P P P W W ! | X.o.o.:.1.Y.7.4.6.6.4.3.4.2.4.2.-.1.;.-.| :.P M y ; , M u ; u } | ] W x 0 8 x t ; ;                                                                                                                                         ",
"                                                                                                                                                                                                                                                  L L P ] ' P L L W W Q Y L P W ! Y Y ! | o.;.;.:.7.E.7.6.6.6.4.4.7.4.[ P ! ! { } ] P M w ; ; ; < , u ] } } ] L 0 ; : ; ; ;                                                                                                                                         ",
"                                                                                                                                                                                                                                                    L P W ] W P B P W W W P P ] [ W P P ! | ;.;.:.:.L.U.4.6.6.6.6.6.| W P l 1 M W W P B w ; ; ; , , y P ! [ ..] w ; ; = = ;                                                                                                                                         ",
"                                                                                                                                                                                                                                                    V L Y ] ! W L L W W W P W [ } ! P W W ] X.o.:.:.>.U.8.4.4.4.4.;.! Q L w , u N L P N w ; ; ; , , 1 u u u M B 1 ; ; ; ; ;                                                                                                                                         ",
"                                                                                                                                                                                                                                                    L L P W ] W L B L W Q W ! ] [ ] W W W W ! X.;.:.;.1.Y.i.1.1.1.! W L x < , y l M N M y < , , , ; , 1 1 < < 1 1 < , , : ,                                                                                                                                         ",
"                                                                                                                                                                                                                                                      L L P [ ] P B B L W W P ! ! ] ] ! ! Q Q ! X.;.;.:.3.T.7.1.>.X.B v y , , 0 y u l u u 7 7 1 < ; , , : , < > 1 1 1 1 < < 1                                                                                                                                       ",
"                                                                                                                                                                                                                                                        B L W ] W L B L W W P W Q ] [ ! ! ! ! ! ! | :.:.:.L.W.4.>.;.W y 1 , ; , 1 8 x M l y y 0 < ; < 1 1 < 1 0 0 0 w 0 < 1 y [ :.                                                                                                                                  ",
"                                                                                                                                                                                                                                                        B L I ] ] Y B B P W P P W ' | ] ! ! ! ! ! ! X.:.>.4.E.K.1.;.[ B l u 0 , ; < W [ L x x l u u u x x l l u l l l l u u B ] X.;.                                                                                                                                ",
"                                                                                                                                                                                                                                                        L B P W | W P B B Y P L P ! [ [ ] ] ] ] ] [ [ o.>.>.6.Q.L.>.X.} ! P B x ; 1 B W } P K K K L P W Q Q P L B B M M B L Q [ [ |                                                                                                                                 ",
"                                                                                                                                                                                                                                                          B L P ! Q Y L B B B L L P ! ] ] ] ] [ | | | | X.;.>.J.E.4.X.[ ! W L N u y M B L l u u l l l x x x l l u u y y y y y u u u y                                                                                                                               ",
"                                                                                                                                                                                                                                                          B L L Y ! W L B B B L B L W ] [ [ [ [ | | | X.| ..>.4.K.U.-.[ Q W L B x l x M y ; = ; ; = = = ; - = ; ; ; = = ; ; = ; ; , ; 7                                                                                                                             ",
"                                                                                                                                                                                                                                                            B L P Q Q P B N B L B B P ! ! ] [ } | | | X.X.X.;.2.7.E.7.| ! W P B x l x M 8 ; = = ; ; ; = ; - ; ; ; ; ; ; ; = ; ; ; ; ; , W                                                                                                                           ",
"                                                                                                                                                                                                                                                            L L L P Q W L N B L B B B P P L W ! ] | X.;.-.;.:.1.3.f.W.1.[ ! P B x u x x 1 < , < < < 7 7 7 7 1 < < < < < < < 1 1 < , , , l X.                                                                                                                        ",
"                                                                                                                                                                                                                                                              L B L W W P B B B B B B N M M P P Y Q ] | X.:.1.1.2.7.T.!.4.[ W L x y c u 1 7 0 7 7 7 7 8 7 8 7 7 8 1 7 8 8 1 7 7 7 7 7 7 7 ! X.1.                                                                                                                    ",
"                                                                                                                                                                                                                                                              L B B P ! L B B B B B B N l M L P Y W Q ! [ X.:.2.3.6.l.E.E.:.[ Q L y x 0 < 0 0 8 8 0 0 0 0 0 8 7 7 7 7 0 w 8 8 8 0 0 0 8 7 B ] -.1.                                                                                                                  ",
"                                                                                                                                                                                                                                                                B B B W W P L B B B B M l l M L P W W W ! [ X.;.1.2.7.K.(.E.:.| ! L l 7 7 y y y u l l x x x l u u u u l l l u u u u u y w x [ | :.i.                                                                                                                ",
"                                                                                                                                                                                                                                                                B B B P Q W L B B B B M l u M N Y W Y W ! ! | X.;.:.1.7.K.(.1.! ! W L M x x x x x l u u l u x i l u i u t u x l l x M v M B P I ! | :.                                                                                                              ",
"                                                                                                                                                                                                                                                                L B B B Q Q L B B B B M l l l M L W Y W W ! [ | X.o.:.>.0.4.P u u u u y y y y y w w w w w 8 w y y y y w 0 w y w y u y y y y u u l l ! X.                                                                                                            ",
"                                                                                                                                                                                                                                                                P B B B L ! P B B N N M x x l v M P W Q W ! [ | | X.;.:.4.W w 0 w w w 0 w w 0 y u 0 1 1 > > , > > 1 > > > 1 1 1 y u y w y r w y u y u N                                                                                                             ",
"                                                                                                                                                                                                                                                                P B N B B W V B B N M M M v l l v B W Q W ! ] [ [ | o.1.' l w w w w w w w y w x ; O O O O O O O O O O O O O O O # # w u w w y y u y y r M                                                                                                           ",
"                                                                                                                                                                                                                                                                P L B B B L B B B N N v M v l l u M W Q W W ! ! ] | :.X.l y w y y y y y y u x > . O O O O O O O O O O O O O . . O O # u w w w w y y y y u M                                                                                                         ",
"                                                                                                                                                                                                                                                                P L B B B B B B B N M x x l l l u M B Q ! W Q ! ] | :.M u y w y y y w w w r y O . O O O O O O O O O O O O O O O O O . = y w w 8 w y y y y u                                                                                                         ",
"                                                                                                                                                                                                                                                                P L B B B B B B B N M v l l l u u l v P Q W W ! ] | P u y y u y y w w w 1 w 1 . . . O O O X X X X X O O O O O O O O . # u w w 8 w w y y y u u                                                                                                       ",
"                                                                                                                                                                                                                                                                  B L B N B B B B B M v x l l u y u l M W W ! Q ! ! u u y y u y y w w w 1 8 1 . . O O O + + + # X + O O O O O O O O . O u 0 w w w w y u t u u u                                                                                                     ",
"                                                                                                                                                                                                                                                                  B B L N B B B B B M v x x u u y y u x B W ! ! ] x w y y w w w y y y w 8 8 1 . O O O O O O + # # # # X O O O O O O . . y 1 w w w y y u u y y u                                                                                                     ",
"                                                                                                                                                                                                                                                                  L B L B N B B B N M v M x u u u y u l v P ! ! W l y y y w w w y w w w 0 8 1 . O O O # # + X # # # # # X X O O O O . O y 0 w w w y u u u y u u l                                                                                                   ",
"                                                                                                                                                                                                                                                                    B L v N N B B B M v M c u u y y y y l W ! W M y y y y y y w w w 0 0 0 8 1 O O O O # # # # # # # # # + X O O O O . . r w y w y y y u y u u u l                                                                                                   ",
"                                                                                                                                                                                                                                                                    L B B M N B B N M M M M u u y w y y v ! ] P l 0 y y y y y y y w w w 0 8 1 O O O O # & : : # # # # # O O O O O O . . y w y w y y y y y u u u y B                                                                                                 ",
"                                                                                                                                                                                                                                                                      B N M N B B B N M x c u u y y y y x Q [ L y y w w y y w w y w w w 0 0 7 O O + # ; 8 y y y > # # + O O O O O O . . 0 y y y y y w y y u u u y M W                                                                                               ",
"                                                                                                                                                                                                                                                                      B P -.W N B N M M x x y u y u y y l L P B y w w w y y w w y w w 0 0 0 7 O O + # < w u l u 8 ; # O O O O O O O . . 8 0 0 w w w y y u u u u y v P                                                                                               ",
"                                                                                                                                                                                                                                                                      X.:.:.| B B N M M l x u u y u u y x M B M y w y y y y w y y w w w 0 8 1 # O # ; 1 u x M l 1 ; # X O O O O O O . . 1 0 w w 0 0 y u u u u u y l L                                                                                               ",
"                                                                                                                                                                                                                                                                      >.>.-.>.W B N M M x M u u y u u y x M B M y y y y y y y y y w w w w 8 7 # + # & , w l x y ; & # O O O O O O O . . , 0 0 0 0 w y y u x x l u M P                                                                                               ",
"                                                                                                                                                                                                                                                                      -.:.-.>.X.B B M M x B u u y u y y x M B M y y y y y y y w y w w 0 8 1 1 # + # # ; 1 y y 1 & # # # + + X O O O . . ; 8 0 0 0 w y y u l x u y v P                                                                                               ",
"                                                                                                                                                                                                                                                                      ! -.;.>.1.P B M M l M u u u u y y x M B x y y w w y y y y w 8 w 8 7 1 1 # # # # # = ; ; # + # # # # # # X O O . O ; 7 8 w w w y u u u u y y l N                                                                                               ",
"                                                                                                                                                                                                                                                                      L [ -.>.4.| N M v u x u u u u u y l M M l y y w w y u y y w 8 8 8 7 1 1 # # # # # # # + + # # # # # # + O O O O . ; 8 8 w w 0 w r y u y y y u M                                                                                               ",
"                                                                                                                                                                                                                                                                      N W =.,.4.<.L M v u x u u l u u y l M M l w w w y y y y w w 8 8 w 8 1 1 # # # # # # # # # # # # # # # O O O O O O & 7 8 0 0 8 w w y r y y w u v                                                                                               ",
"                                                                                                                                                                                                                                                                        B -.>.<.<.' M v u x u u l l u y u M M l y 8 y w y y 0 0 0 9 8 0 8 1 1 # # # # # # # # # # # # # # # O O O O . . # < 7 0 8 8 0 w y y w w w u x Y                                                                                             ",
"                                                                                                                                                                                                                                                                        v ..4.,.} Q M v u x y y u u u y u M M l u y y y y y 0 0 0 w 0 8 8 1 1 & # # # # # # # # # # # # # + X O O O O . # < 7 0 8 0 w w y y w w w u x Y                                                                                             ",
"                                                                                                                                                                                                                                                                          P } I B x l M u l u u u u u w u v M l y y w w w y 0 0 0 0 0 0 0 1 1 & # # # # # # # # # # # # # # X O O O O . # < 0 w 0 y y w y y y y y u l P                                                                                             ",
"                                                                                                                                                                                                                                                                          v B c l u c M u u u u u u u w u v M l q 0 w w w w 0 0 0 0 0 0 0 1 1 & # # # # # # # # # # # # # # O O O O O . # < 0 w w y y w y y y y y z l V                                                                                             ",
"                                                                                                                                                                                                                                                                          v u y 0 1 P Q u u u u l u u w y v M l y 0 w w w 0 0 8 0 0 0 0 7 1 7 ; # # # # # # # # # # # # # # O O # O O O # < 7 0 0 w y 0 y y y y y y l V                                                                                             ",
"                                                                                                                                                                                                                                                                            i r w 1 B { i y u u x l u w u M v l y 0 0 w w y y 0 0 0 0 8 7 < < ; # # # # # # # # X X # # # # O O # O O O # 1 8 0 y w y y y y y y y y l B                                                                                             ",
"                                                                                                                                                                                                                                                                                i y L { K y u u c x l w u M M l y 0 0 y w y 0 w w 0 0 0 7 1 < ; # # # # # # # + + # X O O O O O @ O O . # 8 0 0 0 0 0 y 0 0 y y y y l B                                                                                             ",
"                                                                                                                                                                                                                                                                                  l L ' U y u y M l l w u M M l y 0 0 y y y 0 0 w w y 0 8 8 8 ; # # # # # # # + + X O O O O O O O O O . # 7 7 w y w w y w w y y y y l N                                                                                             ",
"                                                                                                                                                                                                                                                                                  x P I } K u y x l l w y M M u 0 0 0 y y y w w 0 0 w 0 8 0 w : O + # # # + # + O O O O O O O O O O . . # 0 0 w y y y y y w 0 y y y u N                                                                                             ",
"                                                                                                                                                                                                                                                                                  v L I } ' l y x l z w 0 v v u w 0 0 w w w 0 y 0 0 0 0 8 1 8 : O O O O O O O O O O O O O O O . O O . . # 0 0 0 w y w w y w 0 0 y y u N                                                                                             ",
"                                                                                                                                                                                                                                                                                  M L L ' I x y l l z w y M v u y 0 0 w y 0 0 0 0 0 0 0 1 1 1 : . O O O O O O O O O O O O O . . . . . . # 7 0 0 0 w w w w w 0 0 y y u M                                                                                             ",
"                                                                                                                                                                                                                                                                                  M B K P I M y x u l y u M M l q 8 0 0 0 0 0 0 0 8 7 8 7 1 1 ; . . . . . . . . . . . . . . . . . . . . # 7 0 0 0 8 0 8 8 8 8 0 0 y u M                                                                                             ",
"                                                                                                                                                                                                                                                                              H.S.Z M B K K K x M u u y u M v u 0 7 7 8 0 0 8 8 8 1 1 1 1 1 1 ; . . . . . . . . . . O O O O O . . . . . O 1 < 1 7 7 8 7 7 7 1 1 w w u v                                                                                             ",
"                                                                                                                                                                                                                                                                        '.'.`.H.A.T v M c K Q P M u l y l M v u 0 8 7 8 0 y 8 8 8 1 1 1 1 < 1 < . = & & & & & # # # # # # # & . . . . . O 1 < < 1 < 1 1 1 8 8 8 0 w y v                                                                                             ",
"                                                                                                                                                                                                                                                                      '.'.H.H.F.Z.T v M x c Q I M u u y x M M u q 0 7 8 u x w 0 0 1 1 > , , , ; O # . . . . . . . . . . . . . O . . . . . = ; ; ; ; ; ; , 1 1 8 7 8 y i                                                                                             ",
"                                                                                                                                                                                                                                                                    '.~.H.D.D.A.V.T x x l x I Q L u u y l M M u 0 0 8 7 u 8 O O O O O O . . . . . # O . . . . . . . . . . . . O O . . . . . . . O O . . . O # 1 8 8 w l                                                                                             ",
"                                                                                                                                                                                                                                                                ^.~.G.D.A.Z.C.V.N.T x l u l L I K l y y u M M u 0 0 0 8 u 1 . . . . . . . . . . . # # # & & # # # # # # # # # # # . . . . . . . O X . . . O # 1 7 8 w i                                                                                             ",
"                                                                                                                                                                                                                                                                ~.D.Z.C.V.B.N.M.m.T l u u u K P K M y y y x M u w w 0 7 y 1 . . . . . . . . . . O # ; 1 < 1 1 < < < , , ; ; ; ; ; . . . . . . O X # O . . O # 1 8 8 w i                                                                                             ",
"                                                                                                                                                                                                                                                                F.Z.B.N.M.m.m.n.v.~ x u r y M P M M y y y x v u w y 0 8 q < O O O O O O O O O O O # , 0 8 0 8 8 7 7 7 7 7 1 < 1 1 + . . . . O O # # X O . O # > 8 0 w u                                                                                             ",
"                                                                                                                                                                                                                                                                A.B.M.m.b.v.v.c.&.~ v y 0 w x P K K M u y x x u w 0 8 0 y 1 # # # # # # # # # # # # , 0 8 8 9 w 0 0 8 7 7 7 7 0 0 # + X # # # # # * # O O X # : 7 0 y t N                                                                                           ",
"                                                                                                                                                                                                                                                                B.M.n.b.c.&.$.+.( E m y u W } ..} ] [ l y v x u w 8 7 7 w 0 : : ; ; ; ; ; ; $ # # # , 0 8 8 9 0 0 0 0 8 7 7 7 7 0 ; # ; ; ; $ $ ; ; # X O X # ; 1 7 0 y g                                                                                           ",
"                                                                                                                                                                                                                                                                N.b.v.&.$.@.` ^ E E m i 4.U.r.>.-.} ] M y x x u y 0 8 7 w w > > : : : : : ; ; ; # # , 0 8 8 9 8 7 8 7 7 7 < 7 7 7 : ; ; ; : ; ; : : ; # O X # ; 1 8 8 y i g                                                                                         ",
"                                                                                                                                                                                                                                                              m.b.*.#. .O.) ) ^ E E G j 4./.).R.J.<.{ P y x x u y 0 0 8 0 w 1 1 1 > > > > : : : ; # , 8 8 8 8 8 7 7 1 8 < < 7 7 7 < : : : > > > : > ; # X O # ; 1 8 8 w g i g                                                                                       ",
"                                                                                                                                                                                                                                                              %.@. .O.O.) ) ^ ^ E G H m N ] E._.Q.U.4.{ l l x u y 0 0 0 0 0 1 1 1 1 > > < > 1 : ; # > 8 8 8 8 8 7 7 < < < < < < < < , ; : < 1 8 1 w : ; # O # ; < 7 0 y g i i i                                                                                     ",
"                                                                                                                                                                                                                                                           . . .O._ ) ) ^ ^ ^ E R F D D r 8 B >.8.L.L.>.P v v u y 0 w 0 0 0 < , , , = = - < u ; # ; 1 7 < 1 1 < < 1 1 < < < < < 7 < - ; ; , 0 y 0 M w : # O X # < 7 0 y g i t t                                                                                     ",
"                                                                                                                                                                                                                                                       . . .O.` _ ) ) ) ^ ^ E E R F D D m e > y B I ] 6.X.B l u u 0 8 8 8 0 < , , - - = - < u , # ; 1 1 < < < < < < < < < , , , < < , , , , 0 y y i t 1 $ X X # < 7 0 0 g s i i j                                                                                   ",
"                                                                                                                                                                                                                                                      O._ ) _ _ ) ) ) ) ^ E ^ E R H F D D m t < , 0 y ;.1.! x u u 7 7 8 8 7 < < , - - - , < u 1 # ; 1 , ; , , , , , , , , ; , , < 7 < , , < 0 y y y t r : # X # < 8 0 0 g s s i g g                                                                                 ",
"                                                                                                                                                                                                                                                      ) ) _ ) ) ) ( ( E E E E E R R R F F D g 1 u w > L 8.>.B u y 1 < 7 7 1 < < , , , ; , < w 8 # ; , ; = ; ; ; ; ; ; ; ; ; ; ; : 1 < < , , 1 w y r t r 3 $ # # , 7 0 w g i t i i g i                                                                               ",
"                                                                                                                                                                                                                                                    ^ ) ) ( ^ ( ^ ^ E E E E E R R R R R F F v 1 y 0 ; r -.u.[ u y < < < < < < < , , , ; ; , , , # ; ; # # # # # # # # # # # # # * < < < < , 7 y y w r e 5 : # # , > > 8 i i i r e r i r                                                                             ",
"                                                                                                                                                                                                                                                    ^ ^ E E ^ E E E E ^ E E E E E R R R F F S w y 0 ; > M [ X.l 0 < , < , < < < , , , , , , , - # # # O O O O O O O O O O O O O # < < < , < 0 y y w r r e 1 ; # , 1 1 0 t t t r e e t g t                                                                           ",
"                                                                                                                                                                                                                                                    E E E E E E E E ^ ^ E E E E R R R G F F F n l 1 # ; w v v y 0 , , , , , < < , , , , , , - - # # O . . . . . . . . . . . . O = < < < < 1 0 u y w i i i t > ; , 1 1 r s s i t t i s i g i                                                                         ",
"                                                                                                                                                                                                                                                    E E E E E ^ ^ ^ ^ ^ E E E E R R R G F F S m u 1 # # < u u y u 1 < < < < < < < , , , , - - - = # # # # # # # # # # # # # # & , < < < < 1 0 u y w p i t r > : 1 r r i v s s i t i g g a g                                                                         ",
"                                                                                                                                                                                                                                                  R R E E E ^ ^ ^ ^ ^ E E E E E R R R F F S S V s 1 # # # w w q z y q 0 0 7 7 < < < , , , - - - - - - , - - , , , , < , - , , , < < < < < 1 0 y y w t t r r 6 > 1 e i s g s i s s g j g g i g                                                                       ",
"                                                                                                                                                                                                                                                  R R E ^ ^ ^ ^ ^ ^ ^ E E E E R R R F F F S S m m w # # # ; ; 7 y 0 0 0 0 q 7 < < < , , , , , - , - - - - , , < , , < < < < < < < < < < < 1 0 y y y i i i t r 5 > 5 t s g i i t i i j m s i i i                                                                     ",
"                                                                                                                                                                                                                                                  F R ^ ^ ^ ^ ^ ^ ^ ^ E E E R R R F F F S S m m g w # # # + + < 0 7 7 q 0 8 7 < < , < , , < < , , , , , , < < < < < < < < < < < < < < < 1 1 0 y y w i s i t i 6 1 1 4 i i i i t t t i g i t e e r                                                                   ",
"                                                                                                                                                                                                                                    _ O.O.        F R ^ ) ) ^ ^ ^ ^ E E E R R R R F F F S S V m v t : > > & & < 7 1 7 q q 7 7 < < < < < , < < < < < < , < < < < < < < < < < < < < < 7 7 1 1 0 u u 0 t t t t r e 5 1 1 e i s i i i i i i i t r w w                                                                   ",
"                                                                                                                                                                                                                                ^ ^ ^ ^ ^ ) )   S S E ) ^ ^ ^ ^ E E E E R R R G F F F S S V m m n g t e 4 = = , 7 < < 7 0 7 < < < < , < < , < < < < < < < < 7 7 7 7 7 7 7 7 7 7 7 7 7 7 < 7 q y y 0 r t t r t t 6 4 1 5 i v g i i t t i r t t e w e                                                                 ",
"                                                                                                                                                                                                                            E E E E E E R E E E m S E ^ E E E E E E E R R R R G F F D S S m m m m m n g u ; = - < < , < < < < < , < , , < < < < < < 7 < < 7 < 7 7 7 7 8 7 7 8 7 7 7 7 7 7 7 q q 0 0 t i t r t t e 5 5 1 e s v s i i i r t r e w w t t                                                               ",
"                                                                                                                                                                                                                        ^ ^ E E R R R R H H G m n S E E E E E E E E E E E E R F D S S S S S V S V m m n n u = ; < < < , , < , , , , < < < < < < < < 7 7 7 7 7 7 7 7 7 7 7 7 7 7 7 8 7 7 0 8 q q 8 7 t i t r i t 5 1 5 1 1 e i i i s s i t r r w w r i                                                               ",
"                                                                                                                                                                                                                    ^ ^ ^ ^ E E E R F F F F F m n D E E E E E R R E E E R R F F F D S D F F D D m m m n n M < , , , , - - , - - - , < < < < < < < < < 7 7 7 < 7 7 7 7 7 7 7 7 7 7 8 q 8 7 7 7 8 7 7 t t t i t r 6 5 5 5 4 w r i i i i i r r e w w r t e                                                             ",
"                                                                                                                                                                                                                ^ E E E E E E R R R F F S S A g n F E E E R R R R F R R R R F F F F F F G G G D D V m n g i : ; & = = = - - - - - - - - - - , - - , , < < < < < < , , , , , 7 7 7 7 7 7 7 < < < < 1 r t r r t t r 6 5 5 4 4 4 w i i i e w w w e r r r e r                                                           ",
"                                                                                                                                                                                                            ^ ^ E E E R R R R R G F F D S m n g m F R R R R R R F F F F R R R R G G R E E G G D D V m j g g t : O . O # & & & & & & = = & & = = = = = = = = = = & & & & & & & & & & & & & & & # ; 1 r t a p t 6 5 1 1 1 5 5 4 4 5 r i t e 5 w e e w w 5 e                                                           ",
"                                                                                                                                                                                                          ^ ^ E E E R R H F F F F S S S m m g g m D R R R R R G F F F G R R R R H R E E G G F D V m m j g g s t 1 O . . . . O O O @ @ @ @ @ @ @ @ @ # @ @ @ @ @ O O O O . . . . . . . . . . . . # 5 r t r 5 5 5 5 5 5 1 1 1 4 4 4 4 e r e 5 5 e e w 5 5 5 e                                                         ",
"                                                                                                                                                                                                        ^ E E E E E R R F F D S S S m m m n g g m S F R R R F F F F F G R R R R E R R G D D D m m m v j g g s t e > # . . . . . . . . . . . . . . . . . . . . . . . . . . . . . . . . . . O # % 3 r r r 6 6 5 3 3 > > > 1 1 1 4 5 4 4 w t r w w w e 5 4 4 5 e                                                       ",
"                                                                                                                                                                                                    E E E E E E E R R G F F S S S m m m n v s g m S F R F F F F F G G R R R E E R G G D D m m m m n v g g g g i t 5 1 : ; % # # @ O O . . . . . . . . . . . . . . . . . . . O o # % : 1 5 5 6 t i t t r r e 6 5 2 > : : > 1 1 1 1 1 1 1 5 r r w w w 5 4 4 r r                                                       ",
"                                                                                                                                                                                                E E E E E R R R R R F F F S S V m m m n n g s v m V F F F F F F F R R R R R R R G G D D D m m n n n v g s s s i i t 6 4 > > > > > > : : : : : : : : : ; ; % ; : : : : : : : > 1 5 5 e e r r e e r t i i i r 5 3 3 > > 1 1 1 1 1 > > : : > 1 5 5 5 w w 0 1 e 5 5                                                     ",
"                                                                                                                                                                                              E E E E R R R R R H F F F D S V V m m n v g g i v n m D F F F F F R R R G G G G F F F D D D A m n n n v g g s s s i t t e 4 > > > > > > > > > 1 1 1 1 1 1 > > > > > > > > > > > 1 1 4 5 5 e r r r r r r r t 5 > : : > 1 1 4 1 1 1 1 1 > : : : 1 4 4 4 e e 5 6 5 > 5                                                   ",
"                                                                                                                                                                                          E E E E R R R R R R F F F S S S m m m n n g g g s i g n m S S F F F F F F F F F F F F F G G D D m m m n n v g g g s s s s i t e 5 1 1 1 1 1 1 1 1 1 4 1 1 1 1 1 1 1 > > > > > > > > > > 1 4 5 5 w r r r r e 5 5 2 > : > > : 1 5 5 1 4 1 1 1 > : : : > 5 5 5 e e i 5 : :                                                   ",
"                                                                                                                                                                                      E E E R R R R R R R R R R F S S m m m m n n g g s s i s s n m V S D F F F F F F F F F F F F G G D S V m m m m n n g g g g s s g s i t r e 5 4 4 4 5 4 4 4 4 5 5 5 5 5 4 4 1 > 1 > > > > > > 1 1 4 5 5 w r r t t r r 5 > > > > 1 1 4 5 5 4 4 1 1 1 > > : : > 5 5 w t a 5 ; ;                                                   ",
"                                                                                                                                                                                  E E E E R R R R R R R R R R H F S S m m m m n g g g s s t i g n m m m S S D F F F F F D F F F F G D S S S V m m m n n n v v g g g g g g g g s t r 5 5 5 5 5 5 5 5 5 5 5 5 5 5 4 5 4 1 1 1 1 1 1 1 1 4 5 5 5 w e r t r e 5 1 5 6 e e 1 1 4 4 4 1 1 1 1 > > > : : > 5 4 w r e : : >                                                 ",
"                                                                                                                                                                                E E E E R R R R R R H G G G F F F S S V m m m n g g g s i t i g v n m m S S D F F F F F S F S F F F S S S S S S m m m n n n n n n j j j g v g g s t r e w 5 5 5 5 5 5 5 5 5 5 5 5 5 5 5 5 4 4 1 1 1 1 4 4 4 5 5 5 r r e 6 3 5 5 e t t e 5 5 5 4 1 1 1 1 1 > > > : : 1 4 4 6 t > > >                                                 ",
"                                                                                                                                                                              E E R R R R R R R R G F F H F F F D S S V m m n v g g s i i t i g g n n m S S F F F F F F S S S D F F S S S S S S S V m m m m m m m m n n n n m m n s t r e e e r r r e w w w w 5 5 w e e e 5 5 5 5 5 4 4 4 5 5 5 5 w e e 6 5 5 6 t t i g i e e 5 4 1 1 1 1 1 > > : > : 1 5 5 r 1 : :                                                 ",
"                                                                                                                                                                          E E R R R R R R R R R R R R G F F F D S S m m m m n v g g s i t t i g g v m S S D F F F F F D S S S D F F S D F F S S S S S S S S V V m m m m m m V S m v s t r r r r t t r r r r r r r r e e r r r e w 5 5 5 5 w w w w e e e 6 5 3 e t i g j g i e 5 5 5 1 1 1 1 1 > > 1 : : 1 1 5 e > : >                                               ",
"                                                                                                                                                                        E E R R R R R R R R H R R R R G F F F D S m m m m m n n v g s i t r t s g v m S S D F F F F D D D D F D F S S F F S S S S S S F D S S S S V S S S S S S S n g i t t t t t t t r r r r t r t r r r r r r r e e e w w w w e e e r 6 2 5 r i s g h g i i e 5 1 1 1 > > 1 1 > 1 : : > 1 1 e > > :                                               ",
"                                                                                                                                                                      R R R R R R R R R R R R R R R R R R F F F S S m m m n n v g s s i t r t s g v m m S F F F D S S D F G F D S S S F D S S S S S F F S S S S S S F F F D D S S m n g i i i t t t t t r r t t t t t t t t t t t t r r r e w w 6 r r e 5 5 6 t i g j g i g g i i t 1 5 1 > 1 1 > 1 : : : 1 1 1 5 > :                                               ",
"                                                                                                                                                                      R R R R R R R R R R R R R R R R R R F F F S V m m m n n g g s i t t r t s g v m V F F F D S S S D G F D S S S D F S S D D D S S S S S F F F F F F F F F F S S m m j g g i i t t t t t t i t t t t t t t t t t t t t r r r r t t 6 5 6 r i g g g i a g g g g a i e 6 4 4 1 1 1 1 : > 1 1 > 1 1 > 1                                             ",
"                                                                                                                                                                    R R R R R R R H R R R R R R R R R R R R R F S S S m n n n g g s i t t r t s g v m S F F S S S S D G F D S S S S S S S D F F F S S S S F F F F F F F F F F D D F F V v g i i i i i i t t t i i i t i i i i i i t t t t t r t p p e 6 6 t t t i g p t a a g g g g a i i 6 5 5 4 1 1 > > 4 1 1 > 1 > :                                             ",
"                                                                                                                                                                  R R G R R R R R R R R R R R R R R H R R R R F F S S m n n v g g s i t t r t s g v m S F S S S S D G F D S S S S S S S F D F F F S S S S F F F F F F F F F F D D D F D n g i t t t i i t t t i t t i i i i i i i t t t t t i p g p r e e t t i i a p i a a i g g g g a p t 5 4 5 5 5 > > 1 1 1 > 1 5 >                                             ",
"                                                                                                                                                                G G R R R R R R R R R R R F F F H R R R R F F F F S S m m n n g g g s t t r t s s n V S S S S S S F D D S S S S S S S D F D F F D S S S D F F F F F F F D S S S S D D D m g i t t t t t t t t t t t t t i i i i t t t t t t i g g t r r r t i i g g g p a g g g g g g a a p t 5 5 5 5 1 > > > > > 1 5 3                                             ",
"                                                                                                                                                              R R R R R R R R F F R R F F G G G F F F F F F F F D S S A m m n v g g s t t t t i s n m V S S S S D D D D D S D D S S S F D D F D S S S D F F F F D S D S S S S S S S S S m j g a i i i t t t t t t t t t t t t t t t t t t t i g g i r t t t i g g g p p p g g g g g i a i a g i r 5 1 1 1 > > : > > 1 5 1                                           ",
"                                                                                                                                                            R R R R R R R F F F R R F F F F F F F F F F F F F F S S m m m m n v g g s i t t r i s n m m m V S S D D D D S S S S A S D F F D D D S S S F F F F F S S S S S S V S S S S S m m j g g g g i i t t t t t t i i t t t t t t t t t a g a i t t t i i g g g p g i g g i g g p i i i a a g i 6 e 5 1 > > > > > 5 1                                           ",
"                                                                                                                                                            R R R R G F F F H R R H F F F F F F F F F F F F F F S S m m n n n v g s s i t r t s g n m m m S S D D F D D S S S S S S F G F D D S S S F F F F F F S S S S S S S S S V S S S m j g i a a i i i t t i i i i s s i i t t t i i t g h g i t t t i g g g g g g g i i g i g f a p i i i g g i i r 1 > > > 1 1 5 3                                           ",
"                                                                                                                                                          R R F F F F F F R R G F F R F F F F F R F F F F F F S S S m m n n n v g s s i t t t s v n n m m D D D D G F S S S S S S D F F F D S S S F F F F F F S S S S S S S S S D D S S S m n g i i i i t i t i i s s s s s i i i t t i i t g h g i t t i i g g a a g g p a i i g i g f g p i i i g g p t 6 1 1 > 1 5 3 3 >                                         ",
"                                                                                                                                                        G F F F F F F F F F F F F F F F F F F R R F F F F F F S S S m m m n v g g s s s i t r s v n n m m D D D D F S S S S S S S D F F D S S S F F F F F F S S S S S S S S F F D D D D D S m v s i i t t t i i s s i i s s s i i i t i i t g h a i t t i i i g a a a g g i p a s g p g p p t i i i g a a r 5 1 > 1 5 3 5 >                                         ",
"                                                                                                                                                      F F F F F F F F F F F F F F F F F F G R R R R F F F F F S S S m m n n v g s s s i t t r g v v n m m D D D D D S S S V S S S D F F S S S S F F F D S S S S S S S S S F F D D D F F F F S n g i t t t t i i s s i i i i i i i t i i i i g a p t t i i i a g i i p g g p i i g i g g a i t t i a a a f i 5 1 > 1 5 3 5 >                                         ",
"                                                                                                                                                    F F F F F F F F F F F F F F F F F G R R R F F R F F F F F S S S m m n n v g g s s i t r r s g v n m V D S S D S S S S V S A S D F F S S S S F F S S S S S S A S S S S S S S S S S S F F S m g s i i i i g g g s i i i i i t t t t i t i g a p t i s g g g g i i i i g g g i i p a g a g t i i i a a g g e 5 1 1 5 5 5 3 >                                       ",
"                                                                                                                                                    F F F F F F F F F D F F F F F F F F R R F F F F F F F F F S S S m m n n v g g s i t t r r s g g n m V S V m S S S S V A A V S D F S S S S S F S S S S S S A S D S S S S S S S S S S S S S m g s t i g g g g g i i i i i i t t t i t t i g a p i i s g g g j a i i i p g g p p p i a g g a i p g a a a g i 6 5 1 5 5 3 5 >                                       ",
"                                                                                                                                                  F F F F F F F F F F F F F F F R R R F G F F F F F F F F F F S S m m m n n v g g s s t t t r t g g n m m m m S S S S V V S S D D F F S S S S S S S S S S S S S S S V V V V m V S S S S S S S S m g i i i i g g i i t t i i i t t i t t t i g a p t i i v g g j a i i s i f f g p a p i i a g a g g g i p a f r 5 5 5 5 1 1 5 >                                     ",
"                                                                                                                                                F F F F F F F F F F F F F F F F F F F F F F F F F F F F F D S S S m m m n n n v g g s i t t e r s g n m m m S S S S S S D D D D F F S S S S S S S S V S S S S S S S S S S V m m V S S S S S S S m j g i t i i i i i i i i t t t t i t t t i g a p t t i v v g j g p i i i i p g g a a i i i p a a g i a i g g p e 1 1 5 3 > 5 3                                     ",
"                                                                                                                                                F F F F R R F F F F F F F F F F F F F F F F F F F F F D S S S S V m m m n n n g g g s i t r r e i g n n m m S S S V V V D D D D D S S S S S S S S S V V S S S S S S S S S m m m m S S S S S D D S m g s i i i i i i i i i i t t t i i d t i g a p i t i v v g g g f f i i i i p g g a i p i a a a p g i i i a p i 6 > 1 5 > 3 5 >                                   ",
"                                                                                                                                              F F F F G R F F F F F F F F F F D D F S S S S S S D D D S S S S S V m m n n n v g g g s i t r r w t g n n m S S S V D V m S D D D S V V m S S S V V V m S V V S S S S S S m m m m m S S S S F F F F S n g i i i i i i i s s s i i i i i s i i g g a p i i g v v j g g i i a i i p p g g i i p i a a p g p a a i i p t 5 3 3 1 1 5 1                                   ",
"                                                                                                                                              F F F F F F F F F F F F F F F D S S S S S S S S S S S S S S S S m m m m n n v v g g s s s i t r w e g n m m S D D D D V V S D D V S m m m S S S m V m m S m m S S S S S S m m m V S S S S S F F F F S m g s i i s s s i s s s s p i i i s s i g g g p i i i v v g g g g g a p a d f g g a p i i i a p p g g a f i a i r 1 1 1 1 5 5 3                                 ",
"                                                                                                                                              F F F F F F F F F F F F F F F S S S S S S S S S S S S S S S m m m m m n n n g g g g g s i i t r r w s n m m D D S V V m V S D S V m m V S S S V m V m S S m S S S S S S S V m V S S S S S D F R R H F m v g s s s s s s i i s i i i i i g g f f g g a a i i v v v g g p g g p d i g f g p p i i i t i p a g p t i i i p 5 1 1 > 5 5 1                                 ",
"                                                                                                                                            F F F F F F F F F F F F F F F F S S S S S S S S S S S S S S V S S m A m m n v g g g s s s i i t t r w t m m V F S S S m m V S S V m m m S S V V m m m m V S m S S S S S S S S S S S S S S S F F R R F F S m g s s i s s s i i i i i i g g g g g p g g g g a g g v n j g g g g g f i i p f f a p i i t i p f g p t i i i i t 5 1 > 1 5 > 5                               ",
"                                                                                                                                            F F F F F F G G R R G G F F F F S S S S S S S S S S S S S V V S S m S m m n v g g s s s i i t t t r e r n m V S S S V S S V V V m m m m V m m m m m m m m m m S V V V S S S S S S S S S S S D F F F F F F m v g s s i i i i i i i i p g g g g g f g g g g a g g v n v g g i s g g p i i i f p p i i i i i p g g p i p p i p 6 1 1 > 1 1 >                               ",
"                                                                                                                                          G G G F F G G G G R R G F F F F D S S S S S S S S S S S S S V V S S S V m m n g g g s s i i t t r r r e w g m V V S V m V V m m m m m m m m m m m m m m m m m V A V m V S S S S S S S S S S D D F F F F F F m n g s s i i i i t i i i p g g g g g g g g g g g a g g v n g g a i s g g p i i i p p p i p i i i i a p p p p i t t 6 1 > 1 1 > 5                             ",
"                                                                                                                                          G G G F F R G G G R G R F F D D D D D D S S S S S S S S S S S S S S S S m m n n g g g s i t t t r r r e w g m m m V m m m m m m m m m V m m m m m m m m m m m V V m m V S S S S S S S S S S D F F F F F F F S m g s s s i i s i i i i i g g g g g g h h h h g g a g g v v g g a g i g a p i p i i p f i g i i i i p p p p i t t t 5 > > 1 > 5                             ",
"                                                                                                                                          G F F F F F F F F F F F F D D S S F F D F F S S S S S S S S S S S m S S m m m n n g g g i t t r r r e e w i n m m V m m m m m m m m m m m m m m m m m m m m m m m m S S S D D D D F F D D S S S S S F F F F S m v g i s i i i s i i i a g g g g g g j h h h h g g a g g g g j g a a g g g i p p p p p p g i i i i i p p p p t t t 6 3 3 > 1 5                             ",
"                                                                                                                                        G F F F F F F F F F F F F F F F D F F F F F S S S S S S S S S S S V m A S A m n n n g g g s t t r r r e r e r g m m m m m m m m V V m m m m m m m m m m m m m m m m S S S F F F F F F F F D D S S S S F S S S S m n j g s s i i i s a a g g g g g g j h h h h h h g a g g v v g h g s i g g g i a p a p p i a i p i i i p i i t t t e 5 5 1 5 6                             ",
"                                                                                                                                        F F F F F F F F F F F F F F F F F F F F F S S S S S S S S S S S S V m m S S m n n n g g g s t r r r e e r r r g v m m m m m m m V V m m V m m m m m m m m m m m m S S D F F F F G G F F F F F S S S S S S S S S m m m m v g s i i s g g g g j j g g g j h h h h h g i i g v v g h g g g i f g g p i p i p p p p i i i p i i i t t t t 3 5 1 5 6                             ",
"                                                                                                                                      G F F F F R F F F F F F F F F F F F F S S F S A S S S S S S S S S S S S S S S m m n n g g s s i r r w w e r r r g j m m m m m m V V m m V m n n n n m m m m V m m S S S D F F F F G F F F F F S S S S m S S V V V m m m V m m g a i i g g g g g g g g g g g h h h h g a i s g v g g g g g g i p a a p i i i p p t i i i g t t i t t t t 6 5 1 1 5                             ",
"                                                                                                                                      R R R R R R F F F F F F F F F F F F S S S S S S S S S V V V S S S S S S S m m m m m n g g s s i t r e 5 w r r r s g v v m m m m m m m m m n n n n m m m m m V m S S S F F F F F G G F F F D S S S S V V V m m m m S F F F S S S m m n j j g g g g g g g g g g g g h g g a s s g g g h g g g g i i p p i i i p p i i i i p 5 3 5 e t t i t 5 1 1 5                             ",
"                                                                                                                                      F F R R R R F F F F F F F F F F F F S S S S S S S S S V V m V V m V V S V m m m m m n v g g s i t r r w e r r r i g j v m m m m m m m m n n n n m m m m m A S S S S D F F F F G G G F F D S S S S S V V m m m m S F F F F S F F F F F F F S m n g g g g a g g g g g g g a i s g v g g h a g g p i p p p i i p p t i i t 6 3 3 5 5 t t t t 5 > > 5 e                           ",
"                                                                                                                                    F F F F F F F F F F F F F F F F D S S S S S S S S S S S S S V V m m m m V m m m m m m m n g s s i t t r e r r r r i g j v m m m m m m n n n n n n m m m m S S S S D F F F F F G G G F D S S S S S D V m m m m S F F R R F F F F R R R R R R R R R S m v s i i i i i i t t t t i s g g g j g g g g i t p p p i i p p t i t 6 1 e t e t t t i e 1 > 5 e                           ",
"                                                                                                                                  F F F F F F F F F F F F F F F F S S S S S S S S S S S S S S S S S S V m m m m m n m m m m n g g s s i t r e r r r r i g g v m m m m m n n n n n n m m m m m S S S S D F F F F F G G F D D S S S S S m m m S F F R R R R H H H F F F F R R R E E E E R R S n v g s s s s i i i i i i i s g g h g p g g i i a g p i i p p t t 6 1 t 6 > 5 t t i r 1 > 1 6                           ",
"                                                                                                                                  F F F S S F F F D D F F F F F S S S S D D S S S m m V V S S S S S V V m m m m m m m m m m n v g g s i t r r r r r t t s g v m m m m m n n n n n m m m m m m S A A S F F F F F F G F D D D D S S m m m V F R R R E R R R H H H F F F F F F R R E E E R E R F V n v g g s s s i i i i i i i i g g f g j a i a a g p i i p i p 6 > r 5 > 5 t t t t 1 1 1 5                           ",
"                                                                                                                                  F F F F F F S D S F F F S S S S D D F F F F S S m m m m S S S S A m m m m m m m m m m m m n v g g s i t r r e r t t r i g v m m m m m n n n n m m m m m m S S S S D F F F F F F F D D D D D D m m S S R R R R E R R R F F F F F F F F F F F F F R R R R R R F S n g s s s s s s s i i i i i i p p g g g g g g g g p i i i t t > 1 5 > 5 e t i i 5 5 1 5                           ",
"                                                                                                                                D F F F F F S S F F F F S S S D F F D F F F F S S V m m m m V m A m m m m m m m m m m m m m n v g g s i t t r w e t t r t g j m m n n m m n n n m m m V V V S S S S D F F F F F F S D D D D S m S S F R R R R R R F F F D S S S F D F S S S F F S S S S F F F F S m n g g s i i i i i i i i s s i t i g g g g g g g g p i i i i 6 > e 5 1 5 t i i e 5 1 5                           ",
"                                                                                                                                F F F F F F F F F F F S S S D F F F F F F F S S S V m m m m m m V V m m m m m m m m m m m m n v g g s s i r r w w r r r t s j v n n n n m n n n m m m m m m S S S S F F F F F F S S S m m m V S F R R R R F R F S S S S S S m A S S S A S S S S V S S S S S S S S S m n g i t t t t t i i i s s s i i g g g g g g g g g g p i i r > 5 6 1 1 r p p t 5 1 3                           ",
"                                                                                                                              F F F F F F F F F F F F S S S F F F F F F F F S S V m m m m m m m m m m m m m m m m m m m m n n n g g g s t r r w w w r r t s j v n n n n m m n n m m m m m m m A S S F F F F F S S V m m m S F R R R R R S S S S S S S S S A m m S S S m m A A A m m m A S S S S S S m m v s i i t t t t i i i i i i g g g g g j g j g g g g a i t 5 > 6 1 > 5 p p t 5 > 1                           ",
"                                                                                                                              F F F F F F F F F F F D S S S F F F F F F F S S A V V V m m m m m m m m m m m m m m m m m m n n n v g g s t r r e w w w r t s g v v n n n n m m m m m m m m m m m m m S S S S S m m m m D F F R R R R F F S S V S S D S S A m m m m m m m m m m m m m m m S S S A m m m m m n g s i i t t t t t t i i s s a g g g j g j g g g a a p t > 3 5 > > t p t 6 1 1                           ",
"                                                                                                                            F F F F F F F F F F F F D S S F F F F F F F S S m m m m m m m m m m m m m m m m m m m m m m m n n n v g g s t r r e w 4 5 e t s g g v v v n n m m m m m m m m m m n n m m m m n g n m S F F F R F F F F S S S V V m S S S m m m m m m m m m m m m m m m m m m m m m m m m m m m m v j g g i i t t t t t i i i i a g g j g g g g g g a p r 1 3 1 > 5 i i r 5 5                           ",
"                                                                                                                          F F F F F F F F F F D D S S S S F F S S S F S A m m m m m m m m m m m m m m m m m m m m m m m m m n n v g s i t r r 5 5 4 5 e t i s g v v v n n m m m m m m m m m m n n n n n v v m S S S S F F F S S S S S S m m m m A m m m m m m m m m m m m m m m m m m m m m m m m m m m m m m m m m m j g a i t t t t i i s i g g g j g g g g g g a p t 1 5 1 > i i t 5 5                           ",
"                                                                                                                          F F F F D F F F F S S S S F S S S S S S D S m m m m m m m n n m m n n m m m m m m m m m n m m m m n n v g s i t r e 5 4 1 4 e t i s g g v v n n m m m m m m m m m m n n n v v m m A S S S S S S S S S S S S m m m m m m m m n m m m m m m m m m m m n n m m m m m m m m m m m A m D m m m m m m v j g t r t t i i s i a g g g g g g g g g i p e 5 > > t i t e 5                           ",
"                                                                                                                          F F F D D F F F F S S S S S S S S S S S D S m n n n n n n n n n n n n n n m m n n n n n n m m m m n n g g i t t e 5 5 1 1 1 e t i s g v v v n n n m m m m m m m m m n n v g n V S S S S S F S S S V V S V m m m m m m m n n n m m n n n n n m m m m m n n m m m m m m m m A m D D D D D D D D D V m m g t r r t i i i i i g g g g g g g g g a i e 1 > 6 p t r 5                           ",
"                                                                                                                        F F F F F F F F F S S S S S S S S S S S S S m n n n n n n n n n n n n n n n n n n n n n m m n n m m n g g g i t r e 5 4 1 > 1 e r t s s g v v n n n m m m m m m m m m n v v g m S S F F F F D D S V V V V m m m m m m m m m m m m n n n n j j n n m m m n n m m m m m m m m m m m C D D F F F D D D m m m g e r r t t i i i i a p a a g g g g g p t 5 > > i i t 6                           ",
"                                                                                                                        F F F F F F F F F F F S S S S S S S S S S A n v v v n v n n n n n n n v v v v n n n n n m m n n m n n g g g i t r w 5 1 1 > 1 5 r t i s g v n n n m m m m m m m m m n v v g n S S F F G G G D F S m m m A m m m m n m m m m m m m n j n n n j j n j n n n n m m m m m m m m m m m m m D D D D D D m m m m m t e r r r t i i i t t i p p p g g g g i 6 > > r i t 6                           ",
"                                                                                                                      G R R R R R R R F F F F F F F D F S S S S S m n g g g g g g v v j g g v g g g v v v v n n n n n n n n n g g g i t r 5 5 1 1 > 1 5 e t i s g v n n n m m m m m m m m m n v v j m D D F F F D D F F V m m m A m m m m m m m m m m n n j j j n n n j j v v n n n n n n n m m m m m m m m m m m m m m m m m m m m j t e e r t t i i i t r t t i i g g g g t 1 > 5 i t r                           ",
"                                                                                                                      R R R R R R R R R H R F H R F F F F F F S m m m m m n g g g g g g g g g g g g g g g g v n n v n n n n g g i i t r e 5 4 1 > > 1 5 e r i i g g v n n m m m m m m m m m m n j n A F D F S D D D F D S m m m m A m m m m m m m m n n j j j j n n j j j v v v v n n n n n n m m m m m m m m m m m m m n n n n n m m g r w w r r r t i i t t r r r r p p g p 5 1 > i t t                           ",
"                                                                                                                      R R R R R R R R H H H H R R H F H F F D D G H G D S V m m n g g g g g g g g s g g g g g n v j n n n j g g i t t e 5 5 1 1 > > 1 5 w r t i s g v n n m m m m m m m m m v j j m D D S D D D D F D m m m m m A S S m m n n n m n n n n n n n n j j g g g v v v v n n n n n n n m m m m m m m m m n m n n n n n n m n t r w e r r r t t i t t r r r r p p g r 5 > 5 i t                           ",
"                                                                                                                    R R R R R R R R R H H H H H H H F F F G R E E E G D D S V m m v v g s s g g s s s s g g g v j j j n j g g s i t e w 5 4 1 > > : > 5 e r t i s g v n m m m m m m n n m v j j v V F D S D D D F D V m m m m m m S S m m n n m n n n n n n j j j g g g g g g g g g j n n n j j n n m m m m m m m n n n n j n n n n n n g t w w r e r r r t i t t r t r t i i i 5 > > t i                           ",
"                                                                                                                    R E R R R R R R R G G G H H G G G R E E E E E R G D D m m m m n m m g i t t i s i s s s g g g j j j g g g s t r 5 5 4 1 > > > : > 4 w r t i s g g n m m m m m m n m n v j j m S F S D D D D D m m m m m m m m S V m m n n m n n v v j j j j g g g g g g g g g g j n n n n n n n m m m m m m m n n n j j j n n n v j j g t w w e e r r r t i i t i i r i i i 5 1 : e                             ",
"                                                                                                                  R E R E R R R H H R R H H R R R R E E E E E G G F D S m m m m m m m m m j g s t t i g g g g g g g g g g g g i t e 5 4 1 > > > : : > 5 5 e t t s s g v n m m m m m m m n j j v m S S D D D D C m m m m m A m m m m m m m n n m n v g g j j j j g g g j n n v v v j j n n n v j n n m m m m m m m n v n j j j n n v j j j j s r w w 5 r r r r t i i i i i i i i r 3 : 5                             ",
"                                                                                                                  R E R R R R R R E E E E R R R R E R E G R R G D D D D D D D D S m m m m n n g g s s g j k k j j j g g g g a i r 5 5 1 1 > > : : : > 5 5 e t t i s g g n m m m m m m m n j j n m S S D D D D D m m m m m m m m m m n m n n m m n v j j j j j v v v v n n n n n v v j n n n v j v v m m m m m m m n v j j j j n n v j g g j g t e e e e r r r t t i i i i i p i p 5 > > i                           ",
"                                                                                                                  E E R R R R E ^ ~ E E E E E E E E G G G G G F S S S m D D D F D m A m m m n n j j g g g j m m m j j j j g g i r 6 5 1 > > > : : : > 5 5 e r t i s g g n m m m m m m m m h j m m S A V D D D D A m m m m m m m m m n n n n m m n n n n n n v v v v v v n n n v v v g j v j j j b b b b m b m b m v v j g g g j j j j g g g n s e e 6 r r r r r t t i i i i t p i e 1 > 6                           ",
"                                                                                                                E E E E E E E ^ ) E E ~ E E E E E G D S S S S S S A m m m D D D D D D m m m m n n n m m h h b m m k g g j j g p i r e 5 1 > > > : : > 1 5 e r t i s g g v m m m m m m m b k j m m m m C D D D D A m m m m m n n n m n n n n n m m m m m n n v v v v v v n n n v v v g g j j j j b b m m m v j b b v v v j g g g g j j j g g g g i r r e e r r r r t t t i t i i i i 3 1 1                           ",
"                                                                                                                E E E E E ) ) E E ~ ) E E E E E G F F A S S S A A m m m m D D D D D D m m m m n n n n j j b m m m m v g g g j g g i r 5 4 > > > > : > 1 5 5 r t i s g g v m m m m m n m m g n m m m m V m m m m m m m m m n n n n m n n n n n m m m m m m v n n v g g g j v m v v v v v v j j j v v m b b j j j j j j v j j j j g j j j g g s g g t r e e e e r e r r t t t t t i a e 1 >                           ",
"                                                                                                                E E E E ~ ) ( E ~ ~ E E E E E G D D D S F D S A A m m m m D D D D D m m m m m m n m m n h m m m j b m m k j j j g a i e 5 1 > > : : > 1 4 5 e t i g g g j m m m m m n n h g m m C m m V m m m m m m m m m n n n n m n n n n n n m m m m m v g g g g g n n n n v b m b v b b m m b b v j j j j j j j j j j j j j g j j j j g s g g s t e e e r r r e r r r t t t t i t 1 > 5                         ",
"                                                                                                              R E E E E E E E E E E E E E R G G D D S D D S m A A m m m m D D D D D m m C D D m m m m m m m m m v v m m m m g g g i r r 6 5 1 > > : > 1 1 5 6 e t i g g j m m m m m n m j n m m C m m m m m m m m m m m n v n n n n n n n n n v m m m m m j g g g g g v n m m v m m m m m m m m m m m m v j j j g g g j j j g g g g j j j j g g g g i r e e e r r e e r r e r t t t t 5 1 1                         ",
"                                                                                                              E ^ E E J G J J E E E H F G G G G F D D D S S m m m m n n m m m m m m m m m C V m m m m m m m m m n n m m m m j i t i t e 6 5 5 > > > > 1 1 4 5 5 r t i i j m m m m m n j n m m D C C m m m m m m m m m m n j n j j n n j n n n v j n v j j j g g g g g g g j v j v m m m k m m m m m m m m j g g g g g j j j g j g g g j j j g g g g g t r e e r t r r r r e e e r t t r 1 1 e                       ",
"                                                                                                            E E E R J G J E J E E J D D G G G F D S m m m m m m m n m m m m m m m m m m C C C C C A V C m m m m m n n m k k k g i t t i i 5 3 2 2 > > > 1 1 5 5 w r i i g j v m m m j g m m D C C D m m m C m m m m m m m m n j j n n n n m n v g g g g g g g g g g s g g j v j g g j j j j k k k k m m j g g g g g g j g g g g j g j g g j g g s g j g t e e r r r r t r e e w e r t t 5 1 5                       ",
"                                                                                                            E E E G G G J J J J J G D D G G F S m m m m m m m m m m m m m m m m m m m D F D D C m D m m C m m m m m m m m m b g a t t t i g 6 > 3 2 > > 1 1 5 5 5 w e t t s g n m h g v m m m V m A m m m V V m m m m m m m n n n n n v v m v g g g g g g g g g g g s s g j m j g g g j j j m k k k k k j g j j g g g g g g g g g g g g g g g g g g j j i r e e e r r e r r r e 5 e r t 6 1 >                       ",
"                                                                                                            E E R F G G G J H G G D D G D F F A m m m m m m S D C C D m m m m m m m m m m D C m m m D C m m m m m m m m m m v j g g i g g g g a 6 > > > > 1 1 4 5 5 w e t t t s j g g n m m m m m m m m m m m m m m m m m m m m m m j j j j v j j j g g g g s g g s s s s g g j j g g g j j j h j g g g g g g j j g g g g g g g g g g g g g g g j g g j g i t r r t r e e e r e 5 5 6 e r 5 1 5                     ",
"                                                                                                          E E E G F F D D F F S V V D D m m m n m m m m m m A m m C C m m m m m m m m m m D m m m m C D D D m m m m m m m k j n j g g g g g p p g t 3 > : 1 1 1 1 4 5 w e t t i g s n m m m m m m m m m m m m m m m m m m m m m m m m m m b v j j g j j g g g g s s d d s s s s g g j j j j g g g g g g s s g g g g g g a a g g g g g g g g g g g j g j g g i t r r r e e e e r e 5 5 e e e 1 1                     ",
"                                                                                                          E E E H G D D D D S m m S D D m m m m m m m m m m m m m D D D m m m m m m m m V D m m m m C C C D D D C m m m m n j n b j g g g g g p i t 6 3 : > 1 1 1 1 4 4 5 e r t g g m m m m m m m m m m m m m m m m m m m m m m m m m m m m j j j g j v j j g g g i i s s s s s i i i g g j j g g g a a i i i i i i i i i i i i a i i i i i a g g g j g g a g g t e r r 6 6 e r r 5 5 5 w r 5 >                     ",
"                                                                                                          E E H G G D D D D S m S S D D m m m m m m m m m m m m m C D D D m m m m m m m m m m m m m C D D D D D D m m n m n j j j j g g j j j g g i t t 6 5 1 1 1 1 1 1 4 5 5 r s j m m m m m m m m m m m m m m V m m m b v v b m j v m m m b j j g j v v v j g g g d i s s i i t t t i i i s g g g g g i i t t t t t i t t t t i i t t t t i i i i g j j g g g i e r e e 6 6 e r r 5 5 5 e e 1 1                   ",
"                                                                                                        E R G G G G D D D D D D D D D D m m m m m m m m m m m m m D D m m m m m m m m m m m m m m m m D D D C C D C m j n n j g g j g g g j h g g g i t i p r 4 > > > 1 1 1 4 e g j n m m m m n m m m m m m m m m m m b j j j j j j j j j m v j g g j j j j j j g g p p g a i i i i t t t t t t i s g g g i i t t t t t t t r r t t t t t t t i i i i g g j j j s t r e e r e 6 e r e 5 5 5 e 5 >                   ",
"                                                                                                        E F D F G G D F D D m m C m C C m m m m m m m m m m m m C D D m m m m m m m m m m m m m m m m m m m m m m m m n m n j g g j j g g j j g g g g g i r r 6 1 > > : > > 1 e g v n m m m n m m m m m m m b b b v m b b j j j j j g g g j j j j g g j g j j j g g g g a a i i i i t t t t t t t t i i g g i i t i i i i i t r r t t t t t t i i i i i g g j j g t r e e t t r w 6 e e 5 5 6 r >                   ",
"                                                                                                      E R D F G G G G F C m C m m D D m m m m m m m m m m m m m m m m m m m m m m m m m m m m m m m m k m k m m m m m m n n v n g g j g g j g g j g g g g p r 6 5 > : : : : > r j n n m n m m m m m m m m m b v v v v b j h j j j j g g j g g j g g g g g g g g g g g g g g i i i i i t t t t t t t t i i p i i t i i i i i t r r r r t t t t t i i t i a g g g g t r 6 6 r i t r 5 5 6 e 5 5 r 5 1                 ",
"                                                                                                      E F S G G F D F D D D m m m D m m m m m m m m m m m m m m C m m m m m m m m m m m b b m m m m h k m m m m m m m n n v j j j g g g j j j g j j g g g g i t r 6 5 > : : > t v n n n j m m m m m m m m m b v v v v j j j j g j j j j g g g g g g g g g g g g g g j g g g i i i i t t i i i i i t t t t i i i t t t i i t t r r r r r r r r r r t t i i p g g g i r r e 6 r t r e 5 5 6 e 5 e r >                 ",
"                                                                                                    E F S D G D D G F D D D m m D D m m m m m m m m m m m C C C m m m m m m m m m m m m m k n j j j h k m m m m m m m m n n j n j g j g j h k h j j j j g p i i t r 5 1 : : > s b v m n j m m m m m m m m m j j j m m j g g g g g j g g g i g g g g g g a a a p g g g g p i t t i i i i i i i i i i t t t t i i t t t t r r r r r r e e r r r r r r r r t i a g a g i t r e e e r r e 5 5 5 5 5 r w 1               ",
"                                                                                                    F m D G F D D A m m D D m D D D m m m m m m m m k m m m m C m m m m m m m m m m m m h j j j j j j j m m m m m m m b v j j m m j g g g j k h h j g g p p i i i t 6 1 : : 5 g n j m j j m b m m m h b m m j g j m j j g g g g g g g g a i g g g g g f i i i i p a a i t r r r t t i i t t t t t t t r t t r t r r r t r r r r r e e e e e e e 6 e r r t i i i i i f g i r e e e r e 5 5 5 5 5 6 r 4               ",
"                                                                                                  F S m F G D D D m m m D D D D m m m m m m m n h h h m m m m C m C m m m m m m m m C m m k j j j j h m m m m m k m b j j j j m m m j g g g j j j j g p p i i i i i t 6 1 : e g v m n j n m m m m m j j m m h g j j j g g g g g g g g g a g g g f f p p i i i i i i i r r r r r r r r r r r r r r t r r t t t r r r r r r r e e e e e 6 6 6 e e e e r r r t t i i i i p i i r e e e e 6 5 5 5 5 5 e e               ",
"                                                                                                  S S G G D D C C m m m m C m m h j j j b k j j h h m m m m m C m m m m k m m m m m m m m m m m m m m m m m m h k m m j j j j j m m m j g g g j j j g p f p i i i i i r 5 1 r g v m j g n j n m b m j j m m m j j g g g g g g g g g g g a g g g p f p i i i i i i t t r r t r r r r r r e e e r r r r r r r r r r e e e e 6 6 6 6 6 6 5 5 5 5 6 6 6 6 6 e r r r t r i i i i t e 6 5 6 e 5 5 4 4 5 5 r               ",
"                                                                                                  m D G D C C m m m m m m m m v g j j j j h b m m m m m m m m C m m k k k k m m m m m m m m m m m m m m m m k j j h b j j j j g j b m m j g g g g g g g i i g i i i i r 6 e t g m m v j v j g m b j j j m m b j g g d i g g g g g g g p p g g p a g a i i i i i t r r e e e e e e e e 6 6 6 e e 6 e r r r r e e e e 6 e e 6 6 5 5 5 5 5 5 5 5 5 5 5 5 5 6 6 e e e r r t i i i t e 6 6 5 5 5 5 5 5 5 5 t             ",
"                                                                                                m m G G D D C m m m m m h h m j g j g j j h h m h h h k m m k m m k k k h j j h j j j j j j h h h h b m m m j j j j j j j j j j j j b m b j g a g g g g i i i i i i i t r r t g m n n n n n j m b j j j m m j g j g g g g g g g g g i i i i p p a g g i i i i i t r r e e 6 6 6 e e 6 6 6 6 6 6 6 6 6 e e e e 6 6 6 6 6 6 6 5 5 5 5 5 5 5 5 5 5 5 5 5 5 5 5 6 e e e r r t t i i t e 6 5 5 5 5 4 4 5 5 r             ",
"                                                                                                S D G D D D m k j m m v j b v j j j j h h j j h h j j h k k k k m k k k j g g g g g j g g g g g j j h h m j j j j j j j j j j j j j j j j g g g g j g g i i i i t t i t t r i j j v n m m n j m j j j j j j j j j g g g g a g g g i t i i i i i i a i i i r r e r r e e e 6 6 6 6 6 5 5 5 5 5 6 6 6 6 6 6 6 6 6 6 5 5 5 5 5 5 5 5 5 5 5 5 5 5 5 5 5 5 5 5 5 5 6 6 6 6 r r r t t i t r e 6 5 5 5 4 5 5 5 t           ",
"                                                                                              D D F D m m m m j j j j j j g g g j j h h j g g j j g g j h h h h h h k h j j g g g g g g g g g g g g j h h g g j j j j j h b k j j j j j j g g g g g g g i i i i i t t r r r i g j g n m m j j j g g j g j j g g g g g g p p g g g i r t i i t t i i t t r r 6 6 e 6 6 6 e e 6 6 6 5 6 5 5 5 5 5 5 5 5 5 5 5 5 5 5 5 5 5 5 5 5 5 5 5 5 5 5 5 5 5 5 5 5 5 5 5 5 5 6 6 6 6 e e e r i i t r 6 6 5 5 4 4 5 5 e i         ",
"                                                                                              D D D m h m j j j g g g g g g g g h h h j g g g g g g g h j h h h h h h j j j g g g g g g g g g g g g g g g g g g g g g j j m m j g g g j g g g g i f g g i g i i i i t r e r i g j g m m m j v j j j g g j j g g g f p i i i a a i t t t r r r r t t t r r e 6 6 5 5 6 e e e e 6 6 6 6 5 5 5 5 5 5 5 5 5 5 5 5 5 5 5 5 5 5 5 5 5 5 5 5 5 5 5 5 5 5 5 5 5 5 5 5 5 6 6 6 6 6 6 6 6 r t t r r e 5 5 5 5 5 5 5 t         ",
"                                                                                              F F m j g g g g g g g g g g g g j j j j j g g g g g g g j h j j g h h g g j j g a g g g g g p a g a g g g g g g g g g g g j j j j g g g g g g g g g i g g f g i i i t r r e r i g g j m D m m j g j j g g g j g g g p i p i i i i t r r r r r r r r t r r r r e 6 6 5 5 e e e e e e 6 6 5 5 5 5 5 5 5 5 5 5 5 5 5 5 5 5 5 5 5 5 5 5 5 5 5 5 6 5 5 5 5 5 5 5 5 5 6 6 6 e e 6 6 6 6 6 r r r r e e 5 5 5 4 5 5 e         ",
"                                                                                            D F D h g g g g g g g g g g j j g g g g g g g g g g g g g g j j g g g g p g j g g p f g a a p p g g g g j g a g g a a a g g g j j g g s g f g g g g g g g g g f i i t r r r e r i g g j m D m v g g g v g g g g g g g p p p i i i r r r r r r e e r r r r r r e e e 5 w 5 w e e e e w e e e 5 5 5 5 5 5 5 5 5 5 5 5 5 5 5 5 5 5 5 5 5 5 5 5 5 w 5 5 e w e w 5 5 5 5 5 6 6 6 6 6 6 6 6 e e r r r e 6 5 5 4 5 5 5 t       ",
"                                                                                            D D m j g g g g g g g g g v v v g g g s s g a g g g g g i a g g g g g g a g g g a p p i a a p a g g g j g a g g g a i a g g g g g g g g g g g g a g g f f f p i i t r r 6 6 r r i g g g m m m j g s g g g g g g a a p i i i i r r r r e e e e e r e e e e e e e w w w w 5 w e w w w w w w w w w w 5 5 5 5 5 5 5 5 5 5 5 5 w w 5 5 5 5 w 5 5 w w w w w w e e w w 5 5 5 5 5 5 6 6 6 5 5 6 e e e e e 6 6 5 5 5 4 5 e i     ",
"                                                                                            D m j j g g g g g g v v v v v v v v g g s s g g g g g i i i a g g g g g g p g g g a a i a g a g g g g j g a g g g a i i g g a g s g g g g g g g a i i i i i i i i r r e e e r r i g g g m m j g s i i g g g g g a i i i i r r r e e e e e e 6 e e e e e e w w w w w w w w w w w w w w e e w e e e w w e e e w w w w w w w w w w w w w w w w w w w w w e e e w w w w e 5 5 5 5 5 5 5 5 5 6 6 e e e 6 6 6 5 4 5 5 5 r     ",
"                                                                                          D m j g g g v v v v v v v s s s s s s s i i s s s v v s i i i i g a a a a a a g g a p g g a p a g g g g a i i g g a i i i a g i i s s s s s g g g i i i i i i t t r r r e e e r r i g g s v v g s i t i g g g g a i i i t r e e 6 6 6 6 6 e e 6 e e e e w w w w w w w e w w w e e r r t t r r e e e e e e w 5 5 5 e e e e e e e r r r e e e r r r r r r r e e e w w w w w w 5 5 5 5 5 5 5 6 6 6 6 6 6 6 6 6 5 4 4 5 w i   "
};
