/* XPM */
static char *_697821b768346ffb1bd9da731ab99f5xykKJsUzH6lBVuNW[] = {
/* columns rows colors chars-per-pixel */
"250 250 203 2 ",
"   c None",
".  c #040404",
"X  c #080707",
"o  c #080807",
"O  c #070709",
"+  c #080709",
"@  c #07080B",
"#  c #0A0A0C",
"$  c #070807",
"%  c #14130F",
"&  c #0D0E12",
"*  c #0E1114",
"=  c #0F1519",
"-  c #121414",
";  c #181713",
":  c #171915",
">  c #1A1B16",
",  c #131619",
"<  c #15191D",
"1  c #1C1D1B",
"2  c #10100F",
"3  c #211C17",
"4  c #211F1A",
"5  c #1F201C",
"6  c #23231D",
"7  c #2A251E",
"8  c #35271E",
"9  c #161C21",
"0  c #1B1E22",
"q  c #1D2125",
"w  c #1E242A",
"e  c #1F282E",
"r  c #242522",
"t  c #282721",
"y  c #262923",
"u  c #2B2C25",
"i  c #232629",
"p  c #25292C",
"a  c #2C2D2A",
"s  c #312E26",
"d  c #392E26",
"f  c #302F28",
"g  c #3B2024",
"h  c #2E312A",
"j  c #2F3027",
"k  c #33332C",
"l  c #38362E",
"z  c #35382F",
"x  c #39382F",
"c  c #313027",
"v  c #262B30",
"b  c #2B2E31",
"n  c #362E32",
"m  c #2D3134",
"M  c #2E3439",
"N  c #343632",
"B  c #383730",
"V  c #363932",
"C  c #3B3C34",
"Z  c #333639",
"A  c #36393C",
"S  c #3B3D3A",
"D  c #401F23",
"F  c #432E23",
"G  c #4C3429",
"H  c #45362C",
"J  c #523A2D",
"K  c #403E35",
"L  c #413F38",
"P  c #4C3F36",
"I  c #4C3531",
"U  c #3D4037",
"Y  c #3E413A",
"T  c #404037",
"R  c #42443C",
"E  c #49463D",
"W  c #45483F",
"Q  c #4A483F",
"!  c #5B4236",
"~  c #53443A",
"^  c #5D4539",
"/  c #5E4B3F",
"(  c #61473A",
")  c #644A3C",
"_  c #684B3C",
"`  c #363C42",
"'  c #3B3E41",
"]  c #3E4145",
"[  c #3E4449",
"{  c #424642",
"}  c #454941",
"|  c #4A4C43",
" . c #424649",
".. c #45494D",
"X. c #494D4D",
"o. c #4A4642",
"O. c #524E43",
"+. c #5A4F4A",
"@. c #4D5047",
"#. c #4E5149",
"$. c #525045",
"%. c #52544B",
"&. c #5B554D",
"*. c #454C51",
"=. c #4A4E52",
"-. c #475056",
";. c #4D5255",
":. c #4E545A",
">. c #4A555C",
",. c #515456",
"<. c #5B5C52",
"1. c #515659",
"2. c #55595D",
"3. c #585C5E",
"4. c #575B52",
"5. c #644D41",
"6. c #684E41",
"7. c #6C5244",
"8. c #6C5649",
"9. c #655346",
"0. c #725445",
"q. c #76594A",
"w. c #7B5D4E",
"e. c #725749",
"r. c #655F53",
"t. c #7A5F51",
"y. c #7D6253",
"u. c #776558",
"i. c #4F5960",
"p. c #565C62",
"a. c #595E62",
"s. c #5C6165",
"d. c #5E646A",
"f. c #556168",
"g. c #5B6771",
"h. c #61666B",
"j. c #63696D",
"k. c #65696B",
"l. c #656C72",
"z. c #696E73",
"x. c #6D7276",
"c. c #6B7175",
"v. c #6D7378",
"b. c #6F7478",
"n. c #6F757A",
"m. c #6D747A",
"M. c #6F797E",
"N. c #61717C",
"B. c #71767B",
"V. c #71767A",
"C. c #71777C",
"Z. c #70767C",
"A. c #72787E",
"S. c #73797D",
"D. c #757879",
"F. c #846554",
"G. c #876857",
"H. c #866A5A",
"J. c #8C6C5B",
"K. c #866858",
"L. c #906E5D",
"P. c #92705E",
"I. c #8F705E",
"U. c #8F7160",
"Y. c #957462",
"T. c #997663",
"R. c #9B7966",
"E. c #9E7C69",
"W. c #A27E6A",
"Q. c #A6816D",
"!. c #A9836F",
"~. c #A78472",
"^. c #AC8671",
"/. c #AF8974",
"(. c #B28B75",
"). c #B48D79",
"_. c #B88F77",
"`. c #BC937C",
"'. c #B7917C",
"]. c #C2987F",
"[. c #C0957F",
"{. c #667681",
"}. c #6B7B88",
"|. c #747C82",
" X c #737D88",
".X c #798085",
"XX c #7B848B",
"oX c #768289",
"OX c #7E8991",
"+X c #738491",
"@X c #828B92",
"#X c #848F9C",
"$X c #89949B",
"%X c #80858D",
"&X c #BE9781",
"*X c #BE9885",
"=X c #929BA8",
"-X c #8997A1",
";X c #99A3A9",
":X c #98A1B1",
">X c #C19781",
",X c #C59A83",
"<X c #C99C84",
/* pixels */
"                                                                                                                                                                                                                                                                                                                                                                                                                                                                                                                    ",
"                                                                                                                                                                                                                                                                                                                                                                                                                                                                                                                    ",
"                                                                                                                                                                                                                                                                                                                                                                                                                                                                                                                    ",
"                                                                                                                                                                                                                                                                                                                                                                                                                                                                                                                    ",
"                                                                                                                                                                                                                                                                                                                                                                                                                                                                                                                    ",
"                                                                                                                                                                                                                                                                                                                                                                                                                                                                                                                    ",
"                                                                                                                                                                                                                                                                                                                                                                                                                                                                                                                    ",
"                                                                                                                                                                                                                                                                                                                                                                                                                                                                                                                    ",
"                                                                                                                                                                                                                                                                                                                                                                                                                                                                                                                    ",
"                                                                                                                                                                                                                                                                                                                                                                                                                                                                                                                    ",
"                                                                                                                                                                                                                                                                                                                                                                                                                                                                                                                    ",
"                                                                                                                                                                                                                                                                                                                                                                                                                                                                                                                    ",
"                                                                                                                                                                                                                                                                                                                                                                                                                                                                                                                    ",
"                                                                                                                                                                                                                                                                                                                                                                                                                                                                                                                    ",
"                                                                                                                                                                                                                                                                                                                                                                                                                                                                                                                    ",
"                                                                                                                                                                                                                                                                                                                                                                                                                                                                                                                    ",
"                                                                                                                                                                                                                                                                                                                                                                                                                                                                                                                    ",
"                                                                                                                                                                                                                                                                                                                                                                                                                                                                                                                    ",
"                                                                                                                                                                                                                                                                                                                                                                                                                                                                                                                    ",
"                                                                                                                                                                                                                                                                                                                                                                                                                                                                                                                    ",
"                                                                                                                                                                                                                                                                                                                                                                                                                                                                                                                    ",
"                                                                                                                                                                                                                                                                                                                                                                                                                                                                                                                    ",
"                                                                                                                                                                                                                                                                                                                                                                                                                                                                                                                    ",
"                                                                                                                                                                                                                                                                                                                                                                                                                                                                                                                    ",
"                                                                                                                                                                                                                                                                                                                                                                                                                                                                                                                    ",
"                                                                                                                                                                                                                                                                                                                                                                                                                                                                                                                    ",
"                                                                                                                                                                                                                                                                                                                                                                                                                                                                                                                    ",
"                                                                                                                                                                                                                                                                                                                                                                                                                                                                                                                    ",
"                                                                                                                                                                                                                                                                                                                                                                                                                                                                                                                    ",
"                                                                                                                                                                                                                                                                                                                                                                                                                                                                                                                    ",
"                                                                                                                                                                                                                                                                                                                                                                                                                                                                                                                    ",
"                                                                                                                                                                                                                                                                                                                                                                                                                                                                                                                    ",
"                                                                                                                                                                                                                                                                                                                                                                                                                                                                                                                    ",
"                                                                                                                                                                                                                                                                                                                                                                                                                                                                                                                    ",
"                                                                                                                                                                                                                                                                                                                                                                                                                                                                                                                    ",
"                                                                                                                                                                                                                                                                                                                                                                                                                                                                                                                    ",
"                                                                                                                                                                                                                                                                                                                                                                                                                                                                                                                    ",
"                                                                                                                                                                                                                                                                                                                                                                                                                                                                                                                    ",
"                                                                                                                                                                                                                                                                                                                                                                                                                                                                                                                    ",
"                                                                                                                                                                                                                                                                                                                                                                                                                                                                                                                    ",
"                                                                                                                                                                                                                                                                                                                                                                                                                                                                                                                    ",
"                                                                                                                                                                                                                                                                                                                                                                                                                                                                                                                    ",
"                                                                                                                                                                                                                                                                                                                                                                                                                                                                                                                    ",
"                                                                                                                                                                                                                                                                                                                                                                                                                                                                                                                    ",
"                                                                                                                                                                                                                                                                          1.a.s.                                                                                                                                                                                                                                    ",
"                                                                                                                                                                                                                                                                          Z 3.D.Z                                                                                                                                                                                                                                   ",
"                                                                                                                                                                                                                                                                          b p A i                                                                                                                                                                                                                                   ",
"                                                                                                                                                                                                                                                                          b , , 0                                                                                                                                                                                                                                   ",
"                                                                                                                                                                                                                                                                          b - * 0                                                                                                                                                                                                                                   ",
"                                                                                                                                                                                                                                                                          p , * 0                                                                                                                                                                                                                                   ",
"                                                                                                                                                                                                                                                                  M A ] *.Z 0 , 1 p a A                                                                                                                                                                                                                             ",
"                                                                                                                                                                                                                                                                  p  .]  .] A M r i i a                                                                                                                                                                                                                             ",
"                                                                                                                                                                                                                                                        |.M.z.j.s.Z ' A A Z Z Z p 0 0 q ] h.l.c.                                                                                                                                                                                                                    ",
"                                                                                                                                                                                                                                                      ..2.|.M.v.z.1.] S A A Z Z Z b p p A s.j.l.m.M.                                                                                                                                                                                                                ",
"                                                                                                                                                                                                                                                    ,.=.X.h.|.C.B.z.h.s.a.2.1.:.1.p.a.a.j.m.A.A.A.|.A.                                                                                                                                                                                                              ",
"                                                                                                                                                                                                                                                    ;.;.;.,.c.S.A.b.c.l.j.s.3.p.s.h.j.l.v.B.B.A.A.|.|.A.                                                                                                                                                                                                            ",
"                                                                                                                                                                                                                                                  =.=.,.2.1.3.A.|.B.m.x.z.d.d.d.k.j.z.z.c.x.x.x.m.C.B.B.M.                                                                                                                                                                                                          ",
"                                                                                                                                                                                                                                                  =.=.;.1.2.2.h..X|.A.B.x.z.j.j.z.c.x.b.x.b.m.B.m.m.m.m.x.B.A.                                                                                                                                                                                                      ",
"                                                                                                                                                                                                                                                   .X.=.=.1.2.a.j.XX|.S.B.x.z.z.z.x.b.B.B.B.B.B.B.B.B.B.B.B.C.A.                                                                                                                                                                                                    ",
"                                                                                                                                                                                                                                                   . .=...;.1.a.a.A..Xm.B.x.z.z.c.x.m.B.B.B.C.B.B.B.B.B.m.m.B.m.v.                                                                                                                                                                                                  ",
"                                                                                                                                                                                                                                                   . . .=.=.:.2.s.h.oX|.x.z.z.z.z.x.m.B.B.C.C.m.M.m.m.x.c.v.m.v.v.m.                                                                                                                                                                                                ",
"                                                                                                                                                                                                                                                  ]  . ...;.;.1.a.s.l.@X|.z.z.z.x.x.m.B.m.x.x.x.x.x.x.x.x.x.x.x.v.m.C.                                                                                                                                                                                              ",
"                                                                                                                                                                                                                                                  ]  . . .=.;.1.1.a.s.j.@XA.l.z.z.c.c.x.x.c.c.z.c.x.x.x.x.x.x.b.x.v.x.c.v.                                                                                                                                                                                          ",
"                                                                                                                                                                                                                                                   . . . . .;.1.1.2.2.p.j.2.` A A Z Z Z A A A A A A A ` A A A S ' ' ' ' ] '                                                                                                                                                                                         ",
"                                                                                                                                                                                                                                                  ]  . . . ...,.1.1.:.2.] < , i A Z Z A ' A A ' ` A A A A A A A A A ' b 1 0 i                                                                                                                                                                                       ",
"                                                                                                                                                                                                                                                  ] ] ]  . . .=.:.1.,.;.b - p .X;X|.M.v.v.B.z.l.l.l.d.d.h.d.h.l.l.h.d.d.A 1 0                                                                                                                                                                                       ",
"                                                                                                                                                                                                                                                  ] ] ]  . . ...;.1.2.;.i r ;.%X=XoXl.h.j.l.d.a.a.a.p.a.a.a.d.d.s.p.2.2.p.A 0 i                                                                                                                                                                                     ",
"                                                                                                                                                                                                                                                  ] ] ]  . . . ...;.a.;.M Z X.1.c.|.m.l.h.d.d.s.s.s.a.s.s.s.s.a.p.2.1.;.:.2. .Z =.                                                                                                                                                                                  ",
"                                                                                                                                                                                                                                                  ] ] ] ]  . . . . .;.2.[ A Z A 1.OX|.l.l.l.l.l.z.z.z.z.z.z.z.c.x.c.z.c.l.:.|.h.d.s.h.l.      M ;.h.d.d.d.d.                                                                                                                                                        ",
"                                                                                                                                                                                                                                                ] ' ] ]  . . . . . ...1.:.] A A 3.C.OXm.l.l.l.l.z.c.c.c.c.c.v.v.C.C.B.m.j.S =.A M M p m x.    m a Z Z Z M A                                                                                                                                                         ",
"                                                                                                                                                                                                                                                ..] ' ]  . . . . . .] ..:.1. .;.a.s.m.XXc.z.z.z.z.x.c.z.z.c.c.z.z.z.z.z.a.A i , ' S.Z < h.c.z.] a i k.c.1 < r                                                                                                                                                       ",
"                                                                                                                                                                                                                                                =. .' ' ] ]  . . .] ] ] ..d.s.3.2.2.s.x.oXz.l.l.l.l.z.c.c.c.c.x.x.z.h.h.2.A q - r N r 1 2.p.1...M 0 p V , - 1                                                                                                                                                       ",
"                                                                                                                                                                                                                                                1...] ' ] ]  ... .] ] ]  .1.2.2.2.2.a.h.A.M.l.z.z.z.z.z.z.z.z.d.j.a.2.p.=.A 0 - - - < 1 1.p.2.=.` 1 - - - - 1                                                                                                                                                       ",
"                                                                                                                                                                                                                                                =.;. .' ' ]  ... . .] ] ] ..=.,.2.3.a.s.k..XA.z.z.z.z.z.z.z.a. ... .:.;...A 1 - - - , 1 ..=.1.1. .1 - - * - 1                                                                                                                                                       ",
"                                                                                                                                                                                                                                                 .;.X.] ' ]  ... ...] ] ]  . ...;.3.a.a.s.z.XX|.c.x.c.c.c.j.=.] i q ]  . .A q - - , , , i p p b p < - - - - 1                                                                                                                                                       ",
"                                                                                                                                                                                                                                                 ...1. .' '  ... . .] ]  .;... . .;.a.a.s.d.j.oXc.z.z.z.h.;. .Z , 1 Z A A Z i < < < , , 1 < < < 1 1 < < < < 0                                                                                                                                                       ",
"                                                                                                                                                                                                                                                ]  .;...] ' ] .. . . .] ..1... . ...;.2.s.s.s.l..Xl.l.j.1. .] p , 1 b b m b a i r q < < < < 1 1 0 q q q 1 1 q                                                                                                                                                       ",
"                                                                                                                                                                                                                                                ' ] ..;...] ' ]  . . .] ;.:.=. .......X.2.s.s.s.M.@Xc.j.s...M 0 , < r i Z ..' Z Z M b p a a a a m M M M b b A ;.a.                                                                                                                                                  ",
"                                                                                                                                                                                                                                                ' '  .=.*. .' '  . ... .X.;.;.=.X.X.X.X.=.2.s.s.d.oX@Xl.d.a.' p r q 1 r A =.2... . .....*.=.=... .[ ] ] ]  .=.1.2.p.                                                                                                                                                ",
"                                                                                                                                                                                                                                                  S ]  .;...] ' '  ... .] ..;.1.=.=.=.X.;.;.,.s.d.d.oXXXj.s.a.1.;...a i A A M q q r i i i i i i i q q 0 0 0 0 0 q q r                                                                                                                                               ",
"                                                                                                                                                                                                                                                  S ' ] =.=. .' ' ] .. .]  .=.1.;.=.=.=.;.;.,.2.s.d.l.OXm.s.2.;.=...S m Z A 1 - * - - - - , - - - - * * - * * - , - ,                                                                                                                                               ",
"                                                                                                                                                                                                                                                    ' '  .=...] ' '  . .] ' ..=.;.;.;.;.1.1.2.2.2.a.j.C.XXz.1.=... .S Z Z M , , - , , , , , , , , , , , , , , , - , , b j.                                                                                                                                          ",
"                                                                                                                                                                                                                                                    ' ' ] ..;...] ' ]  .] ' ] ..=.;.;.:.1.2.2.a.p.a.h.z..X@Xj.:.=. .A b Z v < 1 1 9 9 0 0 9 0 0 1 < 1 1 1 < 1 0 < < < 0 ;.s.                                                                                                                                        ",
"                                                                                                                                                                                                                                                      ' ]  .1... .' S ' ' S '  .X.X.=.;.,.2.3.a.a.s.h.j.C.@XXXa.;...' p M q 1 q 0 0 0 0 9 9 9 0 0 1 1 0 0 0 0 0 0 0 0 0 A 1.d.                                                                                                                                      ",
"                                                                                                                                                                                                                                                      S ' ]  .X. .] S ' ' ' S ' ] ' ]  . .X.=.1.2.s.j.z.c.m.$X@Xd.1.=.A b < 0 i w i p p v v v i i i i a p p i i i i i 0 q =.2.j.                                                                                                                                    ",
"                                                                                                                                                                                                                                                        ' ' ] .... .' A ' S S S A M S ]  . ...=.;.1.3.d.j.z.A.;XXX2.;.=. .Z Z Z Z Z Z M Z Z M Z Z N N Z b M Z Z A A A A A  ...:.s.                                                                                                                                  ",
"                                                                                                                                                                                                                                                        ' ' '  ... .] ' ' ` A S A p Z S  ... ...X.;.2.3.s.h.j.B.X.a p i i r i i i r r r r r 0 q r r r r q r i r p p i p p p p b b =.                                                                                                                                ",
"                                                                                                                                                                                                                                                        ' ' ' ]  . .' ' ' A A S Z p Z A  ... ...X.;.1.2.a.s.l.:.p r r r q 0 r r r a 0 1 1 < , , < < < , , 1 1 1 r i r i i r i p r a '                                                                                                                               ",
"                                                                                                                                                                                                                                                          ' S S ' ..] ] ' A A A Z a M Z A  .......;.;.,.2.s.p.M i r r i i r i r p 1 . . . . O . . . . . . . + + o & p r r r r i r r b A                                                                                                                             ",
"                                                                                                                                                                                                                                                          ' S S S  ... .' A A A Z b M M Z ' ........=.;.2.d.Z i i i i i i r r p r . . . . . . . . . . . . . . . + o , i r r r i i i p b                                                                                                                             ",
"                                                                                                                                                                                                                                                            S S S ' X. .' A A A Z M Z b b A  .......=.;.a.=.p i i i i r r r r i # . . . O O . . + o o X . . . . O o . i i r q r r i i r a                                                                                                                           ",
"                                                                                                                                                                                                                                                            S A S S  . .' A A A Z M M a b Z A ........;.X.b i i p i i r r r 1 r # . . . O + o o o + o o . . . . O o . a r r r r r i p p a N                                                                                                                         ",
"                                                                                                                                                                                                                                                              A A S ' ' S A A A Z b Z p p b M '  .=.X...b i p i r r i i i r 0 q # . O X + o o o o o o + + + . . O # . r 1 r r r i i p p p p                                                                                                                         ",
"                                                                                                                                                                                                                                                              ] A A ' A S A A A Z b Z p p p p Z ] X...] p i i r r r i i r r q 0 & . O + o o . o o o o o + + . . O o . 0 q r i i i p a p p i b                                                                                                                       ",
"                                                                                                                                                                                                                                                               .S A A S S A A A Z m Z p p p p b ' ....Z p i i i r r r r r r 0 0 & . O + o o o o o o o o o + O O O o . q r r r i i p p i p p b '                                                                                                                     ",
"                                                                                                                                                                                                                                                              ..] A A S S A A A Z Z M p p p p p ..=. .p i i i i r r r r r r q 0 & . + o o # # # o o o o + O O . O o . 1 r i i i i i i i p a p A                                                                                                                     ",
"                                                                                                                                                                                                                                                              ..] A A A S A A A Z A M p p r p p  .=.] i i i i i r r r r r r q q * . + O & < q q 1 & o o + O . . O + . 1 r q i r r i i p p p p Z  .                                                                                                                  ",
"                                                                                                                                                                                                                                                              ..] ' A A A A A A A A b p p i p p S ' A i i r r i r r r r r 0 0 0 - . + o , q p b p 1 # o O . . . O + . , q 0 q q r i p p a p i b  .                                                                                                                  ",
"                                                                                                                                                                                                                                                              .. .' A A A A A A A Z p p b p p a A A A i i i i i i i i r r q 0 0 - O + # < i M Z a 1 - o O X . . O + . - 0 0 r q q i p b a b p p  .                                                                                                                  ",
"                                                                                                                                                                                                                                                               .] ] S A A S A A A M i p p p p b A S A i i i i i i i i r r q 0 1 - O o # , i b M i - & o + X O . O + . & 1 0 0 q r r p a Z b p M  .                                                                                                                  ",
"                                                                                                                                                                                                                                                                ] ] ' A A A A A Z m p p p p p p A A Z i i r i i i i r q r 1 1 < - X o o & < q q < & # # o o o + O o . # 1 1 0 q r r p p a p i p S                                                                                                                   ",
"                                                                                                                                                                                                                                                                ] ] ' ..A A A A Z M a p p p p p A A Z i r i r i i i q 0 0 1 1 < - o o o + & * & # + # # # # o + + o . # < 1 0 0 0 r r p p i i p A                                                                                                                   ",
"                                                                                                                                                                                                                                                                ' ' ' ..A A A A Z M a p p p i i A A M r r i i i i r 0 0 0 0 1 < - o o o o o # + o # # & # # o . o o . o , 1 1 0 0 q r r i r i i A                                                                                                                   ",
"                                                                                                                                                                                                                                                                ] ' ' ] A A A A Z b p a b a i i A A b i r i i i q q 0 0 0 1 1 < - + + o # # # # # # # # # # o . o o . o - , < 1 0 0 q r q q r i Z                                                                                                                   ",
"                                                                                                                                                                                                                                                                  ' ' A Z A A A Z m p a b m p i A A Z i i i i i q 0 0 0 0 1 < , - o o # o # # # # # # # # # o . o o . o * , 1 1 0 0 q r r r r i Z                                                                                                                   ",
"                                                                                                                                                                                                                                                                  ' ' Z Z ' S A Z m p p b b p r A Z M i i r q q q q 0 0 0 1 1 , - o o o # # # # & # # # & # o o o # . o * , 1 0 q 0 r i r r i i M                                                                                                                   ",
"                                                                                                                                                                                                                                                                    A S A :. .A Z b p p p a i i Z Z b q w q r r q 0 0 0 1 1 < - * o o # # # # # # # # # & # # o # o . o * , < 1 0 0 q i i r i i m                                                                                                                   ",
"                                                                                                                                                                                                                                                                    A ' ;.s.1.' Z b p p p p p i Z Z b q w r r r q 0 0 0 1 < , - * # o # # 1 , , - - , , < < < < < , , - * , < 1 1 0 0 q r r q i b {                                                                                                                 ",
"                                                                                                                                                                                                                                                                    ] 2.d.d.d.=.N b b p b b p i Z Z b i q r r i r 0 0 0 0 < , - * # o # * A < 0 1 1 0 0 0 0 0 q q q q 0 & , , 1 1 1 0 q q r r i b ]                                                                                                                 ",
"                                                                                                                                                                                                                                                                    d.d.s.d.l.l.A p a p M b p i Z Z b i q q i r q 0 0 0 0 < , - - # # # 1 S < 0 1 1 0 0 0 0 0 0 q w w q & - < 1 1 0 0 0 q r r i b S                                                                                                                 ",
"                                                                                                                                                                                                                                                                    s.d.p.d.M.OXd.p b p Z M a r Z Z b q q r r r q 0 0 1 0 < , , - # o # r A < < 0 1 0 0 0 0 0 0 q q w i - , < 1 1 0 0 0 0 q r r p S                                                                                                                 ",
"                                                                                                                                                                                                                                                                    X.p.a.d.m.XX$X .p i Z M a r Z Z b r 0 0 0 q 0 0 0 1 1 < - - - o # , r Z < < 0 0 0 0 0 0 0 0 q w i i - - , < 1 1 0 0 0 0 q r p S                                                                                                                 ",
"                                                                                                                                                                                                                                                                     .;.p.d.l. X-Xj.p r Z m a r Z Z b r q q q q 0 0 0 < < , - - - o # 1 q Z 9 9 0 0 0 0 0 0 0 0 q q w i - - , , < 1 1 0 0 0 q r p A                                                                                                                 ",
"                                                                                                                                                                                                                                                                    A  .i.f.l.{.+Xm.v w M m b i Z Z b q 0 0 q 0 0 0 1 < , , - - - O 1 0 0 M 0 0 0 0 0 0 0 0 0 0 q q q i - * - , , < < 1 1 1 q q p A                                                                                                                 ",
"                                                                                                                                                                                                                                                                      A :.l.g.g.d.-.m r b b a p Z Z b q 0 0 0 0 < < < , - - * * - - r 0 1 b 0 1 1 1 1 1 1 1 < 0 0 q q q , & * - - , , , < 1 0 r p A                                                                                                                 ",
"                                                                                                                                                                                                                                                                      N =.l.2.-.[ Z v r m b p p Z Z b q 0 0 0 p q 1 1 < , - * * - * 0 1 1 p 0 1 1 1 1 1 1 < < 0 0 q q q < & & * - - , < 1 1 1 0 i Z                                                                                                                 ",
"                                                                                                                                                                                                                                                                        S *.' Z b A *.Z M a p p Z Z a q 0 0 q b 1 , - # # # # o o + - 1 1 r 0 1 1 1 < < < 1 1 0 0 0 q q - o # - , 1 1 , - < 1 0 r Z                                                                                                                 ",
"                                                                                                                                                                                                                                                                        N m a p q f.+Xi.Z b p i A Z a q q 0 q i 1 * o O O o O O . . # 1 , q 0 1 1 < < < < 1 < 9 9 9 0 q - . o - 1 r r 1 # , 1 0 i Z                                                                                                                 ",
"                                                                                                                                                                                                                                                                          a r q 1 =.{.{.>.b p i Z Z p q q 0 0 q 1 * # # # # # o . . # 1 , 1 q 1 < < < < < < 0 0 0 9 9 0 , o o - 1 q i 1 # , 0 0 r N                                                                                                                 ",
"                                                                                                                                                                                                                                                                            r r 1  .g.+XN.M p i Z Z a r q 0 0 0 1 - * & & & & o . . o < - < 0 < < < < < < 0 0 0 0 0 9 9 < # # - < i i 1 # , 1 0 r b                                                                                                                 ",
"                                                                                                                                                                                                                                                                                b [ >.N.}.*.i i Z Z p r 0 0 0 0 1 < = * * * & # O . o , - - 0 < < < < < < < < < 9 9 9 9 < # # - < q i q - - 1 0 r a                                                                                                                 ",
"                                                                                                                                                                                                                                                                                Z ] *.f.{.i.v i Z Z p q 0 0 0 q < < < = , = * & o . o - * - 0 1 < < < < < < < < < < < 0 < * & - < q p r - - < 1 0 p                                                                                                                 ",
"                                                                                                                                                                                                                                                                                A ] [ >.f.p.M p Z Z p q q 0 0 q 1 < < < < < , * # + . - # & 0 1 < < < , < < < < < < < q q * * , < q p i - - < 0 0 i                                                                                                                 ",
"                                                                                                                                                                                                                                                                                A ' ` *.-.i.` i m Z p i q q 0 0 1 9 9 9 9 9 < * # o o & # # 0 1 < < < < , , < < < < < q q - * , < q p i - - , 1 0 i                                                                                                                 ",
"                                                                                                                                                                                                                                                                                A ' ' ] [ ;...i m Z p i q q 0 0 1 0 q 0 0 0 0 < * # o # # # 1 0 < < < < < , , < < < < 0 q , , < < 0 i p , - , 1 0 r                                                                                                                 ",
"                                                                                                                                                                                                                                                                                A A A A ` =.:.p M Z p i 0 0 1 0 1 q q 0 0 q 0 < - # # # o o 1 M p p i i i q q q q q q q i 0 < < 1 1 r p , - , 1 0 r S                                                                                                               ",
"                                                                                                                                                                                                                                                                                S A A Z ` =.p.M M Z p i 0 0 0 1 1 q w 0 0 0 q < , * # # o o < ` Z m m b b b b b v p p p b p 9 9 1 1 r p < - , 1 0 r S                                                                                                               ",
"                                                                                                                                                                                                                                                                        &X>X[.`.o.Z Z M Z *.:.*.M Z p r < < 0 < - < q 0 q 0 q 9 < * # # o o , Z ' m m b b b b b b b b b b m q 9 0 0 q p i , - 1 0 r A                                                                                                               ",
"                                                                                                                                                                                                                                                                      ,X,X`.`.`.O.N Z b M  ... .M n a q , < < < < q q 0 0 9 0 9 < = * & o o - p A b b b b v p p p p p v p b w q 9 q w v b 1 - < 1 r S |                                                                                                             ",
"                                                                                                                                                                                                                                                                  ,X,X`.'.(.(./.+.N b b M [ ] ` Z H D 0 , , , - < q q 0 0 0 q 0 < = * * o o - r M p p p p p p i i p i i p b v w q q w p b r - < 1 r E Q | |                                                                                                         ",
"                                                                                                                                                                                                                                                                *X,X`.(.(.^.^.!.+.m a p b ] ] ` M n g 0 = - - - < q q q 0 q 0 0 < , = * o o - q b i i i i p i i i i i i p b v e w w w p M p - < r C T C R R R                                                                                                       ",
"                                                                                                                                                                                                                                                              &X`.(.^.^.!.W.E.R.+.m p i p ` ` ` M m a i 0 0 q 0 q w q q q 0 0 9 < < , - # o - q b i i i i i i i i i i i i v v w w w e v M Z a y } $.C S R C V V C                                                                                                   ",
"                                                                                                                                                                                                                                                              '.(.!.W.E.T.T.Y.J.+.Z p p S =.;...] ] M i i p p p e e w q q q 9 9 < < < , - o & q p i i i i q q q q w q q w i b p i i i p M Z N t C | C S C C S k k B                                                                                                 ",
"                                                                                                                                                                                                                                                              ).~.E.T.Y.J.J.u.9.| C M l.m.d.p.:.[ [ M r i p a p e e w q q q 0 0 < < < < - o & q p i q q r q 0 0 9 9 9 q q i v p i i i a m M N t k R V C S Y R C k a V                                                                                               ",
"                                                                                                                                                                                                                                                              ~.E.T.I.H.u.<.#.| | V A |.=X#X Xl.:.[ A q q p a i e e e w w q 0 0 < < < < * o # 0 p q 0 0 0 0 0 0 0 9 9 9 9 q p p p i i b M M b t t k y a V R B k V k k                                                                                               ",
"                                                                                                                                                                                                                                                              E.Y.u.r.4.4.%.#.| | R k ' d.:X=XOXm.p...v 0 i b p p w w p w q 0 9 < < < < - o # 0 i 0 1 0 0 < 1 0 0 0 9 9 9 0 i i i w i p M m a t 6 4 6 r a S C k a a y k                                                                                             ",
"                                                                                                                                                                                                                                                              u.r.4.4.%.%.#.#.| W | V r r ] p.j.m.c.2.] q i m p p w w i i q 0 9 < < < 9 * o # 0 r 1 < < < < < < < < , , < < r i i w w p M m Z { u 4 6 1 6 k k C m a a u k                                                                                           ",
"                                                                                                                                                                                                                                                          <.<.4.4.%.%.#.#.#.| | E E R k r 1 p '  .2.s.*.v p m p p i w i w q 0 9 < < < 9 * o # 1 0 , , , , , , , , , , , , < r i i w w p m m m A u 6 6 5 4 a k V h h a a u a                                                                                         ",
"                                                                                                                                                                                                                                                      <.<.4.4.%.%.%.%.%.#.#.| | } R R C k 0 < 1 i Z p.:.A p M b p w i w w q 0 9 < < < < & # # 1 1 - - - - - - - - - - - - , q w w q q w a m p a u 7 3 1 1 t t y a h h a a a k                                                                                       ",
"                                                                                                                                                                                                                                                    4.4.%.%.%.%.%.%.%.@.#.@.| | } R R R V r 0 i 1 q  .p.;.A M b p p p w q q 9 < < < < < * & # < - # # # # # o o # # o o o # 1 q q 9 0 q p b p y y y > > 1 t u t y h k h a a k u                                                                                     ",
"                                                                                                                                                                                                                                                    %.%.%.%.%.%.$.$.@.@.| | | } } } R R Y y 1 i 1 , b *.a.1.M b v v v w q 9 9 9 < , < < < - o - o . . . . . . . . . . . . . < 9 9 9 0 q v b i y y r > ; 1 r t 6 r u k a a a k k 5                                                                                   ",
"                                                                                                                                                                                                                                                    #.%.%.$.$.@.@.| | | | | } } } } R R R h 1 i , - 0 b Z M m b p v p w q 9 9 < < < < < , = # # . . . . . . . . . . . . . o 9 0 0 0 0 r v b i y y r 6 ; 1 1 6 r 5 5 r a y t y u k                                                                                   ",
"                                                                                                                                                                                                                                                  #.@.| | | | | | | @.| | | | } } } } R R Y N b - # , i b q m p p i p w q 9 9 < < < < , , = * # # # # # # # # # # # # # * , < 9 9 9 0 r p b r r y r 6 4 > 6 r 6 6 1 1 6 y y r y a f                                                                                 ",
"                                                                                                                                                                                                                                                  | | | | | | @.@.@.@.| | | | | } } R R R Y C i & o # 0 i 0 b p w w i q q 9 9 < < < < , , = = = = , , = , < < < < , , < < < 9 < 9 0 0 r p p r y f u u t > 1 6 6 6 6 6 6 r y a h h k k                                                                               ",
"                                                                                                                                                                                                                                                  | | | | @.#.#.#.#.| | | | } } } E R R Y Y C a - o o - 1 , v i q w i w w 9 < < < < < < < , < , = = = < < < < < < < < < < < < < 0 0 1 q p p i u f u t 6 > > 1 6 1 1 6 6 6 r u k k k k k                                                                             ",
"                                                                                                                                                                                                                                                | } | | #.#.#.#.#.#.| | | | | } } R R Y Y S C h 1 o o o o # p q q q w w q 9 1 < < < < < < < < < < < < < < < < < < < < < 9 < 9 < 1 0 1 q i p r y u y y t 6 > > 1 1 5 5 5 6 r u k V k k k k                                                                           ",
"                                                                                                                                                                                                                                                } W | #.%.#.#.#.#.#.| | | | } } R R Y Y S C C h > & - # & - q 0 9 q i q 9 9 1 < < < < < < < < < < < < < 9 9 9 9 9 9 9 9 9 9 9 9 0 0 0 q i b i y a a a u t 6 1 6 6 5 1 1 1 1 r a V V a u a k                                                                         ",
"                                                                                                                                                                                                                                                R R | %.%.#.#.@.@.@.| | | } } } R R Y Y Y C C k r 1 1 - & , 0 0 < 9 q 0 < 9 < < < < < < < < 9 9 < < < < 9 9 9 9 9 9 9 9 9 9 9 9 9 0 0 w i v i r h a a u y 6 1 > 1 6 1 1 1 1 5 y k k a y r y                                                                         ",
"                                                                                                                                                                                                                                  4.4.          R { %.%.#.#.@.| | | | } } } R R R R Y Y C C V V k a y , & - < < < 9 9 9 < < < < < < < < < < < 9 9 < < 9 9 9 9 9 9 9 9 9 9 9 9 q 9 0 q w w e q r u u u y u t 6 6 1 6 6 5 1 1 1 6 y a a y y 6 a                                                                       ",
"                                                                                                                                                                                                                              %.#.#.#.%.%.%.  R Y } %.| | | | | | | | | | } R R R Y Y S C C C C C V N i * * < 1 < < < 9 < < < < < < < < < 9 9 9 9 9 9 9 9 9 9 9 9 9 9 9 9 9 q q q q q q w q 9 r u u u u u t 6 6 1 6 r r 6 5 1 1 r y y y y r y a                                                                     ",
"                                                                                                                                                                                                                          @.| | | | | | | | | Y Y | | | | | | | | | | | } } R R Y Y Y R R R Y C C C V A 0 , , < , = , , < = , , < < < < < < < < < 9 9 < 9 9 9 9 9 9 9 9 9 9 9 q q 0 9 9 9 9 9 r k f u u f u 6 6 6 1 6 6 5 5 5 5 1 r y y r r y a                                                                     ",
"                                                                                                                                                                                                                      %.#.@.| | } } } } } W R C Y | | | | | } } } } } } } R R R R R R R E R R S C V V h 1 - * * * * = = = = = = = = = = , , = , , < < < < < , , , , < 9 9 9 9 9 9 9 9 < < 9 9 r k u y u u 6 6 6 6 6 5 6 5 5 5 5 5 6 r y y r y a u                                                                   ",
"                                                                                                                                                                                                                    #.#.#.| | | } W R R R R Y V R } | | | | } } R E } } } } } E E E } E E R R C C V k h y 1 # . . # & & & & & * & * & & * * * * * * * * * * * & & & & & & & & & & & & & & * < r u u u u u u t 6 6 6 6 6 5 5 5 5 1 1 5 r r y y y y a                                                                 ",
"                                                                                                                                                                                                                #.| | | | } | } } E R Y Y Y V V R } } } | } } R R R R { } } } } } | } E R R Y C V k k h a u 1 o . . . . . . O O O $ O O $ $ O O $ $ $ $ O O O O . . . . . . . . . . . . . $ 1 y u u f f u 6 6 5 5 6 6 6 6 5 5 5 1 > > 5 r r r r r y                                                                 ",
"                                                                                                                                                                                                            #.@.| | } } } W W R R R R Y C C k V Y R } } } } R R R E } } } | } | W E E R R C C V k k k a u u y 4 - o . . . . . . . . . . . . . . . . . . . . . . . . . . . . . . . . . o % 5 u u u u u 7 6 6 6 6 1 1 1 6 6 6 5 5 1 1 > 1 5 r r r r 6 a                                                               ",
"                                                                                                                                                                                                          #.@.| | | } } R R R R Y Y Y S C V k C Y R } E R R R R } E } } } | | } E E R Y C C C V k k k a a a y 6 1 : - 2 # o o . . . . . . . . . . . . . . . . . . . . . . . $ # - > 1 r u u u u y t t 6 6 4 4 > > > 1 1 6 6 6 1 5 1 1 > 1 6 r r 6 5 6 y                                                             ",
"                                                                                                                                                                                                      #.| | | | | } } } R R R Y Y C C C V z k C Y R } R R R R E } } } } } } } E R R R C C V V V k k h h a a u y 6 5 1 > > > > > > > > > > > : : : : - - - : : : : : : : 1 5 6 r y y y t r y u u u u u u t 6 1 > > > 1 5 1 1 1 1 1 1 1 1 1 5 r r q 5 6 r                                                             ",
"                                                                                                                                                                                                  | | | | | | } } } } R R R Y Y C C C V V k k C S Y R R R R R } } } } { E E R R R R R Y C V V V k k k h h a u u u y 6 1 > > > > > > > 1 1 1 1 1 > > 1 1 1 > > > > > > > > 1 1 6 6 y y y y t t y u u t 6 > > 1 1 1 5 1 1 5 1 > > : > 1 > > > 6 r r 5 r t t                                                           ",
"                                                                                                                                                                                              @.| | | } } } } } R R R R Y Y Y C C C V V k h k V C Y R R R R R E } R R R R R R R E E R U C C V V V k k k h h a a u u y 6 6 1 1 1 1 1 5 1 1 5 1 1 1 5 5 5 1 1 > > > > > > > > 1 1 5 6 r y y y t t 6 6 6 > > > > : 1 6 6 1 1 1 1 1 > : : > > : 1 6 r 6 6 7 1 r                                                         ",
"                                                                                                                                                                                            | | | } } } } } } R R R Y Y Y C C C V V V k k a k V C Y Y R R R R R R R R R R R R R E R R Y S C C C V V k k k k k k k h h a u y y r 6 6 6 6 6 5 5 5 6 6 6 6 5 5 1 1 > > > > > > 1 1 1 5 6 r y y y y t t 6 4 > > > 1 1 6 6 6 5 5 1 1 > > : , , > > 1 r r t u : >                                                         ",
"                                                                                                                                                                                        | | | } } } } } } } } R R Y Y Y C C C V V k k k h a k V C C Y Y R R R R R R R R R R R R E Y Y Y Y S C C C V V V V V k k k k k k k k k h u y 6 6 6 6 6 6 6 6 6 6 6 6 6 6 6 5 1 1 1 1 1 1 1 5 6 6 r r y y y t 6 4 4 6 6 6 1 1 6 6 5 5 1 1 1 > : : : : > 1 5 y f f - - r                                                       ",
"                                                                                                                                                                                    | | | } } } } } } } } } } R R Y Y C C C V V k k k h a a h V C C C Y Y Y R R R R R Y R Y R R R Y R Y R Y Y S C C C C C C C V V V V V V V V V k u y r r r r r r r r r 6 6 6 r r r 6 6 5 5 5 5 5 6 6 6 6 6 r y y 6 6 6 6 r y u t 6 6 6 5 5 1 1 1 1 > > > : : > 1 6 y u > - :                                                       ",
"                                                                                                                                                                                  | | | } } } } } } } E W E R R R Y Y Y C C V V k k k h u a h N V V C Y Y R R R R R R Y Y Y R R R R R R R Y Y Y Y Y Y U U C C C C C C C C C C C V h y y y y y y y y y y y r r r r r y r 6 6 6 6 6 6 6 6 r r r r y t 6 6 6 y u a k f t r 5 6 1 1 1 1 > > > : : : > 1 6 u 4 , :                                                       ",
"                                                                                                                                                                              | | | } } } } } } W W } E E R R R R Y Y Y S C V N k k h a u u h k V V Y Y R R R R R R R R Y R R E R R R R R Y Y Y Y Y R Y Y Y Y S Y Y Y Y Y Y Y Y C V h u u y u u y t y y y y y y y y y y y y r r r r r r r r r r y t 6 4 6 y u k k l k r 4 6 6 1 1 1 1 > > > : - : 1 5 t 6 : > 1                                                     ",
"                                                                                                                                                                          | | | } } } } } } } } } } } E E R R R Y Y C C C C V N k h h h y u h k V C Y Y R R R R R R R R R R R R Y R R R Y Y Y Y Y R R Y Y Y Y Y R R R R R Y Y Y Y C V k u u u u y u u y u u u u u u u y u y u y y r r r r r r y t 7 6 6 y a h k l k a a t t 1 1 1 > 1 1 1 1 1 : , : 1 1 t > : 1                                                     ",
"                                                                                                                                                                        | } } } } } } } } } } } } } } } W R R R Y Y C C C C V N k h h a y u h k V C S Y R R R Y Y Y R E E R Y Y R R R Y Y R R R R Y Y Y R R R R R R R R R R R R R R R C V k u u u u u u u u u u u u u u u u u u u y y r y y t u t 6 6 y a h k k k u k k k u u 4 6 1 > 1 1 1 1 > : : > > 6 1 > :                                                     ",
"                                                                                                                                                                        } } } } } } } } } } } } } } } } } R R R Y Y C C C V V k k h h a y u h k V C S R R R R Y Y Y E E R Y Y Y R Y R Y R R R R Y Y Y R R R R R R R R R R R R R R R R R C k h u u u u u u u u u u u a a a a u u u u y t t u f u 7 6 r y u h k k u a k k k k f u t r 1 1 1 1 1 > : > > > > 6 > >                                                     ",
"                                                                                                                                                                      } } } } } } W } } } } } } } } } } } } R R R Y C C C V V k k h h u y u a k V C Y R R R Y Y Y R E R R Y Y Y Y Y Y Y R R R R Y Y Y R R R R R R R R R R R R R R R R R U C k k a a u a u u u u a a a a a a a u u u u u u k f u t r t u a a f f u f k k k k k f u u 6 6 5 5 1 1 > > 1 1 > 1 1 > 1                                                   ",
"                                                                                                                                                                    } } } } } } } } } } } } } } E } } } } } } R R Y Y C C V V k k h a u y u h k V C Y Y Y Y Y Y R E R R Y Y Y Y Y R R R R R R Y Y Y R R R R R R R R R Y Y Y Y Y R R R R R Y C C k h a u u u y u u a a a a a u u u u u u k k f u t y u a a k k c f f f f k k k k f f u 6 1 6 6 6 1 > 1 1 1 > 1 4 >                                                   ",
"                                                                                                                                                                  W } } } } } } } } } } } } } E } } } } } R R R R Y Y C C V V k k h a u y u a k V C Y Y Y Y Y R R R R R Y R R Y Y R R R R R R Y Y R R R R R R R R R Y Y Y Y Y Y Y Y R R R R R R S V k h u u u u u u a a u u u u u u y u k k f u y u u a k k k k f f a k f k c k k f f u 6 6 6 6 4 > > > > > 1 6 1                                                   ",
"                                                                                                                                                                } } } } } } } } } } } } R E } E E E E } E R R R R Y Y S C C V N k h a u y y a k V C S Y Y Y Y R R R R R Y R Y U Y R R R R R Y Y Y R R R R R R Y Y Y Y Y Y Y Y Y Y Y Y Y R R E E E R S C V k h a a a a a a u u u u u u u k k f y y u a a k k k f k f f k f f k u a a k k f t 6 1 1 1 > > > > > 6 6 6                                                 ",
"                                                                                                                                                              } } } } } } } } W } } R R } W R R R R R R R R R R Y Y C C C V V N k h h u u y u k V C C C Y Y R R R R R Y Y Y S Y R R R R R R Y Y R R R R R R Y Y Y Y Y Y Y Y Y Y Y Y Y Y Y Y R R R R R Y Y Y Y C V k h h h h a u u a u a k k f u u u u k k k k k k k f a u f k k u u u a k k u 7 6 6 1 > > > > 1 6 6                                                 ",
"                                                                                                                                                            } } } } } R R R } } } R R R R } R R } } R R R R R Y Y C C C C C V k h h h u y y a k V C C C R R R R E R Y Y Y Y Y Y R E R R R Y Y R R R R R R Y Y Y Y Y Y Y Y R R R R R Y Y Y Y Y Y Y Y Y Y Y Y R R R Y C V k h a u u a u k k k f y y u u k k k f k k f a a a k f k k f u u a f k f u t 1 1 > > > > 6 4                                                 ",
"                                                                                                                                                            } } } R R R R E } } R R R R R R R } } E R R R R R Y Y U C C C V V k h h h u u y a N V V C C R R R R R R Y Y Y Y Y Y R R R R Y Y R R R R R R R Y Y Y Y Y Y R R R R R R R R R R Y Y Y Y Y S S Y R R Y Y Y Y Y C V k a u a u f k s u y y u u a k k k k k k u a a f k k k k f u u a k k f u 6 1 1 > 1 1 4 6 6                                               ",
"                                                                                                                                                          } { R R R R R R R R R R R R R R R } } } } R R R R R Y Y U S C C V k k h h h a u u h V V V C C R R R R R Y Y Y Y Y Y Y R R R Y Y Y R R R R Y Y Y Y Y Y Y Y Y R R R Y Y Y R R R R Y Y Y Y Y R R R R R Y Y Y Y Y Y Y C V k a u f k f u u a k k k k a u f f k c u a k k k k k f u u a f k f f t 6 1 > 1 6 4 4 1                                               ",
"                                                                                                                                                        { R R R R R R R R R R R R R R R } } } } W } R { R R R Y Y C C C V V V k k h h a u u h k k V V C T L R R Y Y Y Y Y Y Y Y R R R Y Y Y R R Y Y Y Y Y Y Y Y R Y Y Y Y Y Y Y Y Y Y Y Y Y Y Y Y R R E E E R R Y Y Y Y Y C C C V k k k k f u u a k k k k k u u u f k f u u f f k k f u u u f k k k u r 1 > 1 6 4 6 1                                               ",
"                                                                                                                                                      R R R R R R R R R R R R R R R E } } } } R W E R R R R Y Y Y C C C V V k k h h h u y y h k N V C Y Y Y U Y Y Y Y S U Y S L R R Y Y Y Y R Y Y Y Y Y Y U Y R Y Y Y Y Y Y Y Y Y Y Y Y Y Y Y Y R R R R E R R Y U Y Y Y Y C C C C C V V l f u a h N k k k k u u u u k k f f u k f k k u u f f f k k k t 6 1 > 6 6 6 6 1                                             ",
"                                                                                                                                                    R R R R R R R R R R R R R R R R E } } } R R R R R R R R R Y Y C C C V V k k h h a u y y u k k V C S S C Y Y Y Y U Y Y Y R R R Y Y Y Y Y Y Y Y Y Y Y Y Y Y Y Y Y Y Y S S Y Y Y Y Y Y Y Y Y R R Y Y Y R Y Y Y Y Y Y C C C C C C C C T K k f u a N V k k k f u h a u k f f f u f f k f f f k k f f k f 6 6 1 6 6 6 6 1                                             ",
"                                                                                                                                                  R R R R R R R R R R R R R R R E } R R } E R R R R R R R R Y Y Y C C C V V N k k h h u u y y h k V C C C Y Y Y Y Y R R R R R R Y Y Y Y Y Y Y Y Y Y Y Y Y Y Y S Y Y Y Y S S S Y Y Y Y R R R R R R R R Y Y Y Y Y Y Y Y S C C C Y Y U C R T K V k N C C V k k k k f u h u c k f f f u u k f f k f f f k k u 6 6 6 6 1 6 1                                             ",
"                                                                                                                                                  R R R R R R R R R R R R R R R { R R R R R R R R R R Y R R Y Y Y C C C V V N k k h h u y y y a k V V C C Y Y Y Y U U R R R R R S S Y Y Y Y Y Y Y U U U Y Y Y Y Y Y Y C C C S Y Y Y R R R R R R R R R R R R R R R R R R Y Y S S Y Y U R T R K C C Y { S k k k a f f u u f f k f u f u f f f k f u f f k f t 1 1 6 4 > 6 1                                           ",
"                                                                                                                                                R R R R R W R R R R R R R R R R R R R Y R R R R R R R R Y Y Y Y S C C V V V V N k k h a y y r u k V C C Y Y Y S R Y C Y R R Y Y S C Y Y Y S S Y S C C C Y Y Y Y Y U C C C Y Y Y Y Y R R E E R R R R R R R R R R R R } R R R R R R R T R E T R T S Y { } C k k k a f a u f f k f u u u u k k f k u f f f f u 6 1 6 4 > 4 6 r                                         ",
"                                                                                                                                                R R R R } R R R R R R R R R R R R R Y Y Y Y Y Y Y Y R Y Y Y Y Y S C C V V V V N k h h a u y y y k V C C Y R R Y R S Y R R Y Y Y C S Y Y Y S S C S Y C C Y Y Y Y Y Y Y S Y Y Y Y Y R R R } } } } R E W W E E } E R R R R R R E R E E R R E E E R R Y } | } C k f k k k a u u k k f u u u u f f k f f f f u f u 6 1 4 1 1 6 1                                         ",
"                                                                                                                                              R R R R R R R R R R R R R R R R R Y Y Y Y Y Y Y Y Y Y Y Y Y S C C C C V V V V V k k h h h u y y r h V C S R R Y Y C C S Y R S C C C S Y Y Y C C C S S S Y Y U Y Y Y Y Y Y Y Y Y Y Y R R R } E R R R } } } } W } } R R R E R E E E E Q E R E Q Q E R R } | | } R k k k k j u a k k k f u u u u u f k k u u f u u u 6 1 4 1 6 4 4                                       ",
"                                                                                                                                              R R R R R R R R R R R R R R R Y R Y Y Y Y Y Y Y Y Y Y Y Y Y Y C C C C V V V k k k k h h h a u y r a V C Y R Y Y Y C C Y S S C C C C Y S C C C C C S S S Y Y S S Y Y Y Y Y Y Y Y Y Y R R R R R R R R } } | | } } } E R R E E E | | | | Q Q Q Q Q Q E E E } | | E L k k k k u a a k k f f f u u u f f k u u u u u u 6 1 1 > 6 6 6                                       ",
"                                                                                                                                            R R R R R R R R } } E E R R R R Y Y Y Y Y Y Y Y Y Y Y Y Y Y Y Y Y S Y C V V V k k h h h h a u u u y y V C S R Y Y Y Y Y S Y C C C S S C C C C S C C U S S Y Y S S Y Y Y Y Y Y Y Y Y R R R R R R R R R R } } | } } } } } E E E E Q | | | | Q Q Q O.O.Q E R } | | | E K k a k k f f u u f f u f u u u f k k f f u u u t 4 1 > 6 6 1 t                                     ",
"                                                                                                                                            R R R R { E E E } } E E R R R Y Y Y Y Y Y Y Y Y Y Y Y Y Y Y Y Y Y Y Y C C V k k k h h h a a u y y y r k C S S Y C C C S S C C C C S C C C C C S C C C C S Y S S S Y Y Y Y Y R Y Y Y R R R R R R R R R R R } | | } } } } | W E W | | | O.| | O.O.O.O.O.| E E } | | } T K k k k k f u f u f f f k a u u f k f f f f u u 7 4 1 > 4 1 4                                     ",
"                                                                                                                                            E E R R E E E W } } E R R R R R R R R R R R Y Y Y Y Y Y Y Y Y Y Y Y Y C C V N k k k h a a u y y y y r a C C C S C C C C C C C C S S C C C C C C C C C C S C U S Y R R R R R R R R R R Y Y Y R R R Y Y Y Y R } } | | } } | | | | | | | O.O.O.$.$.O.O.O.O.Q E } | | } Q T T k k k k u f f u f c c k f u u f f f u u u u u 7 1 > > 1 > t                                   ",
"                                                                                                                                          E E E R R E E } E R R E R R R Y Y R R R R R Y Y Y Y Y Y Y Y Y Y Y Y Y Y C C C V k k k h a u u y y y y r y V C C L C C C C C C S C S C C C C C C C C C C C C C Y Y R R R R R R R R R R R Y Y Y Y Y Y Y Y Y Y R R } | | | } | | | | | @.$.O.O.$.$.$.O.O.O.O.| R E } | | | O.R U k k k k u f f f f f f a f u u u f u u u u u u 6 > 1 1 > 6                                   ",
"                                                                                                                                          E R R R R R R R R R R R R R Y Y R R R R R Y Y Y Y Y Y Y Y Y Y Y Y C Y Y C V V V V k k k a u y y y y y y r k V C C C C C C C Y S C C C C C C C C C C C C C S Y Y Y R R R R R E R R R R R R Y Y Y Y Y Y Y Y Y Y R E } | | | | | | | | @.$.O.O.O.O.$.$.$.$.O.| E R } | | } | E R K l k k k u f f u f f f u u u u f u u u u u u t 1 1 1 1 7                                   ",
"                                                                                                                                        R R R R R R R R R R R R R R R R R R R R R Y Y Y Y Y Y Y Y Y Y Y Y Y C Y Y C C V V V k k k a u y y y y y t r k V V B B C C C S Y C C C C C C C C C C S S C U Y Y Y Y R R R R R E R R R R R Y Y Y S S C C S S Y R R Y Y R R R E E | | | | | O.O.O.O.O.O.O.O.O.O.| E } } | | | O.E R R V k k k u u u u f u f u u u f u u u u u u t 6 6 1 6 t                                   ",
"                                                                                                                                        R R R R { R R R R R R R R R R R R R R R R Y Y Y Y Y Y Y Y Y Y Y Y Y Y Y Y S C C V V k k h a u y y y r t t r k k V V V C C C S C C C C C C C C C C C C C S Y Y Y Y R R R E E E R R R R Y Y Y Y Y S C C C S R R R R R R R R { { { } } } } | | | | | | O.O.| | O.O.| } } | | | | Q R R T V k k f u u u u f u u u f f 6 t u u u u u 4 6 1 6 7                                   ",
"                                                                                                                                        } } { R R R R { R R R R R R R R R Y Y R Y Y Y Y Y Y Y Y Y Y Y Y Y Y Y Y Y C C C V V N k h h a y y r r y y r h k V V V C C C C C C C C C C C C C C C C Y Y Y Y R R R R E E E E R R Y Y Y Y R Y S C C Y Y R { { R R R R R { } } | | | | | | | | | | | | | } E E R R E E } | | Q O.E R E K x k f f f f f f f u u u t 1 6 6 t u u u 6 r 1 1 7 u                                 ",
"                                                                                                                                      E } } } { { R R R R R R R R R R R R Y Y Y Y Y Y Y Y Y Y S Y Y S S S S Y C C C C C C V k k h h a y y r y y y y h k V V V C C C C C C C C C C C C C C Y Y Y R R R R R R E E E E R R Y Y Y Y Y S C C Y R { } } } { W W R R R R R } } | | | | } | | X.X.X.X.| | | | } } { { { { } } | | E E E R V k k f f f f u y u u 6 1 u 7 t u u u t 6 1 1 6 u                                 ",
"                                                                                                                                      R R E } { R R R R R R R R R R R Y Y Y Y Y Y Y Y Y Y Y Y Y Y S C C C C C C C C C C C V V k h h a u y r r y y y h k V V C C C C C C C V C C C C C C C Y Y Y Y R R R R R R E E R R R R Y Y C C C Y R } } | | } { { W R R R R R R R { { { } } } | | | X.#.#.#.X.| | | | | } } } { R E | Q R | E L C k k f u u f u u f 6 6 f 6 6 u u u t 6 1 1 6 t                                 ",
"                                                                                                                                    R R R R R R R R R R R R R R R R Y Y Y Y Y Y Y Y Y Y Y Y Y Y Y Y Y C C C C C C C C C C C V k h h h u y y y y y y a h k V V C C C C C V V V C C C C S S Y Y Y Y R R R R R R R R R R R R R C C Y Y } } } | } { R R R R R R R R R R R R R R R R R { } } } | | | | | } } } } } } } } } } E R R W Q E R K B k f u u u u f 4 6 f 1 > 7 u u u r 1 1 6 t                                 ",
"                                                                                                                                    R R Y R R R R R R R R R R R Y R R R R R R Y Y S Y Y Y Y Y Y Y Y Y U C C C C C C C C C C V N k h h u y y y y y y u h k V V C C C C C V V V C C C S Y Y Y Y Y R R R R R R R R R R R R R R Y Y { } } } } { R R R Y Y Y U Y Y Y Y Y Y R Y Y Y Y Y Y Y Y R R R { } } } R R R R } } } } } } } R E | E E R R V k f u u u u 6 > 6 > 1 6 u u u t 1 1 4 6                                 ",
"                                                                                                                                  R R R R R R R R R R R R Y Y Y R R R R R R R Y Y Y Y U Y Y Y Y C S C U S S C C C C C C C C V N k k h a y y r r a a y a k k V C C C C C V V C C C S S Y Y Y Y Y R R R R R R R Y Y Y U C Y R R { } } } { R R Y Y Y R Y U C U Y Y U U U U Y U C S Y Y Y Y Y Y Y Y Y Y Y Y Y Y R R R { } } { } } } Q E E E E R C k k u u a y 1 1 6 4 4 t u u u 4 4 1 6                                 ",
"                                                                                                                                R R R R R R R R R R R R Y Y Y R R R R R R R R Y Y Y Y S C C C C C U C U S C C C C C C C C C V N k k h u y y r r y a t u h k V V V V C C C V C C C C S C C C Y Y R R R R R R Y Y S C C R R R { { { R Y Y Y Y Y Y R Y Y C C C C U C C C C C C C C U U Y Y U C C C C Y Y Y Y Y R R R Y Y R R R } } } E E E Q E R C k k f u u 6 > 6 4 1 6 u u u 6 6 1 6                                 ",
"                                                                                                                                R R R R R R R R R R R R Y Y R R R R R R R R Y Y Y Y Y S C C C C U C S S Y Y C C C C C C C C V V k k h a y y r r r y y u h k V V V V V C C C C C C C C C C C C Y Y R R Y Y Y S C C Y R R { R { R R Y Y U C U Y Y Y Y C C U U U U C C C C C C C C U U C C C C U U C C C C Y R R R R Y Y Y Y R R } } E E E Q E E R C k k k f u > 4 6 > > u u u t 6 1 4                                 ",
"                                                                                                                                R R R R R R R R R R R Y Y R R R R R R R R Y Y Y Y Y S C C C C C C C C C S S C C C C C C C C V V k k h u y y r r r r y u h k V V V V V C C C C C C C C C C C C C C C C C V V C Y Y R R R R R Y R Y Y S C C C U U C C C C C C C C C C C C C C C C U C C C C C C C C C C C C R R R R R S C C S Y R { { R E E | E E R V k k f f t 1 6 > > 6 f f u 6 1 1                                 ",
"                                                                                                                              R R R R R R R Y Y R R R Y Y R R R R R R R R Y C C C C C C C C C C C C C C C C C C C C C C C C V V V k h u y y y r r r y u h k k V V N V V C C C C C C C C C C V V C V V V V S Y Y Y R R Y Y Y Y Y Y S C C C C U C C C V V C C C C C C C C V V C C C C C C C C C C C C T T T T T R R R R R Y C S Y Y { { } E E E E R K l k k f f t 1 6 1 > u u u 6 > 1                                 ",
"                                                                                                                              R R Y R R R R Y Y R R R R R R R R R R R R Y C C C C C C C C C C C C C C C C C C C C C C C C V V V N k h a y y r 6 6 6 r u h h k N N V V V V C C C C C C C C C V V V V V C U Y Y Y Y Y Y Y S S Y Y S C C C C C C C V V V V V V V V C C C C V V V C C C C C C C U U Y R R R R R R R R R E E R C C S Y Y R { { E R E R R B k k k f f t 4 6 > t f u 7 1 1                                 ",
"                                                                                                                            R R R R Y R R R R R R R R R R R R R R R R Y C C C C C C C C C C C C C C C C C C C C C C C C C V V V k h h u y y 6 6 5 5 r y a h k N N V V V V C C C S C C C C C V V N V C Y Y Y Y R R R Y Y S S S S C C C C C C C C C C C V V V V V V C C C C V V V C C C C C C C C C C R R R R R R R R R R R C V C C S Y R { R R R R R K V k k k f f 7 4 > 6 u u t 4 1                                 ",
"                                                                                                                          R R R R R R R R R R R R R R R Y Y Y R R R Y C V V C V C C C C V C V V C C C C C C C C C C C C C V V V k h a u y r 6 5 1 1 r y a h k N N V V C C C C C S S C C C V V V k V Y Y R R R R R R Y C C S U Y C C C C C C C C C C V z V V V z z V V V V V V V C V C C C C C C C C C C T R R R T K C C C C C V V C C Y Y R R R T R L C l k k k f u 6 > 1 u u u 6 4                                 ",
"                                                                                                                          R R R R R R R R R R R R R R Y Y Y Y R R Y C V V V V V V V V V V V V V V V C C V V C C C C V C C V V k k a a y r 6 6 1 > 1 r y u h k N N V C C C C C C C S C C C V V V V Y R R R R R R R R S C C C U U C C C C C C C C V V V z z V V V V z V V V V V V V V V V V C C C C C C C C C C B V V V V V C C C C V C C Y Y Y Y Y C C B V k k k k u t 1 > r u u t 4                                 ",
"                                                                                                                          R R R R R R R R R R R Y Y Y Y Y Y Y Y Y U C V N V V V V V V V V V V V V V V V V V V C C C V C C V V k k a u y r 6 5 1 > > 6 y u a h N V V C C C C C C C C C C C V V V V R R R R R R R R R Y C C C U U C C C C C C C C V V V z V V V V z k V V V V V V V V V V V C C C C C C C V V V V V V V V V V C C C C V C C C Y Y Y S V V B k k k k k u 4 > 1 u u t 6                                 ",
"                                                                                                                        E } R R R R R R R R R R R Y Y Y Y Y Y Y Y C V N k k k k k V V V V V N k k k N V V V V V V V V V V V k k k a u y r 6 5 1 > > 6 y y a h k N V C C C C C C C C C C V V V k C E R R R R R R R Y C C C C U Y Y C C V V C C V V V V V V V z k k k k N N V N V V V V V V V C C C C C C C V V V V V V V V V V C C V V V V C C S Y Y S V k k f f f k k 6 1 > t u u 7                                 ",
"                                                                                                                        } } } } } } } } } W R E E R R R R R R R Y C C C V V k k k k k k k N V k k k k k V V V V V V V V V V k k a u y r 6 6 1 > > > 6 r y u h k k V C C C C C C C C C V V V k V R E Y R R R R R Y C C C C C Y Y Y C V V V C C V V V V V V k k k k k k k k k k k V V V V V V V V C C C C C C V V V V V V V V V V V C V V V V V C C Y Y Y C k k u f f k u 6 > 6 u u t                                 ",
"                                                                                                                      } } } } } } } } } } W W } } } R R R R R R E E R R C C C C k k k k k k N k k k k k k k V V V V V V z k k a u y y r 6 1 1 > > > 6 r y u a h k V C C C C C C C C C V V k k C R R S R R R R C C C C C C C C Y S C C C C C V N N k z z k k k k k k V N N N k k V V V V V V V V V C C C V V V V V V z V V V V V k V C V k V N V C C S Y Y S V k u u u f 6 1 > u u t                                 ",
"                                                                                                                      } } } } } } } } } } W W W } W R R R E | | | | E R U C C C V V V k h k k k h h h k k k N N k k V V k k h h y y r 6 5 1 > > : > 6 r y u a h h N V C C C C C C C V V l k k C R Y R R T R K C C C U S C C C C C C C V C C V N k k z k k k V N V V V V V V V V V z V V V V V V V V V V V V V V V V k V V V V V k k V V V N k V C C C S Y Y Y V f u u u 6 1 > t u u                                 ",
"                                                                                                                      } | } } } } } } } W E W W E E E } | | | | | E R R C C C C C C C V k a u u a h h h h h k k k k k k k k k h y r 6 6 1 1 > > : > 6 r y y a h h k V C C C C C C C V V k k C C U R R R R R C C C C C C C C C C C C V V C V V V V V V V V V V V V V V V V V V k V V V B B V V V V V V V V V V V k z k k V V k k k k V V V V V V V V C C C Y Y Y V u u u u 4 > 4 u u                                 ",
"                                                                                                                    } | | } } } } W } } W W } } } } | | | | | E R R R Y C C C C C C C C V k k a u a k k k k k k k k k k k k k u y 6 5 1 1 > > : : > 6 6 r y a h h k V C C C C C C V V V k V C S C S R K R T T C C C C C C C C V V V V V C C V V C V V V V V V V V V V V V V V k k k V B V V V V V V V V V V V V V V k k k k k k k k k V V V V V V V V V C C S Y Y V f u u 6 1 > u f                                 ",
"                                                                                                                    } | } } } } W } | | | } } } } | | | } | } E R Y Y Y R R R R K C C C V V z k k k k k l l l k k k k k k k k u y 6 6 1 > > : : : : 6 6 r y u h h h k V C C C C V V V V k V C Y C C R R R T T C C V C C V V V V V V V V C C C C C V V V V V V V k k V V V V V V k k V V B V V V V V B B B B V V V k k k k k k k k k k V V V V V V V V V V C C S Y S V f u u 1 > t k                                 ",
"                                                                                                                  | | | } } } | | @.| | | | | | | | E E R R R Y Y Y C C Y R R R T T C C V V V V V V k k k l V V l k k k k k k u y 6 5 1 > > > : : : 6 6 r t u h h h N V C C C C V V V B k V C C U C L C K T C C C C C C V V V V V V V V V C C C V V V V k k k k V V V V V V V V V V V V V V B B V V B l B V k V V k k V k k V k k k k k k z V V V V V V V V V C C S S C f f 6 1 5 k                                 ",
"                                                                                                                  | | | | | | | #.| | @.| | | | | E R Y Y Y Y Y U C C C C T R R R R C C C C V V V V V x B V B B V k k k k k k f t r 6 5 > > > : : > 1 6 r y y a h k k V V B C V V V V l k C C C C C C C S C C C C C V V V V V V V V V V V V V C V V V V k k k k V V V V B V V V V V C C K C B B V B B k k k k k k k k k k k k l k k k k k k k k k k V V V l V V V V C C C k y 6 > y                                 ",
"                                                                                                                  | | | | %.%.| | | %.| | | | E R R Y Y R Y Y Y C C C C T R R R R R C C C C C V V C V V V V V V V V V k k k l k f t y 6 1 > > : : > 1 6 6 r y u h k k V V C C C V V V k V C K C C C C C C C C C C V V V V V V V V V V V V V V V V V k k k k k k k k k V B B V V V V V C C C C C C V k k k k k k k k k k k k k k k k k k k k k k k k k V C V l V V V V C C C k 6 > 6                                 ",
"                                                                                                                | | | | | %.$.| O.O.| | | | E E R R Y Y R Y U U C C C C K R R R R R Y C K R C C C C V V V V V V B V C C V k k k f u t 6 1 1 > : > > 1 6 6 r y u a k k k V C C C V V V V C C R S C C C K S C C C V V V V V V k V V V V V V V k k k k k k k k k h k k k V k k k k x l x V V V V V V k k k k k k k k k k k k k k k k k k k k k k k k k k V V V V V V k k V C C C y 1 >                                 ",
"                                                                                                                | | | | | | | | | | | | | E E E E R R R R U C U C V V V C T C C C C C C L R R C C C C C B V V V V V B B V k f u u u t r 6 6 1 > > > 1 1 6 6 r y u a k k V B C C V V k V C R R R C V C K S C C C C C V V V V V V V V V V V k k k k k k k k k k h h k k V V k k k k k k V V V x x l k k k k k k k k k k k k k k k k k k k k k k k k k k k V V B B V k k k k V C V 6 > a                               ",
"                                                                                                              | | | | Q E Q | | | | R R E E E R E R R U C C C C C V C C C C C C C C C C C S L K C C C C C C C V V V V V V V k a u u y t 6 6 6 > > > 1 1 1 6 6 r y a a k k V C C V k k C C L R T C V C K S C C C C C C V V V V V B B B V V k k k k k k k k k k h h h h k k k k k k k k k k k k k k k k k k k k k k k k k k k k k k k k k k k k k k k k k l B B k k k k k k k k V t 1 r                               ",
"                                                                                                              | | | Q Q | Q Q | | Q R R E E R Y C C C C C C C C V V C C C C C C C C U R R R R K R T C C L C C C C C C V V V k k u u u u u 6 4 6 3 > > 1 1 6 6 r r y u a k k V V k k V C C C C K C C C C C C C C C C V V V C C V V V V V k k k k k k k k k k h j h h h h k k k k B V k k k k k k k k k k k k k k k f k k k k k k k k k k k k k k k k k V k V V k k k k k k k k k k 6 >                               ",
"                                                                                                              | | W E E Q Q Q E E E R E E R R Y C C C C C C R R C R T C C B C C C V C C R R C C C C T C C C C C C C C C C V k k k a h k k k t 6 4 > > 1 1 5 6 6 r r y y u h k B k V V C C C C C C C C C C C C C C C V V C C V V C C C V k V k k k V k k k k k h h h h h h h h a h k k k k k k k k h h a a a a a h a a k h k a a a a a k k k k k k k k V k k B k k k k k k h h k k h 1 a                             ",
"                                                                                                            | | } R R R R R E R Y Y R R Y Y C V V C C C C C S K C T T C C C C C B V C K R R C C C K T T R T K C B C C C V V V k k k k k k f k f 6 4 > 1 1 1 5 6 6 r r y u u k k k V V C C C C C C C C C C C L C C V V B V V V V V V C C V k k k k V V B k k k k h k k h h a u u u u h a h k k k k k a a u u u u u u u u u a u u u u u a h a k k k k k k k k k k k k k k k k h h k V r 1                             ",
"                                                                                                            | | E R R R T R R C C S R R C C C C C C C C C C C C K R R R R C C C C V C C R R C C C K T K T R R R C B V B V V V V k k k k k k f u u 7 4 > 1 1 1 1 5 6 6 r y t a k V C C C C C V V C B C T B V C C V V B V B B k k V V V V V B k k k k l B l k k k k k k k a a a a u u u u u u a f k k k a u u u u a u u y y u u y u u u u h a u k k k k k k k k k k k k k k k k a a k k > a                           ",
"                                                                                                            | | W E R R R R Y C Y Y R R C C C C C C C C C C B C C T T R R C C C C V V C C K C C C K R R R R R R K C V V V z k k k k k k k k k f u t 7 6 1 1 1 1 1 5 6 6 6 r u k V C C C C V V V C C C T V V V V V V V B B l k k k k k k l l k k k k k k k k k k k k k f a a a a u u u u u u u u a f a u u u u a k a u y t t y y y y u u u a u a k k k k k k k k k k k k k k k h a a N 6 6                           ",
"                                                                                                          | | | E E R R R R R R K R R R C C C C C C C C C C C C T R R T C B V B V B C C C C C K C C C R R K C T T C V V V V k k k k k k l x k k k u u u u r 1 1 1 1 1 1 5 6 y k k V C V V V C C C C C C V B B B V V V V x k k k k k k k k k k k k k k k k k k k k k k k a a u u u u a a a u u u u u u u u u u u u u u u t t t y y y y y y u u u k k k k k h u a a k V k k h k k h a h h 1                           ",
"                                                                                                          } E E E E R R R R R T C C T C C C C C V B C C C C C K K K T C B V V V V C C V C C C C C B V B B B B C C V V V V V V k k k k k k k k k k k a u u t 6 1 > > > > 1 5 u k V V V V V C C C C C C C V V B V V l k k k k k k k k k k k k k k k k k k k k k k k k a u u u a a u u u u u u u u u u u u u u u u u u u t t t t t t t t t t y u u u k k k k k u u a k k l k k u u k k a k r 5                         ",
"                                                                                                        | R R R E R R R R C C C C R R C B C C C V C C V C C C C K C C V V V V V C C B V V V C C C V V V C C C C C V V V V V V V k k k k k k k k k k k k f u 6 6 > : : : : 1 a V V V V V V C C V V C C B V B l V V k k k k k k k k k k k k k k k k f c f u f k k f u u t y u u u u u u u u u u u u u u u u u y u y t t t t t t y t t t t t t y y u u f k k k f a a f k k k k h u u k a h k 6                         ",
"                                                                                                        } R E E E R R R R R C V K R C V V C C C B C C C C K C K C C B V C C C C C C C V V V V V V x V C C K K C C V V V V k V k k k k k k k k k k k k k k u y r 6 4 : : , 1 k V V V V V B C C C V V C C V k k V V k k k k k k k k k k k k k k k f u u u u u u u u t t y y y y t y t y y y u u u u u u t u t t t t t t t t t y r r r r t t t t y y u u f u u k k f a f k k k k u u u a u h y                         ",
"                                                                                                      | R R E E R E E R R R C C R R C C C C L K C C B B C K K K T C C B B C C C K K C B V V V k k k k x C T K C C B V V V V V V k k k k k x V k k k k k f u u y y 6 > : , 6 k V V V k V V C C C l l B C V k k k k k k k k k k k k k k k k c k k f f k f u u u u y y y y t t t t t t t t t t y y y y u t t t t t t t r r r 6 6 6 6 6 6 6 r 6 r t t y u u u u u f f f a a f k k u u u u u u h r                       ",
"                                                                                                    | { Y R E R R T C C R T K R T C B V V V C V V V x V C C K K K T C C B B B B C K T K B x l l l l V V C C C V C V B k k k V C V k k k k k l l l k k f u u u u u 6 1 : : y k V V V k V V V V C l k V C V x k k k k k k k k k k k k k k k f k k f u f f u u y t t y t t t t t t r r t t t t t t t t t t t y t r r r r 6 6 6 6 6 6 6 6 6 6 6 6 6 6 6 t t t u u u f u u u u u u u u u t y t u h                       ",
"                                                                                                    R C Y E R T K C C C T R R T V x l B B V B k l x B C C C K K K T C C V C C C C C K K K C B B B B B C C C V x C V k k k k k V V x l k k k k k k k f f u u u a u u 6 1 > y k k V k k V V V V V k k V C V k k k k k k k k k k k k f f f f f k k f u u u u u y t t y r 6 t t t r 6 6 6 6 7 6 6 6 t t t t r 6 6 6 6 6 6 6 6 6 6 6 6 6 6 6 6 6 6 6 6 6 r t t t t t u u u u u u u u u u y y t y k                       ",
"                                                                                                    Y C R R R T T C C C K K C B k k k B V V V V V B B B K B K K K C V V V V V B C C B C C C B B B B B C C C x x V V V l V k k V V V V l k k k k k k k k u u u u u u t 6 5 u k k V V k V k V C k k k x B l k k k k k k k k k k f u u u u u u k k a f u u t t t t t y r r 6 r r 6 6 6 6 6 6 6 6 6 6 6 6 6 6 6 6 6 6 6 6 6 6 6 6 6 6 6 6 6 6 6 6 6 6 6 6 6 t t t t y y u u u u u u u u y y y y u C                     ",
"                                                                                                  Y Y R E T K K C B B C V V V V k k k l l l V V V x l B B B B B B B B V l k k l k k k k k l k l V V V C C V k k l l l l x V k k V V V V k k k k k k k u u a a u h u u r r u k k V V V V V V V k k k k l l k k k k k k k k k k u u u u u u u u u u u u t t r r r r r r 6 6 r 6 6 6 6 6 6 6 6 6 6 6 6 6 6 6 6 6 6 6 6 6 6 6 6 6 6 6 6 6 6 6 6 6 6 6 6 6 6 6 r r r t t t u u f u u u u y y y y y k S                   ",
"                                                                                                  C R E R R K C B B B V k V C V k k k l V l l V l l l l V B x x x x B V k k k k k k k k k k k k l l V B V k k k k k x l x x k V k k V V k k k k k k k u u u u u u a u y t u k k V V C V k V k k V k k k k k k k k k f f k k j u u u u u u u u u y t t t t r 6 6 r r r r r r 6 6 6 6 6 6 6 6 6 6 6 6 6 6 6 6 6 6 6 6 6 6 6 6 6 6 6 6 6 6 6 6 6 6 6 6 6 6 6 6 t r t t t t u u u u u u y t y y y y N                   ",
"                                                                                                C U E E T T C V k x B l V V V k k l l V l k k l l l l l x x x l x x x l k k k k k k k k k k k k k k x V k k k k k k x x V V x k k k k k k k k k k k k u a f a u u u u y t u k k k C V l k k k k k k k k k k k k u f f u f u u u u u y t t y y y y t t t t r r r r r r r r 6 6 6 6 6 6 6 6 6 6 6 6 6 6 6 6 6 6 6 6 6 6 6 6 6 6 6 6 6 r r r r r 6 6 6 6 6 6 6 t t t t 6 r t u u u u u y y y y y r u                   ",
"                                                                                                R R R C V V V k k k k k k k k k l V l l k k k k l k l l x l l l l l l l l k k k k k k k k k k k k k k k k k k k k k k k V V V k k k k k k k k k k k k f k k a a u u y y t u k k V R C V B k k k k k k k k k k c u f f u u u t t t y t t t t t t t t t y r r r r 6 r r r r 6 r r r r 6 6 6 6 6 6 6 6 6 6 6 6 6 6 6 6 6 6 6 6 6 6 6 r r r r r r r r 6 6 6 6 6 6 6 7 7 6 6 r t t u u u y t y y y 6 y k                 ",
"                                                                                              R R R B k V k k k k k k k k k k k l l k k k k k k k k k k l l l l k l k k l k k f k k k k k k k k k k k k k k k k k k k k k l z k k h h k k k k k f k k k k k a u u u t y t u h k V R R V k k k V k k k k k k k a u u u u y t t t t t t t t t t t r r r r r r r r r r r r 6 r r 6 6 6 r r 6 r r r 6 6 6 6 6 6 6 6 6 r 6 6 r r r r r r r r r r r r r r r r 6 6 6 6 6 6 6 6 6 r t t t t t t y y r 6 6 y N               ",
"                                                                                              R R K k k k k k k k k k k k k k k k k k k k k k k k k k k k k k k k k f k k k k f k k k k k k k k k l k k k k k f k k k k k k k k k k k f k k k k k k k k k k u u t y y y t u a k V K C V k k k k k k k k k k k f u t t t t t t r r t t t t t r r r r r r r r r r r 6 r r r y y 6 6 r r r 6 6 r 6 6 6 6 6 6 6 6 6 r r r r r r r r r r r r r r r r r r r r r r 6 6 6 6 6 6 6 6 6 r t y t t t y 6 6 6 r a               ",
"                                                                                              R R V k k k k k k k k V k k k k k k a a a a a a a k f f f k k k k k k k k k k k f f f k k k k k k k k k k k k k f k k k k k k k k k k k k k k f k k k k k k k u u y y y y t u a k V C V k k h h k k k k k u u k u t t t r r r r r y r r r r r r r r r r r r r r r r r r r r r 6 6 6 6 6 6 6 4 1 1 1 1 1 6 6 6 6 6 6 6 6 6 6 6 6 6 r r r r r r r r y r r r r r r r 6 6 6 6 6 6 6 6 6 6 r y t t y 6 6 6 t k             ",
"                                                                                            R R V k k k k k k h h h h a a a a a a y y y y a a a a u u u f k k k k k k k k k f f f k k k k k k k k k f k k k k a a k k k k k k k k k k k k k u u f k k u j j u y y y t y y u a k k V k k h a h k k k k k u u f t t r 6 6 6 r r r r r 6 6 r r r r r r r r r r r r r r 6 6 6 6 6 4 1 1 > > 1 1 > 1 1 1 4 6 6 6 6 6 6 6 6 4 4 4 6 6 6 6 6 6 6 6 r y y y y r r r r r r r 6 6 6 6 6 6 r 6 6 6 6 6 r 6 6 6 r y             ",
"                                                                                            R k a a y y y y a a y r r r 6 5 5 6 6 6 6 6 r r y y y y a u a k k k f f f f k k f f k k k k k k k k k f u f k f f f a f k k h a a h h k k k k k j a h h u u u u y y y y t r y u h k k V k h u u h k k k k f u u u t r r 6 6 r r r 6 6 6 r r r y r r r r r 6 6 6 4 4 4 6 6 6 6 6 6 3 > > > > > > > 4 1 1 4 4 4 4 4 6 6 6 6 6 4 6 6 6 6 6 4 4 4 6 6 r r r r y r r r r r r r 6 6 6 6 6 6 6 6 6 6 6 6 6 6 6 6 y a           ",
"                                                                                          R B y y r r r r r K O.B 6 1 1 > > > 1 1 1 1 1 1 5 6 r r r y a a a a f f f f a a a u u f k k k u u u k k u u u u a u u a f f a a u u a h h h k k f u u h u u u u t y y y r t r y u k h h k h u u u a k k k k u u u t t r r r r r 6 6 6 6 r r r r r r r r 6 6 6 4 4 4 1 1 4 6 4 4 4 4 3 > > > > > > > > > > > > 1 1 1 4 6 6 4 4 4 6 6 6 6 6 6 4 6 6 6 6 6 6 r r r r r y r r r r 6 6 6 6 6 6 6 6 6 6 6 6 6 6 6 y y           ",
"                                                                                          k 6 6 5 5 5 t ~ P.(.^.!.J.8.K 6 1 1 > 1 1 1 1 1 1 1 1 6 6 6 r y y y a a k a u u a u u u f f u u u u u u u y u u u u u u u a f a u u u u u u u u a u u u u u t t r y y y r y 6 r u k h k k u u a h a k k f a u u y t t r r r 6 6 6 6 6 r r r r r r 6 6 4 4 4 4 4 6 4 4 1 1 1 1 > > 3 > > > > > > > > > > ; ; ; ; > > > > > > > > > 4 6 6 6 6 4 6 6 6 6 6 6 6 6 6 r r r y y y r r 6 6 6 6 6 6 6 6 6 6 6 r 6 6 6 y y         ",
"                                                                                      V a q 5 5 1 f y./.`.`.(.(.(.^.!.W.J.8.P t 1 1 1 1 1 1 1 1 1 1 4 6 r r y y a a a y a a a a a u u u u u t t t t y u u u u u a a u u u u u u u u u u y y y y u u u t t y 6 r r r t 6 r u k k k h u a h k f a f u u u t t t 6 6 6 6 r r 6 r r r r 6 5 5 1 1 1 6 6 6 6 4 4 1 4 f d s s 7 7 6 4 4 4 3 3 3 3 4 6 7 7 7 7 8 d d d d d 7 ; : : > > 3 3 4 4 6 6 6 6 6 6 6 6 6 6 6 6 r r y y r r 6 6 6 6 6 6 6 6 6 6 6 6 6 6 6 t         ",
"                                                                                    V y r r 1 r ~ /.,X,X`.`._.(.(.(.^.!.W.T.P.G.5.H t 1 1 1 1 1 4 1 6 6 6 6 r r y a a a a a u u u u u u u y t t t t y u u u u u u u u u u u u u u u u u y y y t t y u u t y r 6 6 6 r 6 r a k k k k u a h k a u u u u t t t r 6 6 6 r r r r r r r 6 5 1 1 5 6 6 6 6 6 4 > > 4 / J.J.H.F.F.F.y.w.q.7._ ^ ^ ! ^ ^ ^ ( ) ) ) ) ) ) ) ) ( H > : : ; ; ; > 3 4 4 6 6 6 6 6 6 6 6 6 6 r 6 r y y r r 6 6 6 6 6 6 6 6 6 6 6 6 6 6 t y       ",
"                                                                                  k r 5 5 5 P T.`.,X].].`.`.`._.(.(.^.!.W.R.T.Y.P.J.y.5.H u 6 1 4 4 6 6 6 6 6 6 6 r r y y a y y y u u u y y t t t y t t t u u u u u u u u u u u u u u u u y y y y r t t y y r r r 6 r 6 t a k k k k u u u a u u y y y t t r r 6 6 6 r r r r r r 6 1 1 1 1 6 6 6 4 4 > > ; 7 6.J.J.J.G.F.F.F.F.w.q.0.5.( ^ ! ! ! ^ ^ ( ( ( ( ) ) ) ) ) ! G 8 > : : : > > > > > 4 6 6 6 6 6 6 6 6 6 6 6 r r y r r 6 6 6 6 6 6 6 6 6 6 6 6 6 r t a     ",
"                                                                                a r 5 5 d K.`.<X<X,X,X].`.`.`.`.).(.(.^.W.E.R.T.T.T.Y.U.J.y.8.~ l 6 6 6 6 6 6 6 6 6 r r r r y y y y y t r r r r r r r t t t t t t u u u u u u u u u u y y y y y 6 r 6 r y r r r r 6 6 6 t k k k k k u u u u u t t u t r 6 6 6 r r r r r r 6 6 1 1 4 4 4 6 6 6 4 > > > > H y.J.J.P.J.J.J.J.G.F.F.w.e.7.) ^ ^ ^ ^ ^ ^ ^ ( ( ( ) ) ) _ ) ! J G F 8 3 ; ; : : : ; > 1 4 6 6 6 6 6 6 4 6 6 6 r r y y r r 6 6 6 6 6 6 6 6 6 6 6 6 r y     ",
"                                                                              y 6 6 k y.(.,X<X,X,X,X,X>X[.`.`.`.`.).(.^.!.!.W.W.E.T.Y.Y.U.J.J.H.K.5.u 1 1 6 6 r 6 t r 6 6 6 r r y y y y r 6 6 6 6 6 r r y y y t t u u u u u u y t t y y y r 6 6 6 6 r 6 6 r r 6 6 6 r 6 y k k k k k u u y u t t t t t r 6 6 6 r r r r 6 6 6 6 6 4 4 4 4 4 4 4 > ; : 4 ^ F.J.J.L.Y.Y.L.J.J.J.G.F.F.q.0.6.) ^ ^ ^ ^ ^ ^ ^ ( ( ) ) ) ) ) ( J G F F F 8 3 ; ; % % : > > 1 1 4 4 4 4 > 4 6 6 r t r r y r r 6 6 6 6 6 6 6 6 6 6 6 r 6 a   ",
"                                                                            u y 6 K T.].,X<X,X,X,X,X,X>X`.`.`.`.`.).(./.^.!.!.!.W.E.T.Y.T.Y.J.H.K.t.5.s > 1 6 6 r t t r 6 6 6 r r r y a r r 6 6 6 6 r t 6 6 r r t t u u y u u y t t t y y r 6 6 6 6 6 6 6 6 6 6 6 6 6 6 y k k k k k u u y y t t t t t 6 6 6 6 r r r 6 6 4 1 4 6 6 4 1 4 1 > > ; : 6 ^ F.J.J.L.Y.T.T.Y.P.P.L.J.G.F.w.q.7.5.) ( ( ^ ( ( ( ( ( ) ) ) _ _ ) ! J G F F F F 8 3 : : : : : > > > 4 4 4 > 3 4 6 6 r 6 6 r y r 6 6 6 6 6 6 6 6 6 6 6 6 6 y   ",
"                                                                        k u y B Y.`.,X<X<X<X,X,X,X,X,X,X&X`.&X&X&X`.`.`.`.`.`.).).).)././.~.E.Y.J.y.7.5.~ 6 : > 6 6 t t t 6 6 6 6 6 r y y y r 6 6 6 6 6 6 6 6 r y y t t t t u y t y r r r 6 6 6 6 6 6 6 6 6 6 6 6 6 6 6 t k k k k k u y t t t t t t r 6 6 r r r 6 6 6 6 6 6 6 4 4 4 6 1 1 > : : d e.F.J.L.Y.T.R.W.W.W.!.W.W.W.R.T.L.G.F.w.q.0.0.0.0.0.0.0.0.0.0.0.0.0.0._ ( J G G G G G G F 7 > : : : ; > 4 4 4 6 6 4 4 6 6 6 6 6 6 y r 6 6 6 4 6 6 6 6 6 6 6 6 r   "
};
