/* XPM */
static char *dba1ec35ab1b4915d96019e618355743CB0BaQsZwe2QIxST[] = {
/* columns rows colors chars-per-pixel */
"250 250 210 2 ",
"   c None",
".  c #050405",
"X  c #070708",
"o  c #080708",
"O  c #0B0B0C",
"+  c #070809",
"@  c #100E0B",
"#  c #12110E",
"$  c #0C0E11",
"%  c #0E1114",
"&  c #0F1419",
"*  c #141513",
"=  c #191612",
"-  c #171814",
";  c #1A1A15",
":  c #131619",
">  c #15191D",
",  c #1C1D1B",
"<  c #0F100E",
"1  c #221B15",
"2  c #211E1A",
"3  c #2A1E18",
"4  c #371C1F",
"5  c #1F201C",
"6  c #23231E",
"7  c #2A241E",
"8  c #33231B",
"9  c #3B281E",
"0  c #161C21",
"q  c #1B1E22",
"w  c #1D2124",
"e  c #1E2429",
"r  c #1F292E",
"t  c #242522",
"y  c #282721",
"u  c #262923",
"i  c #2B2B25",
"p  c #232629",
"a  c #25292C",
"s  c #2C2E2A",
"d  c #312E26",
"f  c #3E2C22",
"g  c #302F28",
"h  c #372B25",
"j  c #2E312A",
"k  c #33332C",
"l  c #39362E",
"z  c #39382F",
"x  c #37372E",
"c  c #262C31",
"v  c #2B2E32",
"b  c #2D3134",
"n  c #2E3339",
"m  c #343632",
"M  c #383730",
"N  c #363931",
"B  c #3B3C34",
"V  c #333639",
"C  c #36393C",
"Z  c #3B3E3A",
"A  c #382F33",
"S  c #432D23",
"D  c #422628",
"F  c #473025",
"G  c #493227",
"H  c #44342C",
"J  c #4D3529",
"K  c #4A392F",
"L  c #51372B",
"P  c #543A2E",
"I  c #413E35",
"U  c #4C3C33",
"Y  c #403F38",
"T  c #543D32",
"R  c #5A3E31",
"E  c #5D2026",
"W  c #4F1D21",
"Q  c #3D4037",
"!  c #3E413A",
"~  c #404037",
"^  c #42443C",
"/  c #49463D",
"(  c #45483F",
")  c #49483F",
"_  c #5D4134",
"`  c #564238",
"'  c #5B453B",
"]  c #5E483E",
"[  c #544035",
"{  c #62473A",
"}  c #634A3C",
"|  c #6B4C3D",
" . c #624436",
".. c #714F3F",
"X. c #363B41",
"o. c #3B3E41",
"O. c #393F48",
"+. c #3D4144",
"@. c #3D4449",
"#. c #424543",
"$. c #454941",
"%. c #4A4C44",
"&. c #424649",
"*. c #45494C",
"=. c #494D4C",
"-. c #524E43",
";. c #5B4C42",
":. c #4D5047",
">. c #4E5149",
",. c #535045",
"<. c #52544B",
"1. c #58574E",
"2. c #454C53",
"3. c #4A4E51",
"4. c #4D5255",
"5. c #4C545B",
"6. c #4C565B",
"7. c #515456",
"8. c #52565A",
"9. c #555A5D",
"0. c #585C5F",
"q. c #5A5B53",
"w. c #644D41",
"e. c #6A4F41",
"r. c #6B5245",
"t. c #6D5549",
"y. c #66554A",
"u. c #745343",
"i. c #795645",
"p. c #7A5846",
"a. c #74594C",
"s. c #7D5B4A",
"d. c #71564A",
"f. c #7A5E51",
"g. c #745C50",
"h. c #665C52",
"j. c #7E6254",
"k. c #7C6A5C",
"l. c #6C6458",
"z. c #555C61",
"x. c #595E62",
"c. c #5C6165",
"v. c #5D6469",
"b. c #566269",
"n. c #61666B",
"m. c #646A6D",
"M. c #616567",
"N. c #656C72",
"B. c #696E73",
"V. c #606D78",
"C. c #6C7175",
"Z. c #6F7579",
"A. c #6D747A",
"S. c #65727B",
"D. c #71767A",
"F. c #71777C",
"G. c #73797D",
"H. c #707375",
"J. c #825D4C",
"K. c #84614F",
"L. c #846453",
"P. c #8A6553",
"I. c #8D6956",
"U. c #856A5B",
"Y. c #8C6C5B",
"T. c #826659",
"R. c #926A56",
"E. c #936D5A",
"W. c #996F5C",
"Q. c #94715E",
"!. c #9A715E",
"~. c #8C6F61",
"^. c #8E7162",
"/. c #947463",
"(. c #9B7562",
"). c #9C7966",
"_. c #9C7B6A",
"`. c #947769",
"'. c #A27A65",
"]. c #A37E6A",
"[. c #A37864",
"{. c #A5816D",
"}. c #AA826E",
"|. c #B1866F",
" X c #A58371",
".X c #AC8672",
"XX c #AD8975",
"oX c #AF8B79",
"OX c #B08772",
"+X c #B38A75",
"@X c #B48E7A",
"#X c #BA8E7A",
"$X c #B88D77",
"%X c #B6907D",
"&X c #BC927D",
"*X c #B99077",
"=X c #C2957E",
"-X c #747C82",
";X c #697A84",
":X c #7B848C",
">X c #778188",
",X c #798892",
"<X c #879198",
"1X c #BD9581",
"2X c #BF9883",
"3X c #8F98A5",
"4X c #C49A84",
"5X c #CA9C85",
"6X c #CD9E88",
"7X c #C29881",
/* pixels */
"                                                                                                                                                                                                                                                                                                                                                                                                                                                                                                                    ",
"                                                                                                                                                                                                                                                                                                                                                                                                                                                                                                                    ",
"                                                                                                                                                                                                                                                                                                                                                                                                                                                                                                                    ",
"                                                                                                                                                                                                                                                                                                                                                                                                                                                                                                                    ",
"                                                                                                                                                                                                                                                                                                                                                                                                                                                                                                                    ",
"                                                                                                                                                                                                                                                                                                                                                                                                                                                                                                                    ",
"                                                                                                                                                                                                                                                                                                                                                                                                                                                                                                                    ",
"                                                                                                                                                                                                                                                                                                                                                                                                                                                                                                                    ",
"                                                                                                                                                                                                                                                                                                                                                                                                                                                                                                                    ",
"                                                                                                                                                                                                                                                                                                                                                                                                                                                                                                                    ",
"                                                                                                                                                                                                                                                                                                                                                                                                                                                                                                                    ",
"                                                                                                                                                                                                                                                                                                                                                                                                                                                                                                                    ",
"                                                                                                                                                                                                                                                                                                                                                                                                                                                                                                                    ",
"                                                                                                                                                                                                                                                                                                                                                                                                                                                                                                                    ",
"                                                                                                                                                                                                                                                                                                                                                                                                                                                                                                                    ",
"                                                                                                                                                                                                                                                                                                                                                                                                                                                                                                                    ",
"                                                                                                                                                                                                                                                                                                                                                                                                                                                                                                                    ",
"                                                                                                                                                                                                                                                                                                                                                                                                                                                                                                                    ",
"                                                                                                                                                                                                                                                                                                                                                                                                                                                                                                                    ",
"                                                                                                                                                                                                                                                                                                                                                                                                                                                                                                                    ",
"                                                                                                                                                                                                                                                                                                                                                                                                                                                                                                                    ",
"                                                                                                                                                                                                                                                                                                                                                                                                                                                                                                                    ",
"                                                                                                                                                                                                                                                                                                                                                                                                                                                                                                                    ",
"                                                                                                                                                                                                                                                                                                                                                                                                                                                                                                                    ",
"                                                                                                                                                                                                                                                                                                                                                                                                                                                                                                                    ",
"                                                                                                                                                                                                                                                                                                                                                                                                                                                                                                                    ",
"                                                                                                                                                                                                                                                                                                                                                                                                                                                                                                                    ",
"                                                                                                                                                                                                                                                                                                                                                                                                                                                                                                                    ",
"                                                                                                                                                                                                                                                                                                                                                                                                                                                                                                                    ",
"                                                                                                                                                                                                                                                                                                                                                                                                                                                                                                                    ",
"                                                                                                                                                                                                                                                                                                                                                                                                                                                                                                                    ",
"                                                                                                                                                                                                                                                                                                                                                                                                                                                                                                                    ",
"                                                                                                                                                                                                                                                                                                                                                                                                                                                                                                                    ",
"                                                                                                                                                                                                                                                                                                                                                                                                                                                                                                                    ",
"                                                                                                                                                                                                                                                                                                                                                                                                                                                                                                                    ",
"                                                                                                                                                                                                                                                                                                                                                                                                                                                                                                                    ",
"                                                                                                                                                                                                                                                                                                                                                                                                                                                                                                                    ",
"                                                                                                                                                                                                                                                                                                                                                                                                                                                                                                                    ",
"                                                                                                                                                                                                                                                                                                                                                                                                                                                                                                                    ",
"                                                                                                                                                                                                                                                                                                                                                                                                                                                                                                                    ",
"                                                                                                                                                                                                                                                                                                                                                                                                                                                                                                                    ",
"                                                                                                                                                                                                                                                                                                                                                                                                                                                                                                                    ",
"                                                                                                                                                                                                                                                                                                                                                                                                                                                                                                                    ",
"                                                                                                                                                                                                                                                                                                                                                                                                                                                                                                                    ",
"                                                                                                                                                                                                                                                                                                                                                                                                                                                                                                                    ",
"                                                                                                                                                                                                                                                                                                                                                                                                                                                                                                                    ",
"                                                                                                                                                                                                                                                                                                                                                                                                                                                                                                                    ",
"                                                                                                                                                                                                                                                                        n.v.                                                                                                                                                                                                                                        ",
"                                                                                                                                                                                                                                                                        &.H.&.                                                                                                                                                                                                                                      ",
"                                                                                                                                                                                                                                                                      V s #.s                                                                                                                                                                                                                                       ",
"                                                                                                                                                                                                                                                                      C : : >                                                                                                                                                                                                                                       ",
"                                                                                                                                                                                                                                                                      C : * :                                                                                                                                                                                                                                       ",
"                                                                                                                                                                                                                                                                      V : * :                                                                                                                                                                                                                                       ",
"                                                                                                                                                                                                                                                                X.&.3.o.w > : s m C                                                                                                                                                                                                                                 ",
"                                                                                                                                                                                                                                                              b C &.@.@.o.V p t t p                                                                                                                                                                                                                                 ",
"                                                                                                                                                                                                                                                      >XC.N.n.+.V +.X.C V V v t w t V   N.A.                                                                                                                                                                                                                        ",
"                                                                                                                                                                                                                                                    *.m.-XA.C.c.*.+.o.C C C V V b b C c.m.B.A.Z.                                                                                                                                                                                                                    ",
"                                                                                                                                                                                                                                                  3.=.3.m.-XG.D.B.m.n.c.z.9.z.c.n.n.B.F.G.G.-X-X-X                                                                                                                                                                                                                  ",
"                                                                                                                                                                                                                                                3.4.7.7.7.C.-XG.Z.Z.B.n.c.c.v.m.N.B.C.D.Z.Z.F.G.G.G.Z.                                                                                                                                                                                                              ",
"                                                                                                                                                                                                                                                3.3.7.9.8.0.C.>XG.G.D.B.m.m.m.C.C.D.Z.Z.D.D.D.D.D.D.Z.G.                                                                                                                                                                                                            ",
"                                                                                                                                                                                                                                                *.3.4.4.9.0.c.F.>XG.G.C.B.B.B.C.D.F.G.D.G.G.G.G.G.F.F.D.F.A.                                                                                                                                                                                                        ",
"                                                                                                                                                                                                                                                &.*.3.3.7.9.0.M.-X-XZ.C.B.B.B.C.Z.G.D.G.G.F.F.D.D.A.A.Z.Z.A.A.                                                                                                                                                                                                      ",
"                                                                                                                                                                                                                                                &.&.*.3.4.9.x.c.N.:X:XC.B.C.C.C.Z.D.Z.D.A.C.Z.Z.C.Z.C.Z.Z.Z.D.F.F.                                                                                                                                                                                                  ",
"                                                                                                                                                                                                                                                &.&.&.3.4.7.8.x.c.c.-X-Xx.9.9.9.9.z.z.0.0.9.0.x.x.x.x.x.c.c.c.c.c.n.                                                                                                                                                                                                ",
"                                                                                                                                                                                                                                                &.&.&.&.3.9.8.9.9.9.7.p : > > , w w t t p p p p p p p p p p p p p C m.N.z.7.7.        V *.x.z.9.z.7.                                                                                                                                                                ",
"                                                                                                                                                                                                                                                +.&.&.&.*.7.7.7.7.8.X.: : 8.:XC.N.m.B.B.n.n.v.v.x.n.n.v.v.n.c.x.c.+.C t w o.s :       V p w Z a > w                                                                                                                                                                 ",
"                                                                                                                                                                                                                                                &.+.&.&.&.*.4.7.7.9.a , +.:X3X-XN.n.N.N.n.v.v.c.c.c.v.n.n.v.x.x.z.&.V , a n.4.:       &.s q M.8.: ,                                                                                                                                                                 ",
"                                                                                                                                                                                                                                                +.+.+.&.&.&.=.7.9.8.v s 4.9.C.:XA.N.N.B.B.N.B.B.B.B.B.B.C.C.B.n.n.+.b : : t w : 9.x.9.*.V w t t * -                                                                                                                                                                 ",
"                                                                                                                                                                                                                                                +.+.+.&.&.&.*.*.4.9.&.C C o.c.A.:XF.B.B.B.C.C.C.C.C.C.C.C.C.B.c.x.+.v : : : : , 3.9.9.4.O.w : * * :                                                                                                                                                                 ",
"                                                                                                                                                                                                                                                +.+.+.&.&.&.&.&.*.4.9.&.o.3.x.c.C.:XA.B.B.C.C.C.C.C.C.B.x.v.z.z.7.&.v : : : : > C o.&.*.o.q * * * :                                                                                                                                                                 ",
"                                                                                                                                                                                                                                                +.+.+.&.&.&.&.&.&.&.3.v.9.0.9.0.c.m.>XC.B.B.C.C.C.C.B.z.&.a V *.*.&.v , : : : : , q , 0 q , : : - :                                                                                                                                                                 ",
"                                                                                                                                                                                                                                                +.+.+.&.&.&.&.&.+.+.&.8.9.9.0.x.c.c.m.:XG.C.A.C.C.C.c.3.o., p V C C v p w w , > , , ; , , q q q , , a                                                                                                                                                               ",
"                                                                                                                                                                                                                                              +.o.+.+.+.+.*.&.&.+.+.+.*.=.4.9.x.c.c.c.N.,XG.C.C.C.B.3.&.b : t v b +.V s a p 0 , w t t w t p p p w w m                                                                                                                                                               ",
"                                                                                                                                                                                                                                              *.o.o.+.+.+.*.&.&.+.+.+.*.&.&.3.9.x.c.c.c.m.-XG.C.B.c.&.C p : q p b =.6.+.C C C o.@.&.&.+.o.C C C C X.&.4.7.                                                                                                                                                          ",
"                                                                                                                                                                                                                                              4.&.+.o.+.+.*.*.*.+.+.&.7.*.&.&.=.4.9.c.c.c.m.:X:XC.n.4.b t 0 , : b o.C t q w w w p p p p w w q 0 0 0 0 w w q a                                                                                                                                                       ",
"                                                                                                                                                                                                                                            *.4.=.&.o.+.+.*.*.*.&.+.3.7.3.*.*.=.=.3.7.0.c.v.N.:X:XN.c.6.&.o.V t m C p : % * * * % & : : : * * * % * * * * : q                                                                                                                                                       ",
"                                                                                                                                                                                                                                            +.*.4.*.+.+.+.*.*.*.&.+.4.4.4.3.3.3.3.3.4.7.x.v.v.m.:X-Xc.8.3.&.+.C V C 0 : : : : > : > > : : : : : : : > : : : :                                                                                                                                                       ",
"                                                                                                                                                                                                                                            +.&.3.3.&.+.+.&.*.*.*.&.*.=.4.7.4.3.4.4.7.7.9.9.x.m.C.:XG.0.4.*.+.C V V , 0 0 0 0 0 q q q 0 0 0 0 q 0 , 0 0 0 , , C c.                                                                                                                                                  ",
"                                                                                                                                                                                                                                            o.+.&.4.2.&.o.+.&.&.*.&.+.&.3.7.4.4.4.7.9.9.0.x.x.n.m.Z.<X:Xv.4.*.C b p > w w w w t e e e w 0 0 q t t t w w p p t w *.x.                                                                                                                                                ",
"                                                                                                                                                                                                                                            o.o.+.*.3.*.+.o.+.&.*.&.+.o.&.3.4.7.7.7.9.0.x.c.n.m.N.C.D.<X3XN.9.7.*.b v v b b V V V V V V m V m V m m b b b b v v &.7.x.m.                                                                                                                                            ",
"                                                                                                                                                                                                                                              o.o.&.3.3.&.o.o.+.&.&.o.o.+.*.=.*.3.3.4.4.7.8.x.c.n.m.C.D.<X9.+.o.o.m v v v v s a a a a s s s s a p a s s b m b m V C +.*.9.                                                                                                                                          ",
"                                                                                                                                                                                                                                                o.+.&.4.*.&.o.o.+.&.o.o.o.+.+.o.&.&.*.*.=.4.7.9.x.c.n.C.8.s t t t t t t t p p q w , , , , , , , , w q t a p t p p p a a b &.                                                                                                                                        ",
"                                                                                                                                                                                                                                                Z o.+.*.4.*.&.o.o.+.o.o.o.Z C V Z +.*.&.*.=.4.7.9.x.v.8.m p t p p t t u p u O X + + + + + + + + + + + + O w p t t t a p u s o.                                                                                                                                      ",
"                                                                                                                                                                                                                                                  o.+.@.4.3.&.o.o.o.o.o.Z C V b C Z *.&.*.=.4.7.7.9.v.V a p p p a p p p v * . X X X X X X X X X X X X X X O a t t t p p u i V                                                                                                                                       ",
"                                                                                                                                                                                                                                                  C o.+.&.3.*.+.o.o.o.Z Z C V v V V o.*.=.*.3.3.4.x.&.a a p p p p t t p ; X X X o o X X X X X X X X X X + X - p t t p p p p p s                                                                                                                                     ",
"                                                                                                                                                                                                                                                    Z o.o.&.*.&.+.o.o.Z Z C V v b b C &.*.*.*.=.4.3.s p p a p p t t q w - X X X o o o o o o o X X X X X o X * a u t t t p a s s m                                                                                                                                   ",
"                                                                                                                                                                                                                                                    Z o.o.o.&.*.o.o.o.Z C C V b v v V C &.*.=.=.4.v p a p u p p p p q w - X X X o + + + + + + o o X X X o X O u w t t p a a a a a                                                                                                                                   ",
"                                                                                                                                                                                                                                                    *.o.o.o.+.*.+.+.Z C C C V V v v b V C &.=.3.&.a p p u t t p p p w w * X X X o + + + + + + + o X X X X X O t t t p p a v a a a v                                                                                                                                 ",
"                                                                                                                                                                                                                                                    3.+.o.Z Z &.*.&.o.C C V V m v a v a V Z =.=.m a p p p t t t t p w w * X X o + + + + + + + + + o o X X X + p p p p p a a a a a v o.                                                                                                                              ",
"                                                                                                                                                                                                                                                      o.o.Z Z o.*.&.o.C C V m b v v v a v +.4.&.a p p p p t u p p p t w : X X + O O O + + + O O + o o X X X + p p p p p p a p a v a C                                                                                                                               ",
"                                                                                                                                                                                                                                                      C +.C C Z +.&.Z C C V m b s v a a v &.3.&.p p p p p t t t t t p w : X X o O O - : O O O O o X o o X . X t t p p t t a a a s a V =.                                                                                                                            ",
"                                                                                                                                                                                                                                                        o.C C C o.o.Z C C V V b a v p p a C +.C p p p p p p t p t t w w : X o o % , p p p , O + o X X o X X X w q t t t p a s v a p v &.                                                                                                                            ",
"                                                                                                                                                                                                                                                        C +.C C Z Z Z o.C V V V s v p a a V o.C p p p p a p p p t t t q - o o O : t v V v w % + X X X X X X X , q w w t p p b v b a v &.                                                                                                                            ",
"                                                                                                                                                                                                                                                          +.o.C C Z Z Z C V V V s v a s a C o.C a p p p a p p p t t q , - + + O - t v V a 0 % + + o o X X X X ; 0 q w w t p s b v a m &.                                                                                                                            ",
"                                                                                                                                                                                                                                                          +.+.C C C Z C C C C V c v a v p V C V p p p p p p p p t q , , - + o O * , p a w : $ + + + o X X X X - , q w t t p i s a p v Z                                                                                                                             ",
"                                                                                                                                                                                                                                                            &.o.C C C C C C V m a a a v p V C m u u p p p p t w q q , ; - + + + O % : : % O O O O O + o o X X : , 0 q q w t p p p p s C                                                                                                                             ",
"                                                                                                                                                                                                                                                            &.o.C C C Z C C V b a a a a p V C b t t p p p t w w q q , ; - O + O + O O O + O O $ O O + o + X X % : , 0 0 q t p t t t a V                                                                                                                             ",
"                                                                                                                                                                                                                                                            &.o.Z C C Z C C V V a a a a p m C b p p p p p w q q q 0 , : - O O O O O O O O $ O O O O + o + X o % : : , 0 q w t t t t p m                                                                                                                             ",
"                                                                                                                                                                                                                                                            &.+.o.V C C C C m m p v v a p m V V a a p p t w w w q 0 , : - O + O O O O O $ O $ $ O O + o + X O % : > , 0 q w t t t t p m                                                                                                                             ",
"                                                                                                                                                                                                                                                            &.+.o.+.o.C C C m v p b b s p V V b p p t t t w q q 0 0 , : : O + O O O O O $ O O O O O + + + X O $ : > , q w w p p p p a b                                                                                                                             ",
"                                                                                                                                                                                                                                                            +.+.+.*.o.C C C m b p v v a p m V b p p t t t w 0 0 0 , : : : O O O O w > : : : , , 0 0 0 0 0 > 0 % % : , , q q t p p e p v #.                                                                                                                          ",
"                                                                                                                                                                                                                                                            +.o.+.*.C C C C b v p a v a p m V b p w t t t w q 0 0 , : : % O O O % o.w , , , q q 0 q w w e e e : * : , , , q w t p p p v #.                                                                                                                          ",
"                                                                                                                                                                                                                                                            o.Z o.&.b o.C V m v p s v a a V V v p w t t p w q q 0 , : : : O O O , o.w , 0 0 0 q q q q w e p p : % : , , , q w w t t p v Z                                                                                                                           ",
"                                                                                                                                                                                                                                                              C o.o.v *.*.C b v p b b a a V V v p w t p p w q 0 0 , : : : $ O O t o.w > , , 0 0 0 0 q w w p p , * : , , 0 w w w t p t v Z                                                                                                                           ",
"                                                                                                                                                                                                                                                              C o.o.V z.9.+.m s p b b a a b V v p w w w w w q 0 , , : - * O O % u C w > 0 0 0 0 0 0 0 w t p p , : : : , , q q q w p t a C                                                                                                                           ",
"                                                                                                                                                                                                                                                                C +.8.v.c.4.m a s b V v p v V v p w w w w q 0 0 , > : : * O + ; t V w 0 0 0 0 0 0 0 0 w w t e , % : : : , , q q q w t a C                                                                                                                           ",
"                                                                                                                                                                                                                                                                =.c.c.v.N.m.&.a v b b v p v V v p q w q w w 0 , : : : : * O + t t m t , , , , , 0 0 0 0 w w t , % : : : > > , , 0 q t a C                                                                                                                           ",
"                                                                                                                                                                                                                                                                v.v.z.v.A.:X-XV s v b v p v V v w q q q q , ; : : : * * * $ : t w v p 0 , , , , , , 0 0 w w w q % $ * * : : : > , q t a V                                                                                                                           ",
"                                                                                                                                                                                                                                                                6.z.x.v.S.:X3Xz.a a v v p v V v t w 0 w v w , , : - * % % - t t , a t , , , , : ; , , 0 w w w , * $ % % * - : , , , q p V                                                                                                                           ",
"                                                                                                                                                                                                                                                                &.4.z.b.N.-X,XS.b p v v p b V v w w 0 p a * O O + + + X + O : w , t t , , , > > , , , 0 0 0 w > + X X + $ - : O - , q t m                                                                                                                           ",
"                                                                                                                                                                                                                                                                  +.6.v.V.S.S.6.a p b v p b V v w w 0 p w + X . . . . . . + % w ; w w 0 > > > 0 , , 0 0 0 0 0 > + . X X O : - O * 0 q t m                                                                                                                           ",
"                                                                                                                                                                                                                                                                  m 5.N.z.6.2.X.c p b v t b V v t w q q 0 + X X X X X X . X O , : , q > > > > 0 0 0 0 0 0 0 0 > + . X + O : : O * q q t v                                                                                                                           ",
"                                                                                                                                                                                                                                                                  g &.b.&.o.V 2.2.n v a p b V v p t w q , O + + + + + X . X O , - : q > > > > > > > , 0 0 0 0 > O X X O $ : : O < , q t s                                                                                                                           ",
"                                                                                                                                                                                                                                                                    m C b s a V.,X5.v a p b V s t q w w 0 $ % % $ $ O + X X + : : : 0 , > > > > > > > > , > 0 0 $ + O $ % * : O O , 0 t a                                                                                                                           ",
"                                                                                                                                                                                                                                                                      p t q w 5.;X>X5.p p b V s t w q q q % : & : % $ + X X + : * * , , > > > : > > > > > > 0 w % $ $ % : : : O O : , q p                                                                                                                           ",
"                                                                                                                                                                                                                                                                      i u t u &.b.,XS.a a b V s p w w q q * > > > > % O X . X * * % , > > > > : : > > > > > 0 w : % % % : : : $ O : q 0 p                                                                                                                           ",
"                                                                                                                                                                                                                                                                            v @.5.S.;Xb a b V s p w w q 0 - 0 0 0 0 : $ X X X O O O : 0 0 0 , , > > > > > > 0 w > % * * - : : % O : , w u                                                                                                                           ",
"                                                                                                                                                                                                                                                                            V +.2.b.V.@.w v V s p w w 0 , : w w 0 0 0 : + X X O O O : V v a a a p p p p p p p a p : : : - > ; * O : , w t                                                                                                                           ",
"                                                                                                                                                                                                                                                                            V o.@.2.5.5.e v m a a q 0 0 , ; p t q 0 0 : O X X O O + : V X.b b b b b b v v v v v b w > > : : , - O - , q t                                                                                                                           ",
"                                                                                                                                                                                                                                                                            V o.+.@.@.6.w c m a p 0 0 0 , : w w w 0 0 > $ + X O O + * v o.b b b v v b v v v v v b a 0 0 > > , : $ * , w t                                                                                                                           ",
"                                                                                                                                                                                                                                                                            V C X.X.@.b.c c v s t : > 0 > > q w w 0 0 > % + + + + o * p V v v c s a a a a a a a a c 0 0 > 0 0 0 : * , , t                                                                                                                           ",
"                                                                                                                                                                                                                                                                            V C V V @.z.2.X.A D q : > : : 0 w w 0 0 w 0 : O + + + o % q v a a a a a a p p p p p c b w w 0 0 e p , * : , t                                                                                                                           ",
"                                                                                                                                                                                                                                                                            V V V b O.2.2.@.A E t : : : : 0 e w w w w q > % O O O + $ q c a a a a p p p p p p a a v r e w w e a t : : 0                                                                                                                             ",
"                                                                                                                                                                                                                                                                            V V b v X.*.+.O.A W a , , , , w e w w w w 0 > : % O O o $ q a a p a p p p p p e e p a v a e w w p c s p N B                                                                                                                             ",
"                                                                                                                                                                                                                                                                            #.m v a V @.X.X.b 4 a p a a a e e e w w w 0 0 : : % * o $ q a p t t t w w q w w w w e a a r e e a v n Z %.%.%.                                                                                                                          ",
"                                                                                                                                                                                                                                                                    4X4X1X&X1.m s p V @.+.O.V v a a c a a r e e e e w w 0 > : : - + O q a p q q w q q 0 0 q q q 0 p a p p p a v b V ^ >.:.%.%.                                                                                                                      ",
"                                                                                                                                                                                                                                                                  4X4X7X&X&Xy.b b o.3.6.5.*.@.b p p v a p r p a p e w w 0 > : > , O O q p q 0 q 0 0 0 0 0 0 0 0 0 e a a p p a b n m x %.<.%.%.%.%.                                                                                                                  ",
"                                                                                                                                                                                                                                                                4X4X&X@X$X+Xh.m z.<X:XS.v.6.@.V 0 0 c v a a p a a e w w 0 > > > w * O q t q , , 0 > > > , > > > > w p p p p a b b b i B 7.,.^ B ^ ! !                                                                                                               ",
"                                                                                                                                                                                                                                                              4X&X@X+XXX.X}.h.m +.z.3X3X,XA.z.*.b > a v a a r a c e w 0 0 0 > 0 t , O 0 q : : : : : : : : : : : > q t p p e a b b v i d %.,.! Z B B m m B                                                                                                           ",
"                                                                                                                                                                                                                                                            1X+X.X.X{._.k.h.%.m p t V x.v.N.N.z.*.e a b a a a e a e w 0 0 0 > 0 w w O , , : * * * * * * * * * * : , p p p e p v b s C i z ) B B Z ! ^ M k k                                                                                                         ",
"                                                                                                                                                                                                                                                            %X.X{.`.U.h.<.%.%.M i t ; p C +.2.v.4.n a b v a a p p e w 0 0 > > 0 q t $ , - % $ $ $ O O O O $ $ O O : e e e w t a b v +.k y k i s N ~ B M x k                                                                                                         ",
"                                                                                                                                                                                                                                                          oX X^.l.q.<.<.>.%.%.( x B t , q t a 5.z.*.v n v a c c e w q 0 0 > > > > , $ - + X X X X X X X X X X X X * e w w 0 w a b a s i 7 6 6 6 s Z B k j s i                                                                                                       ",
"                                                                                                                                                                                                                                                          l.l.q.1.<.<.>.>.%.$.) ~ M s t b t w b 3.8.&.n v c c c e w 0 0 0 > > > > : % O X . . . . . . . . . . . X : q q 0 0 w a b a u i y 6 6 , 7 k x m j j s k                                                                                                     ",
"                                                                                                                                                                                                                                                      q.q.q.1.<.<.<.>.>.%.%.$.( ( B k w a t : t v V b n v c c a e w 0 0 > > > > > : % + + + + + + + + + O + O O % 0 0 0 0 0 t a b a u i i 6 2 5 6 k i s j j s s j                                                                                                   ",
"                                                                                                                                                                                                                                                  q.q.1.1.1.<.<.<.>.>.>.%.%.$.$.( ~ M q p t - , p v p n c a a a e w 0 0 > > > > > : : & & : : & : : : : > : > > > > 0 0 0 0 t p v p u u i i 2 , , i i u s j j s i s                                                                                                 ",
"                                                                                                                                                                                                                                                  <.<.1.<.<.<.,.:.:.:.%.%.%.%.$.$.( ^ t b t * O q a q b a e a a e w 0 0 > > > > > : : : & : : & > > > > > > > > > > > 0 0 0 t p s p u i i u , ; 2 i i u i j k j s k k                                                                                               ",
"                                                                                                                                                                                                                                                >.<.<.<.,.:.:.:.:.:.%.%.%.%.$.$.$.( ^ ! s , O + * , : v p w p p e w 0 > > > > > > > > > > : : > > > > > 0 > > 0 > > > , 0 0 q p a p u i u u 6 - , 6 y u 6 t s s i s k s                                                                                             ",
"                                                                                                                                                                                                                                                :.>.>.%.%.%.%.:.:.%.%.%.%.%.$.$.( ^ ^ ! m q O o + O * c t w e p e q 0 , > > > > 0 > > > > > > > 0 > > 0 0 0 0 0 > > 0 0 0 0 q p a p t u u u 6 ; ; 6 7 6 , , t i i u i s s                                                                                           ",
"                                                                                                                                                                                                                                                %.%.%.%.:.>.>.>.>.:.%.%.%.$.$.$.^ ^ ! ! N t O + + O : p w 0 e p w 0 0 0 > > > > > > > > > > > > 0 0 0 0 0 0 0 0 0 0 0 0 q 0 w p c a t i i i i 7 ; , u 6 6 6 6 u i i i s k k                                                                                         ",
"                                                                                                                                                                                                                                                %.%.:.>.>.>.>.>.>.%.%.%.$.$.( ^ ^ ! ! B k u * - * % > w 0 0 q w 0 0 0 > > > > > > > 0 0 0 0 > 0 0 0 0 0 0 w q w q 0 0 0 w w w e a p t k d i i 7 ; ; 6 , , 6 6 6 u s s k k k k                                                                                       ",
"                                                                                                                                                                                                                                              $.%.>.<.>.>.>.>.>.:.%.%.%.$.$.^ ^ ! ! ! B N j u t , % : , 0 0 0 0 0 0 0 > > > > 0 > > 0 0 0 0 0 0 0 0 0 q q q q w w q w w w w w e e e w i i i i i 6 - ; , 5 6 5 5 u s k m x k k x                                                                                     ",
"                                                                                                                                                                                                                                              $.%.<.<.>.>.>.:.%.%.%.$.$.( ^ ^ ^ ! Z B B B B N k p % : > 0 > > > 0 > > > > > > 0 0 0 0 0 0 0 0 0 0 0 q q q q q w q q w e w w w w w w w j j s s i i 6 , 6 6 5 5 , , u s m M k s j k                                                                                   ",
"                                                                                                                                                                                                                                              ( %.>.>.=.%.%.%.%.%.%.%.$.^ ^ ~ ! ! ! Z Z Z B B N C p : : : : & & : : & : > : > > > > > > > > 0 0 0 0 0 > > 0 0 0 0 0 q w 0 0 0 0 0 0 0 j j s i i i 7 6 , , 6 , , , 5 u j k j i u i                                                                                   ",
"                                                                                                                                                                                                                                            ~ ^ %.>.%.%.%.%.%.%.%.%.$.$.^ ^ ^ ^ ^ ( ^ ~ Z Z B N k t % O + O $ % % % % % % % % % % % & & & : : : : & & & & & & & & & & & & & & % % > 6 i i i i i i i 6 2 6 6 t 6 , , 6 i s s i i t u                                                                                 ",
"                                                                                                                                                                                                                                1.1.        ! ^ %.%.%.%.$.$.$.$.$.$.$.$.$.( ( ( $.( ^ ~ ! B M x k j 5 + . . . X + + O O O O $ O O $ $ $ O O $ $ $ $ + + O + + X X X X X X X X X X * u k g i i i d i u 6 2 6 6 t 5 5 5 t i i u i u u s                                                                               ",
"                                                                                                                                                                                                                          >.:.>.>.>.<.<.    B ( %.%.%.%.$.( ( ( $.$.$.$.$.$.%.%.%.( ~ ~ B M m x k j i 6 * X . . . . . . . . . . . X . . X X X X . . . . . . . . . . . . . . . . O 6 s s g i i i y 7 6 6 6 5 6 6 5 5 5 6 u i u u u u s                                                                               ",
"                                                                                                                                                                                                                    <.>.>.%.%.%.%.%.$.%.%.~ ! ( $.$.%.$.$.^ ^ $.$.$.$.%.%.%.%.( ( ~ Q B M N x k k s s i 6 ; # O O + X X X . . . . . . . . . . . . . . . . . . . . . X X X + * , i s i i i i i i y i 7 6 6 6 6 6 5 5 5 , 5 t u u u u i i                                                                             ",
"                                                                                                                                                                                                                >.>.>.>.>.%.%.$.$.( $.( ( B ! ^ $.$.$.$.( ^ $.$.$.$.%.%.%.$.( ^ ~ ! B B N m k k k j s i u 6 5 , ; ; ; ; - - * * - - - * * * < O + + + + + + + O O * - - , 7 i i i i i i i i d i 7 6 6 6 6 6 6 6 6 5 5 , ; , 6 u u u u u i                                                                           ",
"                                                                                                                                                                                                              %.%.%.%.%.%.%.%.$.$.^ ^ ^ ~ m ! ^ $.$.( ^ ^ $.$.$.$.$.$.$.( ( ^ ~ ~ ~ B N N m k k j j s s i i u 5 ; ; ; ; ; ; ; , , , , , , , , , , , , , , , , , , 5 6 u u i u 7 i i s i i i i 7 6 2 , ; ; , , 6 6 5 5 , , ; , u u u u u u                                                                           ",
"                                                                                                                                                                                                          >.:.%.%.%.$.$.( ( ( ^ ^ ^ ! ! B m ! ! $.^ ^ ^ ^ $.$.$.$.$.$.$.^ ^ ( / ~ ! B B N N m k j j j j s s i u u 6 6 5 , , 5 5 5 5 5 5 , , , 5 , , ; ; ; ; ; ; ; ; , 5 6 u u u i i i i i i y 6 2 6 , ; , , , , , 5 5 , , , , 5 t u t t 6 u                                                                         ",
"                                                                                                                                                                                                      %.%.%.%.%.%.$.$.^ ^ ^ ^ ! ! ! B B k N B ! ^ ^ ^ ^ ^ $.$.( ( ^ ^ ^ ^ ( ( ~ ~ ! Z B B B N N m k k k k k k k j j j s u 6 6 6 6 6 5 5 6 6 6 6 6 5 5 , , ; ; ; ; ; , , 5 6 t u u i i y 7 6 2 ; ; ; ; , 5 5 , 5 , , ; ; , , , , 5 u u t 6 6 u                                                                       ",
"                                                                                                                                                                                                  %.%.%.%.%.$.$.$.$.$.^ ^ ~ ! ! Z B B N k N B ! ~ ^ ^ ^ ^ ( $.$.^ ^ ^ ^ ^ ( / ~ ^ ! ! ! B B B N N N N N N x x m m m m m j i u 6 6 6 t 6 6 6 6 6 6 6 6 6 6 5 , , , , , , 5 6 6 t u u i i i i 6 ; ; ; , , 6 t 6 5 5 , , ; - ; ; ; ; 6 u t 5 u i i                                                                     ",
"                                                                                                                                                                                                %.%.$.%.$.$.$.( ^ ^ ^ ^ ! ! ! B B B N N k N B Z ! ~ ^ ^ ^ ^ #.^ ^ ^ ^ ^ ^ ( ~ ~ ^ ^ ^ ! ! Z B B B B B B B M B N B B B B N j i u u u u u u u t u t 6 t u t t 6 6 6 5 5 5 5 6 6 6 6 u u u u 7 6 2 6 6 t 5 , 6 6 6 5 5 , , ; - - - - , 6 u 6 6 7 6                                                                     ",
"                                                                                                                                                                                            %.%.$.$.$.$.$.$.$.^ ^ ~ ! ! ! B B N N N x k j k B B B ! ! ~ ^ ^ ^ ^ ^ ~ ~ ! ^ ( ^ ^ ^ ^ ^ ! ! ! ! ! ! ! ! ! ! ! ! ! ! ! ! ! ! N k i u i i i i u u u u u u u u u u u u t 6 6 6 6 6 t t t t u u 7 6 6 u i i i 7 6 6 5 5 , , , , ; - - - ; 5 t u i y : ,                                                                   ",
"                                                                                                                                                                                        %.$.$.$.$.$.$.$.$.$.$.^ ^ ! ! B B B N m N k k j j k N B B ! ! ^ ^ ^ ^ ^ ^ ^ ~ ~ ( ^ ^ ^ ^ ^ ! ! ^ ~ ^ ^ ^ ! ! ! ! ^ ^ ^ ^ ^ ! ! ! ! B N k i i i i i u i i i i i i i i i i u u u u u u u t t u u i 7 2 6 i i s k k i u 6 6 5 , , , ; ; ; - - , 6 u g i - *                                                                   ",
"                                                                                                                                                                                    %.%.%.$.$.$.$.$.$.$.$.$.^ ^ ^ ! ! B B B N m m k j s j k N N ! ! ^ ^ ^ ^ ^ ^ ^ ^ ^ ( ^ ^ ^ ^ ^ ^ ! ^ ^ ^ ^ ^ ~ ^ ^ ^ ^ ^ ^ ^ ^ ^ ^ ! ~ ~ ^ ~ B x s i i i i i i i i i i i i i i i i u u u u u u u u i 7 6 6 u s s k z x k i 6 6 6 , , , , ; ; - - ; , 6 i i ; * -                                                                 ",
"                                                                                                                                                                                  %.%.%.$.$.$.$.$.$.$.$.( ^ ^ ^ ! ! ! ! B B N m k k j s j k m N ! ! ^ ^ ^ ^ ^ ~ ^ ( ( ~ ! ! ^ ^ ^ ^ ~ ^ ^ ^ ! ! ^ ^ ^ ^ ^ ^ ^ ^ ^ ^ ^ ^ ^ ( ( ( ^ ~ B k s i i i i i i i i s s s s s s s i i i u i i i y 6 6 u i j k x k g g k i i 6 , , ; , , ; ; ; * ; , 6 i 6 ; -                                                                 ",
"                                                                                                                                                                              %.$.$.%.%.$.$.$.$.$.$.$.$.( ^ ^ ! ! ! ! B B M N m k k s i s j m B ! ! ^ ^ ^ ! ! ~ ( ( ~ ! ! ~ ^ ^ ^ ^ ( ^ ^ ! ! ~ ^ ^ #.^ ^ ^ ^ ^ ^ ^ ^ ^ ^ ( ( ^ ^ ! Q B m k s i i i i i s s s s s s s i i i i i g k d y 7 u i i j k k i g k k k g i 6 6 , ; , , , , - - ; 5 u u - ;                                                                 ",
"                                                                                                                                                                          %.%.$.$.$.$.$.$.$.$.$.%.$.$.$.^ ^ ^ ! ! ! B B B M N k k j s i s k m N Z ^ ^ ^ ! ! ! ^ ( ~ ~ ! ! ^ ^ ^ ^ ^ ( ^ ^ ! ! ^ ^ ^ ^ ^ ^ ^ ^ ^ ! ! ! ! ! ^ ^ / / ~ ~ ! Z B k s i i i i i s s s s s i i i i i d k d y i i i i s j k g i g g k k k k g i u 5 , , , , - - - , 5 i ; ; *                                                               ",
"                                                                                                                                                                        %.$.$.$.$.$.$.$.$.$.$.$.$.%.%.$.$.^ ^ ! ! ! B B B N m k k j i i s k m B ! ^ ^ ~ ! ! ~ ( ~ ~ ! ! ^ ! ~ ^ ^ ^ ( ^ ~ ! ^ ^ ^ ^ ^ ^ ^ ^ ~ ! ! ! ! ! ! ! ! ~ ~ / ( ( ^ ~ B B N k j s i s s i i i i i i i i g k g i i i i i j k k k d k k g k k k k g i u 6 5 5 , , - ; ; , , 6 ; *                                                               ",
"                                                                                                                                                                      $.$.$.$.$.$.$.$.$.$.$.$.$.$.$.$.$.$.$.^ ^ ! ! B B N N m k j s i i s k m B ! ^ ! ! ! ~ ^ / ~ ~ ~ ^ ! ! ~ ^ ^ ^ ^ ~ ! ! ^ ^ ^ ^ ^ ^ ! ~ ! ! ! ! ! ! ! ! ! ! ! ~ ~ ^ ^ ^ ~ ! ! ! ! B M k k j j s i i i i i k k g i i i s s k k k d d d g k k k k k k g d u 5 6 6 6 ; ; , , , , ; ;                                                               ",
"                                                                                                                                                                    $.$.$.$.$.$.$.$.$.$.$.$.$.$.$.$.$.$.$.$.( ^ ^ ! B B N N m k j j i i s j m B ! ! ! ! ~ ~ ^ ( ^ ~ ~ ! ! ! ^ ( ( ^ ^ ! ! ^ ^ ^ ^ ^ ^ ~ ! ! ! ! ~ ^ ^ ^ ^ ^ ^ ^ ^ ^ ^ ^ ! ! ! ! ! ^ ^ ^ ^ ~ ! B N k s i i i i k l d i i i i k k k g g g g g k k k k d g g g g i 7 6 6 , ; , ; , ; 2 ; -                                                             ",
"                                                                                                                                                                  $.$.$.$.$.$.$.$.$.$.$.$.$.$.$.$.$.$.$.$.^ ^ ^ ! ! ! B B N m k k j i i s j N B Z ! ! ! ~ ~ ( ( ^ ! ! ! ! ~ ^ ( ^ ^ ~ ! ^ ^ ^ ^ ^ ^ ~ ! ! ! ! ^ ^ ^ ^ ^ ^ ^ ^ ^ ^ ^ ^ ! ! ! ! ! ^ ^ ^ ^ ^ ~ ^ ~ ! B k j i i s k k d i i i i s k k k k k g g s k g k k i i g g g i 6 2 , , ; ; ; , , 6 ;                                                             ",
"                                                                                                                                                                $.$.$.$.$.$.$.( $.$.^ ( $.$.( ^ ^ ^ ^ ( ( ^ ^ ! ! ! B B B N N k k j s i i j N B B Z ~ ~ ~ ~ ( ~ ! ! ! ! ! ~ ^ ^ ^ ^ ^ ^ ^ ^ ^ ^ ^ ^ ~ ! ! ~ ^ ^ ^ ^ ! ! ! ^ ^ ^ ^ ^ ! ! ! ~ ~ ( ( ( ^ ! ! ! ! ! ! ! B M k s g k d i i s k k g k k k k k g i g s k s g k g i s g k d i i 5 , ; ; ; , 6 6                                                             ",
"                                                                                                                                                              $.$.%.$.$.$.( $.$.$.( ( ^ ( ^ ^ $.$.$.( ^ ^ ^ ^ ! ! B B B B N m k k j i i i k N B B B ~ ~ ~ ^ ^ ! ! ! ! ! ! ~ ^ ^ ^ ~ ^ ^ ^ ^ ^ ~ ^ ^ ! ! ^ ~ ! ! ! ! ! ! ! ! ~ ~ ^ ~ ! ! ~ ~ ( ( ( ( ^ ~ ! ! ! ! ! ! B B B N z z k i s s k k k k k i k k k k g k g k k k k d i s g k g i u , ; ; ; ; , 6                                                             ",
"                                                                                                                                                            $.$.$.$.^ ^ ^ $.$.$.^ $.( ^ ^ ^ $.$.$.( ( ^ ^ ^ ^ ! ! ! B B N N m k k j s i s k N N B B ~ ~ ~ ~ ~ ! ! ! ! ! ! ~ ^ ^ ! ! ! ^ ^ ~ ! ! ! ! ! ~ ~ ! ! ! ! ! ! ! ! ^ ~ ! ! ~ ~ ~ ~ ~ ! ^ ^ ~ ! ! ! ! ! ! Z B B B B Q ^ ^ B k k j N N k x k i k k k k k s i g k k k d i i s g k k i 6 , ; ; , , 6 ,                                                           ",
"                                                                                                                                                          $.$.$.^ ^ ^ ^ ^ ( ( ^ ^ ( ( ( ( $.$.$.$.$.( ^ ^ ^ ^ ! ! ! B B N m k k j j s i s k N N B B ~ ~ ~ ! ! ! ! ! ! ! ~ ^ ^ ^ ~ ! ! ^ ^ ! ! ! ! ! ! ~ ! ! ! ! ! ! ! ! ! ~ ^ ^ ^ ^ ^ ^ ^ ~ ^ ^ ^ ~ ! ! ^ ! ! Z B B Z ! Q Q ^ / I B M B ! ! m x k d i i i g k d d g g k k g i i i g k k g i , , ; , 2 6 2                                                           ",
"                                                                                                                                                        $.$.^ ^ ^ ^ ^ ^ ^ ^ ^ ^ ^ ( $.$.$.$.$.$.$.$.( ^ ^ ^ ^ ! ! B B N N m k k j j s i s k m N B Z ! ! ! ! ! ! ! ! ~ ~ ^ ^ ^ ! ~ ! ! ! ! ! ! ! ! ! ! ! ! ! ! ! ! ! ! ! ! ^ ^ ^ ^ ^ ^ ^ ^ ^ ^ ^ ^ ^ ^ ^ ^ ^ ^ ^ ^ ! ~ ~ ^ Q ^ / / ~ B ! ^ $.^ M k g i i i i k k g g g g k k d i g g k k k i 6 , ; , 6 2 2                                                           ",
"                                                                                                                                                      $.^ ^ ^ ^ ^ ^ ^ ^ ^ ^ ( ^ ^ $.$.$.$.$.$.^ ^ ( ^ ^ ^ ^ ! ! Q B B N N m k k j s i i i j k N B B B ! ! ! ! ! ~ ^ ^ ^ ^ ^ ! ! ! ! ! ! ! ! ! ! ! ! ! ! ! ! ! ! ! ! ! ! ~ ~ ^ ^ $.$.$.$.( ( $.( ( $.$.( ^ ^ $.( ^ ^ ^ / ( ^ ^ / / ^ ^ ~ ^ $.%.^ M k k s s i g g k k g d g g k g g g k k k k y 6 , , 6 6 2 ;                                                         ",
"                                                                                                                                                      ^ ^ ^ ^ ^ ^ ^ ^ ^ ^ ^ ^ ( $.$.$.$.$.$.$.^ ^ ^ ^ ^ ^ ^ ! ! Q B B B N N k k j s i i i j k m B B B ! ! ! ! ! ~ ~ ^ ^ ^ ! ! ! ! ! ! ! ! ! ! ! ! ! ! ! ~ ! ! ! ! ! ! ! ~ ^ ^ #.$.$.$.$.( $.$.$.$.$.$.$.( ^ ( ^ ( ( ( / ( ( / / ) / ( ^ ^ $.%.$.~ x k k k g s d k k s g d g k k g g g g k k i 6 , , 6 6 6 ,                                                         ",
"                                                                                                                                                    ^ ^ ^ ^ ^ ^ ^ ^ ^ ^ ^ ^ ( ( $.( #.#.$.$.^ ^ ^ ^ ^ ^ ^ ^ ! ! Z B B B N N m k k j s i u i k m N B ! ! ~ ~ ~ ! ! ~ ~ ~ ! ! Z ! ! ! ! ! ! ! ! ! ! ! ! ~ ! ! ! ! ! ! ! ! ~ ^ ^ ^ $.( #.^ $.$.$.%.$.$.$.$.$.( ( ( ( ( ) ) ) ) ) ) ) %.) / ( $.%.%.$.( M k k g j d k k k i g d g k g k i i g g k i 6 , 6 6 6 6                                                         ",
"                                                                                                                                                  ^ ^ ^ ^ $.^ ^ ^ ^ ^ ^ ^ ^ ^ ^ ^ ^ ^ ^ ^ ^ ^ ^ ^ ^ ^ ^ ! ! ! ! B B B B N N m k k j s i u u j m B B ! ~ ~ ~ ! Z ! ~ ~ ! ! Z Z ! ! ! ! ! Z Z ! ! ! ! ! ! ! ! ~ ~ ! ! ! ! ~ ^ ^ ^ ^ ^ ^ ^ ^ ( $.%.%.%.$.$.$.$.( ( ( ) %.%.%.%.%.%.%.-.-.) ( ( $.=.%.( ^ M k k k i g k k g g g i g g g k g g k s d y , , 6 , 2 2                                                       ",
"                                                                                                                                                ^ ^ ^ ^ $.$.^ ^ ^ ^ ^ ^ ^ ^ ^ ^ ^ ~ ^ ^ ^ ! ! ~ ~ ^ ~ ! ! ! ! ! B B B N N N k k k j s i u u j m B Z ^ ^ ! ! Z ! ! ~ ! Z B B ! ! ! ! ! B B Z ! ! ! ! Z ! ! ! ~ ~ ~ ~ ! ! ^ ^ ^ ^ ^ ^ ^ ^ ^ ^ $.$.%.%.%.$.$.%.%.( ( %.%.%.%.-.-.-.-.-.-.-.%.( ( $.%.$.) ^ M k k k i s d d g s i i i g k k k g d i i 6 , 6 2 , 6                                                       ",
"                                                                                                                                                ^ ^ ^ $.$.^ ^ ^ ^ ^ ^ ^ ^ ^ ^ ^ ~ ~ ! ! ! ! ! ! ! ! ! ! ! ! Z B B B N N N m m k k j j s i u i m B ! ^ ^ ! ! ! ! ! ! Z B B Z ! B B B ! B B B Z ! ! ! Z ! ! ! ~ ~ ~ ^ ^ ~ ^ ^ ^ ! ^ ^ ^ ^ ~ ~ ^ ^ $.%.%.%.$.$.%.%.%.%.%.%.-.-.-.,.,.-.-.-.-.$.( $.%.%.$./ ~ M k k d s i i d d i i i d g k k i i i i i 6 2 6 , 6 6                                                     ",
"                                                                                                                                              ^ ^ ^ ^ ^ ^ ^ ^ ^ ^ ^ ^ ^ ^ ^ ^ ^ ^ ~ ! ! ! ! ~ ~ ! ! ! ! ! ! ! ! B B B N m k k k k j j s i u u k B Z ! ! ! Z ! ~ Z B B B Z Z B B B B Z B B B Z ! ! Z ! ! ^ ^ ^ ^ ^ ^ ^ ^ ^ ^ ^ ! ~ ^ ! ! ! ! ! ^ ( %.%.%.%.%.%.%.%.%.-.,.-.-.-.,.,.,.-.,.-./ ( ( %.%.%.%./ ~ B x k g d i i d g g g i g k k d i i i i i 2 2 , , 6                                                     ",
"                                                                                                                                              ^ ^ ^ ^ ^ ^ ^ ( $.$.( ^ ^ ^ ^ ^ ! ~ ! ! ~ ^ ! ! ! ! ! ! ! ! ! ! ! B B N m k k k k j j s s i i t s B B B ! B B B B B B B Z Z B B B B B B B B B Z ! ! ! ! ^ ^ ^ ( ( ( ^ ^ ^ ^ ^ ! ! ! ! ! ! ! ! ~ ^ ^ ^ ^ ^ ^ ( $.%.%.%.%.-.-.-.-.-.-.,.-.,.-.%./ ( $.%.%.%.%.^ ~ B z k d d g d g k g g i i g k d d i i i 6 2 , , 6 ,                                                   ",
"                                                                                                                                              ^ ^ ^ ^ $.$.$.$.$.$.( #.^ ^ ^ ~ ^ ! ^ ^ ^ ~ ! ! ! ! ! ! ! ! ^ ! ! B B N m k k k j j s s i i u t i N B B ! Z B B B B Z ! Z B B B B B B B B B B Z ! ! ~ ^ ^ ^ ^ ( ( ( ^ ^ ^ ^ ! ! ! ! ! Z Z Z ! ^ #.^ ^ ^ ^ #.^ #.#.$.$.$.%.%.%.%.%.%.-.-.-.,.-.%.( $.%.>.%.%.%./ ^ B z k d i d g d k g i i i g g d d i i i , ; ; 6 , 6                                                 ",
"                                                                                                                                            ( ( ^ ^ $.$.( ( $.$.$.( ^ ^ ^ ^ ^ ^ ^ ^ ^ ^ ! ~ ~ ! ! ! ! ! ! ! ~ ! B B B N m x k j s s i i u u t u k M B ! B B B B Q ! ! B Z Z B B B B B Z Z Z ! ! ! ^ ^ ^ ^ ( ( ( ( ^ ^ ^ ! ! ! ! ! ! ! ! ^ #.#.^ ^ ^ ^ #.$.$.$.%.%.%.%.%.%.%.%.%.$.%.%.%.%.%.%.( $.$.%.%.%.-./ ^ ^ B x k g d d i g d d i i i d d i d i i 7 , , 2 2 ;                                                 ",
"                                                                                                                                            ( ( ^ ^ ( $.$.$.^ $.$.^ ^ ^ ~ ^ ^ ^ ^ ^ ^ ^ ~ ~ ~ ! ! ! ! ! ! ! ~ ! B B B M N x x j s i i i i u i u j N M B B B B Z ! ! B Z Z B B B B B B Z ! ! ! ! ~ ^ ^ ^ ( ( ( ( ^ ^ ~ ! ! ! ! ! ! ~ ^ $.$.$.$.( $.( ^ ^ ^ #.$.$.$.$.$.$.%.%.=.>.=.=.=.=.%.%.$.$.$.$.#.#.$.%.-./ / / B z k d i i d d i i i i s i d d i i i 6 , ; 2 ; 2                                               ",
"                                                                                                                                          $.( ^ ^ ^ ^ ^ ^ ^ ^ ^ ^ ^ ^ ^ ^ ^ ^ ^ ^ ! ! ^ ^ ! ! ! ! ! ! ! ! ! ~ ^ B B M N N x k k s i i i u i i u j x M M M B B Z B B B B B B B B B B Z ! ! ! ^ ^ ^ ^ ^ ( ( ( ( ( ^ ~ ! ! ! ! ! ^ #.$.$.$.$.$.$.( ^ ^ ^ ^ ^ ^ ^ ^ #.#.$.$.$.%.%.%.=.>.>.%.%.%.%.$.$.$.$.$.#.#.%.) / ) ( B M k d d d d d i i i i 7 i i i i i i 2 ; , , ,                                               ",
"                                                                                                                                          ( ^ ^ ^ ^ ^ ^ ^ ^ ^ ^ ^ ^ ^ ^ ^ ^ ^ ^ ^ ! ! ! ! ! ! ! ! ! ! ! ! ! ! ! ! B B N N k k k j i u u u u i u j m M M M B Z B B B B B B B B B B B Z ! ! ~ ^ ^ ^ ^ ^ ( ( ( ( ( ^ ~ ! ~ ~ ~ ^ #.$.$.$.$.^ ^ ^ ^ ~ ^ ^ ^ ^ ^ ^ ^ ^ ^ ^ ^ ^ #.$.$.$.$.%.%.$.$.$.$.$.$.$.$.$.$.$.( / / ) ~ B B k d d g d i i y 7 , 6 7 y i i i 6 , , , , 6                                             ",
"                                                                                                                                        ( ^ ^ ^ ^ ^ ^ ^ ^ ( ^ ^ ^ ^ ^ ^ ^ ^ ^ ^ ~ ! ! ! ! ! ! ! ! ! ! ! ! ! ! ! ! Z B N N m k j j s i u u u i u i k m m B B B B B B B B B B B B B Z ! ! ! ! ^ ^ ^ ^ ^ ( ^ ( ^ ~ ~ ~ ~ ~ ^ $.$.$.$.$.^ ^ ^ ^ ^ Q ! ! ! ! ! ! ! ! ! ! ! ! ! ! ! ! ^ ^ ^ ^ ^ ^ ^ ^ ^ ^ ^ $.$.$.$.$.( ( %.( ~ ~ B z k i d i i i 6 , i 7 y i y y 7 6 , , 2 6                                             ",
"                                                                                                                                        $.$.$.#.#.^ ^ $.( $.^ ^ ^ $.^ ^ ^ ^ ! ! ! ! ! ! ! ! ! ! ! ! ! ! ! ! Z B B B B B N m k k j s i u u u i u s k x m B B B B B B B B B B B B Z ! ! ! ! ~ ^ ^ ^ ^ ^ ^ ^ ~ ~ ~ ~ ~ ^ ^ #.$.$.#.^ ^ ! ~ ~ ^ ! B B B ! Q B B B B Q B B B ! ! ! ! ! ! ! ! ! ! ! ! ^ ^ ^ ^ ^ #.#.#.$.$.%./ ( ( ^ ~ B k i i i i 6 , i , , y i i i 6 6 ; 6 7                                             ",
"                                                                                                                                      $.$.$.$.$.$.( ^ ^ ^ ^ ^ #.#.^ ^ ^ ~ ! ! ! ! ! ! ! ! ! ! ! ! ! Z Z Z Z B B B Z B B B N k j j s i u i i i i i j k m B B B B B B B B B B B Z ! ! ! ! ! ^ ^ ^ ^ ^ ^ ^ ! ! ~ ~ ~ ^ ^ $.#.#.^ ! ! ! ! ^ ~ ! Q B B Q Q Q B B B B B B Q B Q Q Q Q B Q Q Z B Z Z ~ ~ ^ ^ ~ ! ! ~ ^ #.$.$./ $./ ( ( ^ B k i i i 7 ; 6 ; , 7 y i i 6 6 ; 6 7                                             ",
"                                                                                                                                      ^ ^ ( $.$.^ ^ ^ ^ ^ #.^ ^ ^ ^ ^ ^ ^ ^ ~ ! ! ! ! ! ! ! ! ! ! ! ! ! Z Z B B B Z B B B N m k k j i i u u i i i j k m M B B B B B B B B B B ! ! ! ! ! ! ^ ^ ^ ^ ^ ^ ! ! ! ~ ~ ^ #.#.#.^ ! ! Q Q Q ! ! Q Q B B B B B B B B B B B Q Q Q B B B B B B B B Q B B Q ~ ~ ~ ~ ~ Q Z ! ! #.#.$.( $.%./ ( ^ B k g s i 2 , 6 , 6 i i i 7 6 ; 2 7                                             ",
"                                                                                                                                    ^ ^ ^ ^ ^ ^ ^ ^ ^ ^ ^ ^ ^ ^ ^ ^ ^ ^ ^ ^ ^ ! ! ! Q Q ! ! ! ! ! Q ! ! ! Z B B B B Q B B N N m j j i i u u s s i s k x M B B B B B B B B B B ! Z Z B B ! ! ^ ~ ! ! ! B ! ! ^ ^ #.^ ! ! ! ! Q B B B B B B B B B B B B B B Q B B B B B Q B B B B B B B B Q ~ ~ ~ ~ ~ ~ ~ ^ ~ ~ B Z ! ^ #.#.$.$.%./ ( ^ B M k i 7 ; 7 , , u i i i 6 ; 2 6                                             ",
"                                                                                                                                    ^ ^ ^ ^ ^ ^ ^ ^ ^ ^ ^ ~ ! ~ ^ ^ ^ ^ ^ ^ ^ ~ ! ! ! ! ! ! ! ! ! ! ! ! ! ! Z B B B B B B N N m k j i i u u i s i i j x N B N N B B B B B B B B B B B B B B B B B N B ! ! ! ^ ^ ! ! ! ! ! Z B B B B B B M B B M M N N N B B B B B M B B B B B B B Q Q ! ~ ~ ^ / / ~ ~ ^ ( ( ( ~ B B ! ! #.#.$.$./ / ^ I B M k d 7 , 7 , 2 i i i 6 , , 6                                             ",
"                                                                                                                                  ^ ^ ^ ^ ^ ^ ^ ^ ^ ^ ^ ^ ! ^ ^ ^ ^ ^ ^ ^ ^ ^ ! ! ! ! ! ! ! ! ! Z Z B ! ! Z ! ! B B B B B N N k k j i u u u u s i i j k N N N N N B B B B B B B B B B B N N N N N B ! ! ! ^ ^ ! ! Z ! ! ! B B B B B B B B Q B N N M N N N B B B N M B B B B B B B B B B B ~ ~ ~ / ( ( ^ ~ ~ ~ Z B N B ! ! ^ #.^ ( / ^ ~ ~ B x k i 6 2 2 ; i i d 6 , , 6                                             ",
"                                                                                                                                  ^ ^ ^ ^ ^ ^ ^ ^ ^ ^ ^ ! ~ ^ ^ ^ ^ ^ ^ ^ ^ ! ! ! ! ! ! ! ! ! ! B B B B ! ! ! Z B B B B B N N m k j i u u t t u u i j k m N N N N B B B B Z B B B B B N N N N B Z ! ! ! ^ ^ ^ ! Z Z ! ! B B B B B B B B B B N N N N N N N N N N N N N M B B B B B B B B B B B ~ ~ ~ ~ Q B B B B B M B B Z ! ! #.^ ( / ^ ~ B B x g i 6 6 ; 6 i d 7 2 , 2                                             ",
"                                                                                                                                ^ ^ ^ ^ ^ ^ ^ ^ ^ ^ ^ ^ ~ ^ ^ ^ ^ ^ ^ ^ ^ ! ! ! ! ! ! Q Q Q Z Q B B B B Z B B B B B B B B N N m k j i i u u t t u i j k m N N N N N B B B Z Z B B B B N N m N ! ! ^ #.( ( ~ ~ ! B B Q ! B B B B B B B B N N N x N N N N N N N N N N N N N N B B B B B B B B B B B M B M N N M B B B B N B B ! ! ! ^ ~ ~ ~ I B M k g i u , , y i i 6 2 ,                                             ",
"                                                                                                                                ^ ^ ^ ^ ^ ^ ^ ^ ^ ^ ^ ^ ^ ^ ^ ^ ^ ^ ^ ^ ! B B Z B B B B B B B B B B B B B B B B B B B B B N N k k j s i u u t t u i j k m m m N N B B B B Z Z B B B B N N k B ! ^ ^ ^ ^ ^ ^ ~ Z B B Q Q Q B B B B B B B N N N N N N N x x x m m N N N N N N N M B B B B B B B B B N M M N N N N N B B B N N B B ! ! ! ! I I B B z k s i 6 ; 7 i i i 2 ,                                             ",
"                                                                                                                              ^ ^ ^ ^ ^ ^ ^ ^ ^ ^ ^ ^ ^ ^ ^ ^ ^ ^ ^ ^ ! Z B B B B B B B B B B B B B B B B B B B B B B B B B N k k j i i u t 6 6 u i s j k m m N B B B B B B Z B B B B N N N ! ~ ^ ^ ~ ~ ~ ~ ! B B B Q ! ! B B N B B B N N N N N N N x x x x k k k N N N N N N N N M B B B B B B B N N N N N N N N N B B N N M B B ! ! ! B M B B B k k i 7 ; , d i i , ,                                             ",
"                                                                                                                              ^ ^ ^ ^ ^ ^ ^ ^ ^ ^ ^ ^ ^ ^ ^ ^ ^ ^ ^ ! B B B B B B B B B B B B B B B B B B B B B B B B B M B N k k s i u u 6 5 , t i s j k m m N B B B B B B B B B B M N N M ~ ~ ~ ~ ~ ^ ~ ~ Q B B Q Q ! ! ! B N B B B N N N N N N x x x N N N m m m N N N N N N N N B B B B B B B N N N N N N N N N N M B N N N N B Z ! ! Z N x M z k k i , ; i d i 2 , ,                                           ",
"                                                                                                                            ^ ^ ^ ^ ^ ^ ^ ^ ^ ^ ^ ^ ^ ~ ~ ^ ~ ^ ^ ! B N N N N N B B B N N N N M B B B B B B B B B B B B N N x k k s u u t 6 , , 6 u i j j m m N B B B B B B B B B M M N N B ^ ! ~ ~ ~ ^ ~ B B B ! B B B B Z B B B B N N m x N N N N m N N N N N N N N N N N N N M M M M B B B M M N N N N N N N N m x x M M m m m N B B ! ! ! M x x x k d 6 ; 6 g i 7 , ,                                           ",
"                                                                                                                            ^ ^ ^ ^ ^ ^ ^ ^ ^ ^ ^ ~ ! ! ! ! ! ! ! Z N N N N N N N N N N N N N N N N N N N B B Z B N B B N x x k j s u u 6 5 , , 6 u i s j k m N B B B B B B B B B M M m M ~ ^ ~ ~ ~ ~ ! B B B B ! B B B B B B B B B N N N N N N N N N N N N N N N N N N N N M M M M M M M M M M M N N N x N N N m x k x N N N m m N B B B ! ! ! M x k k g u , ; i i i , 2                                           ",
"                                                                                                                          ^ ^ ^ ^ ^ ^ ^ ^ ^ ^ ^ ^ ^ ! ! ! ! ! ! ! B N N m x x k m m N N N N m k m m m N N N B B B B M B N x k k j i u t 6 , ; ; 6 u i s j k m N B B B B B B B B M M m x B ~ ~ ~ ^ ~ ~ B B B B B Z B Z B B B M N B B M M M M N N N N N N N N N N N m m m N N M M M M M M M M M M M M N N x x x x x x x k x N m m m N M B B B ! ! ! M x k d i 6 ; i i y 6 6                                           ",
"                                                                                                                          $.$.( ^ ( ( ( ( ( ^ ^ ^ ^ ^ ^ ^ ^ ^ ~ ! ! ! B B M N k k k k k N N m k k k m m N N N N N N N N m k j s s i u 6 5 , ; ; 6 u i i j k k m B B B B B B B B M M z m B ! ~ ~ ~ ~ ~ ~ ! B B B B B B B N N N N B B B B B M N N N m m N N N M M M M M M N M M M M M M M M m m N m m N N m N N x N m x k k x N m N m N M M M B B ! ! B x k i 7 , , s i 7 2                                           ",
"                                                                                                                        $.$.$.$.$.$.$.$.$.$.( $.$.$.^ ^ ^ ( $.%.%.$.^ ~ ! ! B B x k k k k m k k k k k k m N N N N N N x k k s i i u 6 6 , ; ; ; 5 u u i s j k m N B B B B B B B M M x B B ! ! ~ Z ~ ~ ~ Q B B B N N N B M N M N B B B B M M N m k k x N N M M M M M M M M B B B B B M M M m m x x x m m x x x k x N x x k k k x N N m N N M M M B Z ! B M g i 2 ; i i i 6                                           ",
"                                                                                                                        $.$.$.$.$.$.$.$.$.( ( $.$.$.^ ( ( %.%.%.%.( ~ ~ ! Z B B N B m j s j k k k k k k k k N x N N N k k k s i u u 6 5 , ; ; ; 5 u u i s j k m B B B B B B B B M M x B B ! ! ~ B ~ ~ B B B B B N N N B M N M M N M M B M M M N m x x k k m M M M M B M M B I ~ I B B B M x x x k x x x x x x k x x x x k k k k x k k x N M M M M B B Z B k i 6 ; 6 i i 7                                           ",
"                                                                                                                        $.%.$.$.$.$.$.$.( ( ( ( ( $.$.%.%.%.%.( ( ~ ~ B B Z B B B B B N k j s i s k k k k k k x x x k k k k s u u 6 5 , ; ; - - 5 6 u i s j j k N B B B B B B M M m m B B B Z I B Z B B B B B N N N N N N N B M N N N N x x x k k k k k k m M M x x N M M M M M B M M M x k x x x x x x x x x x x x x x x k k k x x k k x M M z M M N B Z B x i , ; i y y                                           ",
"                                                                                                                      $.%.%.$.$.$.$.$.$.%.) $.$.$.%.%.%.%.%.( ^ ! ^ ! ~ ~ ~ / ~ B ~ B B N N k k j k k x x x x x k k k k k k i u 6 5 , ; ; - - - 5 6 u i i j j k m N B B B M M M M x M B ~ B ~ I Y Y B B B B B N N N N N N N B B N N k k k k k k k k k j k k m M x x x x x z M M M M z x x x x x x k k x x k x x x k k k x k k k x x k k x N M M M M N x N B B m 6 ; u y                                             ",
"                                                                                                                      %.$.$.$.$.$.$.%.%.%.%.%.%.%.%.( ( ^ ^ ^ ! ! Q B B ~ ~ ~ ~ ~ ~ B B M M M N N x x x z M M x x k x k k k i u 6 , ; ; ; - - - , 6 u i i s j k m N B B B M M M M k B Q ~ I B B ~ Y B B B B B B M N N N N N N M N x x x x k k k k k k j j j k k x x x x x x x x x x k k x x x x x k k k k k k k k k k k k x x k x m k k x m M M M M M x k N B B k , , y                                             ",
"                                                                                                                    $.%.%.$.%.%.%.:.%.%.%.%.%.%.%.( ~ ! ! ! ! ! ! B B B ~ ^ ~ ^ ^ ~ B B B M N N M N x M M M M M k k k x k k i i u 6 , ; ; - - - , 6 u i i s j k x N M B B B N M m N ! ~ ~ I B B ~ Y B B B B B B M M M M M M M M N m x x x x k k k k j j j j j j j k k m m x x x x k k k k k k k k k k k k k k k k k k k k k x x x x x k x x M M m M M x x k x N B u , i                                             ",
"                                                                                                                    %.%.%.%.>.>.%.%.,.%.%.%.%.( ^ ^ ! ~ ^ ! ! ! Q B B Q ~ ^ ~ ~ ~ ~ B B Q B B B B N N M M M M M M M x x k k k i i 7 5 , ; ; - - , 6 7 u i s k k k m M B B B M m N B ~ ~ ~ B B B I Z B B B B B B B B B M B B B M m m m x M M m x x k k j k k j j j j s s j k k k x k k k k j j s i s s s s s j j s i i i s k k k x x x k x m m M m x x x x k k k N x 5 6                                             ",
"                                                                                                                  %.%.%.%.<.<.%.%.%.%.%.%.%.( ( ~ ~ ~ ~ ! ! Q Q B B M B ~ ~ Q ~ ~ Y ~ ~ ~ ~ ! B B B B M M M M N B B B z k k k k i i 6 6 , ; - - , 6 6 u i i s k k m M B B B M x N B B B ~ B B B B B I Z B B M B M M M M M M B B M m x x M M M m m x k k k k k g k j j s i s s j j k k k k j s i i i s s i i i i i i i i i s j s k x x k x M x x m x k x x x k j k x i ,                                             ",
"                                                                                                                  %.%.%.%.%.%.%.%.%.%.%.%./ ( ( ( ~ ~ ~ ! B B B B B B B B B B B Z B B B ~ ~ Z B Q B B B B B M N M M M M k s s s s i 7 6 6 ; ; ; , , 6 6 u i i s k x M M B B x k M B B B Q B B B I B B ~ B B M M M M M m m M M B M m x x x z M M x x k k k k k g k k j s i i s s s s k k k k i i i j k k i i i i i i i i i s j s i k x z x m x k x x k k x x k j k k k ,                                             ",
"                                                                                                                  %.%.%./ ) %.%.%.%.( ^ ( ( ( ^ ~ Q B B B Q ! B B B B B B B B B B ! ~ ^ ~ ~ ~ ~ ! Q ~ ! B B B B B B M M M k s i i s i u 6 2 ; ; ; , 5 6 6 u u i s j k x M M k m B B B B B B B ~ I B B B B M M M M M m x x x m N x x x x k x x x x x x x x k k k s s s i s s s s s i i i i i i i i i s s i i i i i i i i i i i j i g k x x x k k k k x k k k x k s j k i ,                                           ",
"                                                                                                                %.%.%.) ) ) ) %.%.) ^ ^ ( ( ^ ! B B B B Q ~ ~ ~ B ~ B B B B B B B B B ~ ~ Q B B ~ ~ ~ B B B B B B B B M N x k s s j k k 7 6 6 6 ; , , 6 6 t t u i i i s x k m M B B B B M B B B ~ M M M M M M M M z x m x x x x x x k k k k k x k x x x x k s s s s s s g g s s s i i i i i i i i i i i i i i i i i i i i i i i i i k k k k k j s j x M x k k x k s j k 6                                           ",
"                                                                                                                %.%.( ( ) %.%.( ^ ~ ^ ( ^ ~ B M B B B B B I B B ~ ~ ~ ~ B B B B B B ~ ~ ~ B B I ~ ~ ~ ^ ~ ~ I B B B B M m N k k k k k k k g 7 6 2 , , 5 6 6 t u u u i i k k M B B B M M B B B B I M M M M z x x x x x x x x k k x k k k k k k k k k k k d i i i i i i s i i i i i i i i i i i i i i i i i i i i i i i i i i i i i i i k k k k j i s k x M x k j k k s j i ,                                         ",
"                                                                                                                %.( ( ( ( / ( ~ ! ! ~ ~ Q B B B B B B B B B B B ~ ~ / ^ I B B B B B Y ~ ~ B B I Y ~ ~ ^ ^ ^ ^ B B M M M m M m x k k k k g g i 7 6 , , , 5 6 6 t u u i i k k M M B B M B B B B B B M M M M z x x x x x x x k k k k k k k k g g d d g k i i i i i i i i i i i i i i i i i i i i i i i i i i i i i u u u u y i i i i i i i d g k k s s k k x x k s i k k j k u                                         ",
"                                                                                                              %.$.( ~ ~ ~ ~ ^ B ! ! ~ ~ Q B Z B B B B B B B B ~ ~ ~ ~ ~ B B B B B B Z ~ ~ Z Y Z B ~ ^ ~ ~ ~ ~ ~ M N M N N x x x k x x x x k i y 7 6 , , , , 5 6 6 6 t u s x N M M M M B B M B B B M x M M x x k x k x x x k k k k k k k d d g d d i i i i i i i i i i i i i i i i i i i i i i i i y i i u u u u u 7 7 7 7 7 u u i i i i i i i s k k g g k k k k i i j j j j                                         ",
"                                                                                                              %.%.( ~ ~ ~ ~ ~ ~ ~ ~ ~ ~ B B I B B B B B I I B ~ ~ ~ ~ B B B B B B B B B B B Z Z B B B B B B B I M M M N N x x x k k x M x k k g i i i u , , , , 5 5 5 6 j m N N N M M B B M M B B M x x x k k k k k x x x k k k k k k k i d k d i i i i i y y u i y i u u u u u i i i i i i i i y y u u u u 7 7 7 7 7 6 6 6 6 6 7 u y i i i i i i k k i s g k k j i i i s j s                                       ",
"                                                                                                            %.%.) ( ~ ~ ^ ~ ~ ~ ~ Y ~ B B B B B B B B B B B B ~ I B B M B B B B B B M M B B B B B M B B B B B B M M N N N N k x x k k x x x k k s i i i 6 , , , , , , 6 k N N N N M M B B M x B B M z x k k k k k x x x k k k k k k k k g g d i i i i i i i y u i i u u 7 7 u u u u u u y y y u 7 7 7 7 u 7 7 7 7 6 6 6 6 6 6 6 6 7 7 u i i i i i g g g s s s j s i i i i i k                                       ",
"                                                                                                            %.( ( ( / ( ~ ! ~ B B ~ ~ B B B B B B I B B ~ ~ I ~ B B B B B B B I B B M M M M M M M M B I ~ I B B B B N N N N x x x x x x x x x k k k s i u 2 ; ; ; ; ; 6 x N N N N M B M B m x B B M z x k k k k x x x k g d d d g k k k g g i i i i i i i y u u y u u u 7 7 7 7 7 7 7 7 7 7 7 7 6 6 6 6 6 6 6 6 6 6 6 6 6 6 6 6 6 6 6 7 7 y i i i i i i i i i i i i i i i i s                                       ",
"                                                                                                          $.( ( ( ( ( ~ ~ ~ B B ~ ~ B B B ~ ~ ~ B B M B I I ~ ~ ~ B B B B B B I ~ ~ B M M M M x x z M I ~ ~ B B B M M N N M x x x k z M z x x x x k k i i u 7 2 ; - - u x N N N M N N M M m x M B z x x x x k k k x k k i i i i i i g i i i i u y y u i i i y u y u u 7 7 7 7 7 6 6 6 6 6 6 6 6 6 6 6 6 6 6 6 6 6 6 6 6 6 6 6 6 6 6 6 6 7 7 u u i i i i i i i i i i i u u i i k                                     ",
"                                                                                                          ^ ^ ( ( ( ( ~ ~ ~ I ~ / ~ B B B B B M M M B B I I I I ~ ~ B B B B B B I ~ ~ I B B B M M B B B B B M B M M N x N B M x x k k x M M x x k k d i i i i 6 ; - - i x M N x m N N B x x x x M x x k k k k k k k k i i i i i i i i i i i i i i y u y y i u u u 7 6 6 6 6 6 6 6 6 6 6 6 6 6 6 6 6 6 6 6 6 6 6 6 6 t t t t t t u 6 6 6 7 7 u u y i i i i i i s i i i i u u i i                                     ",
"                                                                                                        $.! ( ^ ~ ~ B I ~ ~ ~ ~ ~ B M M M M M M M M B I I I I I I B B B M B B B I ~ I I B B B B B B B B B M M B M m m N x M B M N x k k x x x x k i i i i i i 7 5 ; ; i x m N N N N N M x x x x x x k k k k g d k d i i i i i i i i i i i i i i u u u u u u u u 6 6 6 6 6 6 6 6 6 6 6 5 5 6 6 6 6 6 6 6 6 6 6 6 6 6 t t u u t u u t 6 6 6 7 7 u y y i u u i i i i i i i i u u u k                                   ",
"                                                                                                        ^ ~ ( ~ ~ ~ B B ~ ~ ~ B M x m M M M M M B B B B I B I I B B M B M M M M M M M M M M M B M B B B M z M M M M M M m m M M M M x k k x x x k g i s s s i i u 5 5 s x m N B M m N x x x x x x x k k g k k g i i i i i i i i i i i i i i u u u u t u u t 6 6 6 6 5 5 5 5 , , 5 5 , , , , 5 6 5 6 6 6 6 6 6 6 6 6 6 6 6 6 t t t t t t t t 7 6 7 7 7 7 7 u i i i i i i i u u u i k                                 ",
"                                                                                                      ^ ! / ~ ~ ~ B B B B B B M x x x z z M M M M z z B B B z B B B B M x x k x x x x x x x x z M M B M z z z z z z z M M M M M M M x x k k k x k i i k s g s i i 7 7 j x k M B M x m x x x x x x k k k g k d i i i i i i i i i i i i u u t t t t t t 6 6 6 6 6 6 5 , , , ; ; ; ; ; ; ; ; ; , , , , , , , , , , , , 5 6 6 6 6 6 6 6 t t t t t t 6 7 6 6 6 7 u i i i i i i u u u u s                                 ",
"                                                                                                    ^ ! / ^ ~ I B M B M M M B M x z z M M z z M z z z z M z z B M B B z x x k k x x x x x x x x x M M x x z z x x z M M M M N x m M x x x x x x k i i i s i s g i i i s k k B B M M x x m x k x k k k k s i y i y i u y i i i i u u u t t t u u t t t t 6 6 , , , , ; ; - * - - * * * * ; ; ; ; ; ; ; ; ; - - - ; ; , , , , , 5 5 6 t t t t t u t u 6 6 6 6 7 u u u i i i i u u 6 u k                               ",
"                                                                                                    ! ~ ( ~ ~ B M M M m M M x x x M M z z x x z x z z z z z z z z z z z z x k k k k k k k k k k x x x x x x x x x x M M M M x x x x x x x k x x x s s k s i i i i i i j k k B ~ B m k k x x k k k k k k i i u y y u y u u u u 7 u u u u u t t t 6 2 , , , ; ; ; ; ; - = * * * * = = = = - ; ; ; - - - ; ; - - ; ; ; ; ; ; - ; , 5 5 5 6 t t t t t u u 6 6 6 6 7 u u u u i i i u t 7 s                               ",
"                                                                                                  B ~ ( B B M M x x k x x x k x M M z z x x x x x x x z z z z z z x x z M x k k k k k k k k x k x z k k k k k k x x x M M N x k k k x x x k g k k k k k s s s i i u i j j k B I M k k j k k x k k i k i i y u 7 u u u u u u t t u u u t t 6 , , ; ; ; = ; ; ; ; - - = = * * * * * = = = = = = - - - ; ; ; ; ; ; ; ; ; ; ; ; ; ; ; ; , , 5 5 6 u t u u u 7 6 6 6 7 u 7 7 7 y i u t 6 u k                             ",
"                                                                                                  B ~ B M m k x k k k x x x x x x x k k k k k k k k k k x x z z z x k z x k k k k k k k k x x x M x k k k k k k x x x x x N x k k k k k x x k k k k k k s i i i i u i j s k M M k k s j k k x k g d g i i u u u u u t t 6 t t t t t 6 , , ; ; ; ; ; - = - ; - - - - = = * = = * * * * * * * * * * * * * * * * - ; ; ; ; ; ; ; ; ; ; ; ; ; , , , t u u u u 7 6 6 7 7 7 7 6 6 7 u u 6 6 i m                           ",
"                                                                                                  Q B x x k x x x x x x m m x k k j s s s s s s s s s g k k k z z x k k x k k k k k k k x x k x x k k k k k k k k k k k k k k k k k k k k k k k k k k k s i i i i u i i j k M m k j i s k k k k d d i i i u u u u t 6 6 6 6 6 5 5 , , ; ; ; ; ; ; ; ; - - - - * * * = # # * * * # # * # # * * = = ; ; ; * * * * * = = = = ; ; ; ; ; ; ; ; ; ; , , t u u u u 7 6 6 6 7 7 6 6 7 7 u 6 6 u j                           ",
"                                                                                                ~ B x x x x k k k k k k j s s s i u u u u u u u u u i i s k k k k k k k k k k k x x k k k x x x k k k k k k k g k k k k j k k k k k k k k k k k k g k k i i i u i i i i j j x k j s s s k k k g i i i i y u u t t t 6 6 t 6 , ; ; ; ; ; ; , ; ; ; - 2 U ' ` [ [ U U K K H f f f f H H K K U T T [ [ ` ` H 3 # # # # * * * = = - - ; ; ; ; ; ; ; , , 6 u u u u 6 6 6 6 6 7 7 7 7 u 6 6 6 u                           ",
"                                                                                                ~ M k k k j j s s i u u u t 6 t 6 5 5 5 5 5 6 6 6 t u u i i s k k k k k g k s g k k k k d g k k i i i k k g g g k k k j j j j j k k k k k k k j s i i i i i i u i i i i j j k j i i k k k k g i i i y y 7 7 t u t t t 6 , , ; - ; ; ; ; ; ; - * * 7 r.Y.Y.Y.U.L.L.L.s.a.d.w.] ' ' ' { { { } } } } | | | { T f 1 # # # # # * * * = = - ; ; ; - ; ; , , , 6 u u u 7 7 6 6 6 7 7 7 7 7 6 6 t s                         ",
"                                                                                              ~ x s i i i i i s u t 5 5 , , , , , , , ; , , , , , , 5 6 t u u i s s s s s g s i d g d d g d g i i i i g i i s s g k k j s s s j j j k j k g k k i i i i i i u u i u i i j j k i i j k k g s i i i i u u 7 6 u u t 6 5 , , ; ; ; ; ; ; ; - * * # h d.Y.Q.Q.Y.Y.Y.Y.L.L.j.a.r.} ] ' ] ' { { } } } | | | | } ' L S 8 = # # # # # # # = * ; ; ; * * - - ; , , 6 u u u u 7 7 6 6 6 7 7 7 6 5 6 i j                       ",
"                                                                                              k i u u u t u ;.U.U.w.I y 5 , , , , , , , , , ; ; ; ; ; , , 5 5 t u i i i s s s g i i i i i i i i i i i g d i i g s s g s s s s i i i i i i i s k i i i u u i u u i u u i j k k i s s k s i i i i i u u u t u u t 6 5 , ; ; ; ; ; ; , ; = * * * h L.Y.Q././.Q.E.Y.Y.Y.L.L.s.d.w.} { ' { { { { } } | | | e.| { T G S f 7 = # @ @ @ @ # * * * * * * = * = ; ; 2 6 u u u u 6 6 6 6 7 7 7 6 5 6 u i                       ",
"                                                                                            i u u u t u ] {.&X$X+X.X}.).j.] I y 2 , , , , ; ; ; ; ; ; ; ; , , , 5 t t u u i i i i s s s i i i i i i i i i i i g k s i i i i s i i i i i i i i i i i i u u u u u i 6 u i k k k s i i i i i i i i y 7 6 t t u 6 6 , , ; ; ; ; ; ; ; - * * # * U L.Y.E././.(.(./.Q.Q.E.Y.P.j.a.t.w.} } } } } } } } | | e.e.e.| _ J F S S f 8 ; # O @ @ # # * * * * * * # = - ; 2 2 6 u u t 6 6 6 6 6 6 6 6 6 7 i s                     ",
"                                                                                          s u u t u w.{.=X&X&X*X$X+XOX.X{.)./.Y.a.] H 6 ; ; ; ; ; ; ; ; ; ; ; - ; ; , , 5 t u u i i i i i i i i i i i i i i i i k k i i i i i i i i i i u u u i i i i u u u u u u 6 i i k k k i i i i i i i i y u 6 6 t t 6 5 , , ; ; ; ; ; - - * * # # 3 ' L.Y.E.Q./.).).).(.(././.E.Y.L.L.s.a.d.t.r.r.r.u.u.r.u.u.d.d.u.u.| T J F S S S 9 8 1 # O O @ @ # * * * = * * = - ; ; ; , 6 t 6 6 6 6 6 6 6 6 6 6 u i                     ",
"                                                                                        j a u t k ^.7X7X=X&X&X&X#X$X+X.X}.].).(./././.U.w.I y 6 ; ; ; ; ; ; ; ; ; ; - - ; , 5 6 t u u u u u u y y i i i i i i i d k i i i i i i i i i i u u u u u i i u u u u u u 7 i i j k k s i i i i i i i u t t 6 t 6 , , , , ; ; ; - - - * * # # 2 } a.L.Y.E./.(.).].].).).).(./.Q.E.Y.I.L.L.s.s.s.s.s.s.s.s.s.s.s.s.p.u.{ P J F S S S f 9 8 = @ O O # # # * = = # # * * = ; ; ; 6 6 6 6 6 6 6 6 6 6 6 7 y i                   ",
"                                                                                      a u t i t.}.4X4X7X=X&X&X&X&X@X$XOX}.].]._._.).(./.^.Y.j.a.;.h ; ; ; ; ; ; ; ; ; - - - ; , , 6 u u 6 6 u u u y i i u u i i i g i i i i i i i i i u u u u u u u u u u u u u u 7 i i k k k s i i i i i i i u t t 6 5 , , ; ; ; ; ; = = * * * # # 6 [ e.a.L.Y.Q.(.).].].{.].].).).(.(./.Q.Q.Y.Y.P.L.L.L.L.L.K.K.K.K.J.J.s.p.u.{ T J F S S S S f 9 8 1 # O @ # # = = * # # # * - ; ; ; , 6 6 6 6 2 6 6 6 6 6 u i                   ",
"                                                                                    s t t U _.5X5X5X4X7X4X1X&X&X&X&X@X+X.X.X{.{.{._._.).`./.^.Y.U.a.U ; # * * ; ; ; ; ; - - - - ; , 5 5 6 t 6 6 u u y y u u u u i i i i i i i i i u u u u t 6 6 7 u u u u t 6 7 u 7 i i k g k i i i i u u i u t t 6 5 , ; , , ; ; - = = * * * # * h T { e.d.j.Y./.(._.].{.}.{.].].].).).(.(././.Q.E.Y.Y.I.P.P.P.P.P.L.L.L.K.J.p.r.{ R L F F S S S S S 9 8 3 # @ # * * * * # # * * * * * - , 6 6 6 6 , 6 6 6 6 7 u i                 ",
"                                                                                j i u i y.&X5X5X5X5X5X7X4X7X&X&X&X&X@X@XXXXX.X.X X{.]._._.).`.^.U.a.w.[ h # < # * ; ; ; ; - - * * - - , , 5 t 5 6 u u 7 u u 7 u i i i i i i i i u u u u 6 t 6 6 6 6 6 6 7 7 6 7 u 7 i i g i d i i i u u u u u u t , ; ; ; ; ; ; = - ; - * # # # K ` ' } e.d.f.Y./.).].{.}..X}.{.{.].].'.).).(.(./.Q.E.E.Y.Y.I.I.I.I.I.P.P.L.K.s.u.r.{ R L J F F S S S S S f 9 3 # # # * * * * * * * # * * - , 6 6 6 6 6 6 6 6 6 7 u                 ",
"                                                                              k i u / ].7X5X5X5X5X5X4X7X4X7X1X1X&X&X&X@X@X+X+XXX.X X X{._._.`./.Y.j.t.} ' K 1 O O # * = - ; - - - - - - ; , 5 5 6 6 6 7 7 u 7 7 u i i i i i i i u u 6 6 6 6 6 6 6 6 6 6 6 6 7 7 u 7 i i i i i i i u 7 u u u t t 6 , ; ; , ; ; ; ; - - * # # = K ' ' ' } e.d.T.Q.).].{.{.}..X.X}.}.{.].].].'.).).(.(.Q.Q.E.E.E.E.E.Y.Y.I.I.P.P.K.s.u.| { _ L J F F F S S S S S S 9 3 # # * * * * * * * * # * - , 6 6 6 6 6 6 6 6 7 7                 ",
"                                                                            k s B j.&X5X5X5X5X5X5X5X5X4X7X4X7X1X1X&X&X&X%X@X@X@XXXXX.X X{.]._.`.`.^.U.a.w.] ` H 1 O O # * = = = - - * * - - ; , 5 6 5 5 6 6 7 u u u 7 7 7 7 y u u u 7 6 6 6 6 6 6 6 5 6 6 6 6 7 7 7 y i i i i i i u 7 u 6 t u 6 , , ; ; ; ; ; ; ; - * # # 7 T ' ' ' } w.d.j.E.).].].{..X.XOXOX.X.X}.}.}.{.].].'.).).(.(.(.Q.Q.Q.Q.E.E.E.Y.I.I.P.K.s.u.| |  .P J F F F F S S S S S S 9 8 = # * * # # * * # # * - , , 5 6 6 6 6 6 6 7 u               ",
"                                                                          k k t.&X7X5X5X5X5X5X5X5X5X5X5X4X4X7X4X4X1X1X&X&X&X&X%X@X@XXXXX X X]._.).`./.U.f.t.} ' ` f # O O # # * - = * * * - - ; , , , 5 5 6 7 u u i u 7 7 u 7 7 7 7 7 6 6 6 6 6 6 6 6 6 6 6 6 7 7 7 u i i i i i i 7 7 6 6 t 6 2 2 2 2 ; ; ; ; ; * # # # 1 ` ' ] } } w.t.f.Y.(.].].{. X.XXX+X+X+XXX.X.X.X}.}.{.].].].'.).(.(.(.(.!.!.Q.Q.E.E.I.I.P.K.p.u.u.|  .R L J F F F F F S S S S S S 8 3 * # * * * # # # * ; , , 5 6 6 6 6 6 7 u               ",
"                                                                        k B /.7X5X5X5X5X5X5X5X5X5X5X5X5X5X5X4X4X7X4X7X1X1X1X1X&X&X%X@X+XXX.X{.]._.).`.^.Y.j.t.w.' ` T 7 # O @ # * = = = * - - ; ; ; , , 5 5 6 u u u u 7 7 7 7 7 7 7 6 6 6 6 6 5 5 5 5 6 6 6 6 6 7 6 u u u u i i i 7 6 6 6 6 , , 2 2 2 2 ; ; - * # # # # h ' ] } w.w.t.a.Y./.].].{.}..XXX+X+X$X+X+XOXOX.X.X}.}.}.}.].].].'.).(.(.(.(.(.!.Q.E.E.R.I.L.s.i.u.u.| { R L J J J F F F F S S S S S S 8 * * * * * * # @ * ; , , , 6 6 6 6 6 7               ",
"                                                                      B g.{.7X5X5X5X5X5X5X5X5X5X5X5X5X5X5X5X5X5X4X4X4X4X4X4X2X1X1X&X%X@XXXXX.X{.]._._.`./.Y.T.a.r.] ' [ H 1 @ O # * * * - * - - - ; ; , , 5 6 6 6 7 u 7 7 7 6 6 6 6 6 6 6 5 , , , , , 5 6 6 6 6 6 6 u u u u u i i 6 6 t u 6 2 , 2 2 , ; ; ; * # # # * ; U ] w.w.w.r.a.T./._.].{.}..X.X+X+X$X$X$X+X+X+X+XOX.X.X.X}.}.{.].].'.'.).(.(.(.(.!.Q.E.E.R.P.K.s.p.u.u.| { R L L J J J F F F F S S S S S ; * * * * * # # * * ; , , , 6 6 6 6 7               ",
"                                                                    ;.`.=X5X5X5X5X5X5X5X5X5X5X5X5X5X5X5X5X5X5X5X4X4X4X4X4X4X4X4X2X1X&X%X@X+XXX.X X{._._.`./.^.U.j.t.w.' ` T l 1 O O @ * * * - - * - ; ; ; , 5 , 6 6 u u u u 7 6 6 6 , , , , ; ; ; , , , , 6 2 6 6 6 6 u u u u u i 6 t u 6 6 2 , 2 ; ; ; - * * # # # * h ' } w.w.r.a.L./.].].].}..X.X+X+X$X$X@X@X$X$X$X+X+X+XOXOX.X.X}.}.{.].].'.'.'.(.(.(.!.Q.E.E.I.P.J.s.p.i.u...| _ P L L J J J F F F F F S S 9 * * # * * * * * * * ; , , 6 6 6 6 7 i             ",
"                                                                  {.+X7X5X5X5X5X5X5X5X5X5X5X5X5X5X4X5X5X5X5X5X4X4X4X4X4X4X4X4X4X4X2X1X&X%X@X@XXXXX X X_._._.`./.Y.T.g.r.w.' ` T h = O O # * * ; - - ; ; ; ; , , 6 t 6 u y y 7 6 2 , , , ; ; ; ; ; ; , , ; ; , , 6 6 7 7 7 u y u u 6 u t 6 2 2 2 ; ; ; ; * # # # # # ; U ' w.w.r.a.L./._.{.].'.}..X+X+X$X@X#X$X#X#X#X#X@X$X$X+X+XOX.X.X}.}.].].].'.'.'.(.(.!.!.E.E.E.I.P.K.J.s.i.u...| _ R L L L L J J J F F F F S 8 = * * * * ; * # * - ; , 6 6 6 6 7 u             ",
"                                                                .X#X=X5X5X5X5X5X5X5X5X5X5X5X5X4X4X4X5X5X5X4X4X4X4X4X4X4X4X4X4X4X4X4X2X1X&X%X@XoXXXXX X X_._._.`./.~.T.f.t.w.' ` ` K 3 @ @ # # - - - ; ; ; - ; , 6 t t 6 u y 7 6 2 2 , , ; ; ; ; ; ; ; ; ; ; ; , , 6 6 7 7 u u 7 6 u u 6 6 2 2 2 , ; ; ; * # # # # * h ' ] w.r.d.j.Y.).{.].'.).}.+X+X$X@X#X#X#X#X#X#X#X#X#X$X$X+X+XOX.X.X}.}.].].].'.'.(.(.(.!.!.E.E.R.P.P.K.J.s.i.u...| _ P L L L L J J J J G F F S ; * * * * - * # # * ; , 6 6 6 6 7 u             ",
"                                                            `.#X=X5X5X5X5X5X5X5X5X5X5X5X5X5X5X5X4X5X5X5X4X4X4X4X4X4X4X4X4X4X4X4X4X4X4X4X1X1X%X@X@XoXXX X X{._._.`./.^.Y.T.a.w.] ' ` ` K ; @ O * * = ; ; ; ; ; , , , t 6 6 u 7 6 6 , , , ; ; ; ; ; ; ; - ; ; ; , , 2 6 6 7 u u 7 6 u 6 6 2 2 2 2 ; ; ; * * * # # * 2 ` ' w.r.a.j.Y.(.].{.].'.'.}.$X@X#X#X&X#X#X#X#X#X#X&X#X#X#X+X+X+XOX.X}.}.}.].].].'.'.(.(.(.!.Q.E.E.R.I.P.K.J.s.i.u.u.|  .R P P L L J J J J J F F 8 * * # # * * * * ; ; , 6 6 6 6 7 u             ",
"                                                        ^.+X&X7X5X5X5X5X5X5X5X5X5X5X5X5X5X5X5X5X4X5X5X4X4X4X4X4X4X4X4X4X4X4X4X4X4X4X4X4X4X1X1X&X%X@X+XXXXX X X_._._.`./.^.U.f.y.w.' ' ` T 7 # O # * ; ; ; ; ; ; ; , 5 t t t 6 6 6 , , , ; ; ; ; ; ; ; - - - - , ; , 2 6 7 7 u 7 u t 6 , 2 2 2 1 ; ; * * * * * # # H ' ] w.d.T.^._.{. X}.].'.]..X@X#X&X&X&X#X&X#X#X#X#X#X#X#X#X@X+X+XOX.X.X}.}.}.].].'.'.'.(.(.!.!.W.E.E.R.I.P.K.J.s.p.i.u.|  ._ P P L L L J J J J J S 3 * * * * * - ; ; * ; , 5 6 6 7 y             ",
"                                                      `.#X7X5X5X5X5X6X6X5X5X5X5X5X5X5X5X5X5X5X5X5X5X4X4X4X4X4X4X4X4X4X4X4X4X4X4X4X4X4X4X4X4X1X1X1X%X@X@XoXXX X X{._._.`./.~.U.j.d.w.} ' ` ` K # @ # * ; ; ; ; ; ; , , 6 6 t t t 6 6 2 , ; ; ; ; ; ; - - * * * ; ; ; 2 6 6 u u u u 6 6 6 2 2 2 ; ; * * # # * = * ; ` ' } e.g.~._.{..X.X}.}.}.}.+X#X&X&X&X&X&X#X#X#X#X#X#X#X#X#X#X+X+XOXOX.X.X}.}.].].].'.'.(.(.!.!.W.W.E.R.R.P.P.K.J.s.p.i.u.| { _ R P P L L L L J J J f = * * * * * * * # * ; , 5 6 6 7             ",
"                                                  `..X=X5X5X6X6X6X6X6X6X5X5X5X5X5X5X5X5X5X5X5X5X4X4X4X4X4X4X4X4X4X4X4X4X4X4X4X4X4X4X4X4X4X4X4X1X1X1X&X%X@XoXXX X X]._._.`./.^.Y.T.a.r.w.' ' ` K 1 @ @ * ; ; ; ; ; , 2 6 2 6 t t t 6 2 , , ; ; ; ; ; ; - * * * ; ; ; 2 6 6 7 u u t 6 6 6 2 2 , ; ; * # # # * = = l ' ] w.t.T.). XXX.X.X.X.X.XOX$X&X&X&X&X&X&X#X#X#X#X#X#X#X#X#X#X+X+X+XOXOX.X}.}.].].].'.'.[.(.!.!.W.W.E.R.R.R.P.P.K.J.J.p.i.u...| _ R P P L L L L L L F 3 * * * * * * * # * ; , , 6 6 7 i           ",
"                                              `..X=X5X5X6X6X6X6X6X6X5X5X5X5X5X5X5X5X5X5X5X4X5X5X5X5X4X4X4X4X4X4X4X4X4X4X4X4X4X4X4X4X4X4X4X4X4X2X1X1X1X1X%X@XoXXX X X X_._._.`./.~.T.f.r.w.' ' ` T h = # * - ; , , , 2 2 2 2 t t t 6 6 5 , ; ; ; ; ; ; - * * * ; ; 2 2 2 6 u u u 6 6 2 2 2 , ; ; ; * # * * * = 3 ` ' w.w.a.^.{.XXoX+X+X+X+X+X$X#X&X&X&X&X&X&X&X#X#X#X#X#X#X#X#X#X$X+X+XOXOX.X}.}.}.].].'.[.[.(.!.!.!.W.E.R.R.R.I.P.P.K.J.J.s.i.i.u.|  .R R T P P L L L J S 3 * - - - - * * * - ; , 6 6 6 u           ",
"                                          _..X&X5X5X5X6X6X6X6X6X5X5X5X5X5X5X5X5X5X4X4X4X4X4X5X4X4X4X4X4X4X4X4X4X4X4X4X4X4X4X4X4X4X4X4X4X4X4X2X2X1X1X1X1X1X%X@X@XXXXX X X]._._.`./.~.U.f.t.w.] ' ' ` K 1 # = - 2 2 2 2 , , 6 u 6 6 6 6 6 6 , ; ; ; - - * * * * ; ; , , 2 6 7 u u 6 6 6 6 2 ; ; - * * * * = = ; K ' } w.r.j._.XX@X@X@X@X@X@X#X&X&X&X&X=X&X&X&X&X#X#X#X&X&X#X#X#X#X$X+X+XOXOXOX}.}.}.}.].'.[.[.[.(.!.!.W.E.R.R.R.R.P.P.P.K.J.J.s.i.u.u.|  ._ R R T P P P L F f ; - - ; - - ; ; - * ; , 6 6 6           ",
"                                        ].#X=X5X5X5X5X5X5X5X5X5X5X5X5X5X5X5X5X5X5X4X4X4X4X4X4X7X7X7X7X4X4X4X4X4X4X4X4X4X4X4X4X4X4X4X4X4X2X2X2X2X1X1X1X1X1X&X%X@X@XoXXX X X]._._.`./.~.U.g.r.w.] ' ' ' U 2 * * ; 2 2 2 , , 6 u 6 6 7 6 6 6 , ; ; ; - * * * * * ; ; , , 2 6 7 7 6 6 6 6 6 2 ; ; - * * * = = = 8 ` ' w.w.d.U.{.XX@X%X%X&X&X&X&X&X&X&X&X&X&X&X&X&X#X#X#X&X&X#X#X#X#X#X+X+XOXOX|.}.}.}.}.].'.'.[.[.(.!.!.W.W.R.R.R.R.P.P.P.P.K.J.J.s.i.u.u.|  .R R R T P P P J S 7 - ; ; * * - ; * # * , , 6 6           ",
"                                     X#X=X5X5X5X5X5X5X5X5X5X5X5X5X5X5X5X5X5X5X5X5X4X4X4X4X7X7X7X7X4X4X4X4X4X4X4X4X4X4X4X4X4X4X4X2X2X2X2X2X2X2X1X1X1X1X1X1X1X1X%X%X@X@X@XoXXXXX X X X_._./.T.f.t.r.w.w.} ' H = = ; 2 6 2 , ; 6 6 6 6 6 6 6 6 , ; ; - * * * * * * ; ; , 6 6 u 7 6 2 2 6 6 3 , ; - * * - - = ; U ' w.e.t.f.`.XX%X&X1X1X1X1X1X1X&X&X&X&X1X&X&X&X&X#X#X#X&X&X#X#X#X#X#X@X+XOX|.|.|.|.}.}.}.'.'.[.[.!.!.!.W.W.R.R.R.R.I.P.P.P.P.K.J.J.p.i.i.u...{  .R R R R R R L S ; - ; * * * ; * # * , 5 6 6 7         "
};
