/* XPM */
static char *_4ce994738c844e1a463e8bf25745629VgyMw6jkk2zJI4El[] = {
/* columns rows colors chars-per-pixel */
"600 337 249 2 ",
"   c None",
".  c #0D0403",
"X  c #0D0B0C",
"o  c #090706",
"O  c #130402",
"+  c #120D0D",
"@  c #1B0A07",
"#  c #021B02",
"$  c #091708",
"%  c #14110E",
"&  c #17160D",
"*  c #0F0D11",
"=  c #120F11",
"-  c #190F11",
";  c #151314",
":  c #1A1515",
">  c #1B1917",
",  c #171519",
"<  c #191719",
"1  c #1C1B1C",
"2  c #141A14",
"3  c #0F1410",
"4  c #230C08",
"5  c #27120C",
"6  c #211D1D",
"7  c #261815",
"8  c #331C16",
"9  c #032403",
"0  c #012B01",
"q  c #0B270A",
"w  c #023202",
"e  c #073806",
"r  c #192718",
"t  c #183617",
"y  c #13340D",
"u  c #23211E",
"i  c #27251D",
"p  c #36231C",
"a  c #253616",
"s  c #1E1D21",
"d  c #211F21",
"f  c #281E20",
"g  c #1F2120",
"h  c #242224",
"j  c #292525",
"k  c #2B2926",
"l  c #262429",
"z  c #292629",
"x  c #2D2A2B",
"c  c #232B23",
"v  c #322C2C",
"b  c #372825",
"n  c #293627",
"m  c #33312E",
"M  c #38372E",
"N  c #2E2C31",
"B  c #312E32",
"V  c #382E30",
"C  c #343233",
"Z  c #3A3534",
"A  c #3B3A36",
"S  c #353439",
"D  c #39363A",
"F  c #3D3A3B",
"G  c #363B32",
"H  c #2F3030",
"J  c #452A1B",
"K  c #462B25",
"L  c #4A342B",
"P  c #423D3C",
"I  c #473834",
"U  c #573B34",
"Y  c #57352B",
"T  c #643C35",
"R  c #411B16",
"E  c #074406",
"W  c #194715",
"Q  c #1B5716",
"!  c #10530B",
"~  c #295119",
"^  c #1C6418",
"/  c #2C671A",
"(  c #2A4825",
")  c #34492C",
"_  c #2A5825",
"`  c #34582B",
"'  c #3D4736",
"]  c #3A5634",
"[  c #296925",
"{  c #34682C",
"}  c #34762C",
"|  c #3A6735",
" . c #3A7534",
".. c #2B7425",
"X. c #556F1D",
"o. c #44423D",
"O. c #45493C",
"+. c #5B433B",
"@. c #43593C",
"#. c #4D5328",
"$. c #684539",
"%. c #774B3B",
"&. c #78533B",
"*. c #64562D",
"=. c #43673B",
"-. c #44743C",
";. c #547028",
":. c #7A6838",
">. c #6C7332",
",. c #424D14",
"<. c #3D3B41",
"1. c #413F43",
"2. c #454343",
"3. c #4A4543",
"4. c #4D4B4A",
"5. c #494944",
"6. c #544C4A",
"7. c #4A5644",
"8. c #54554B",
"9. c #585554",
"0. c #554F50",
"q. c #684C45",
"w. c #764D42",
"e. c #6C5349",
"r. c #7C5243",
"t. c #775549",
"y. c #6F5B56",
"u. c #4C6846",
"i. c #52664B",
"p. c #51714A",
"a. c #726F4A",
"s. c #696564",
"d. c #756D69",
"f. c #87523E",
"g. c #844C3A",
"h. c #846D3A",
"j. c #835445",
"k. c #8A5644",
"l. c #835B4C",
"z. c #8B5C4B",
"x. c #875946",
"c. c #935D4A",
"v. c #9A5D4B",
"b. c #955845",
"n. c #865E53",
"m. c #8B644B",
"M. c #94624D",
"N. c #9C624E",
"B. c #956C4C",
"V. c #887947",
"C. c #95774C",
"Z. c #8D6454",
"A. c #866455",
"S. c #946552",
"D. c #9C6551",
"F. c #9C6A55",
"G. c #9B6C5A",
"H. c #956958",
"J. c #9B7658",
"K. c #897D56",
"L. c #A4694E",
"P. c #A26553",
"I. c #A36A55",
"U. c #AA6D55",
"Y. c #A56D5A",
"T. c #AA6D5B",
"R. c #AA6556",
"E. c #B26A59",
"W. c #AC7254",
"Q. c #A4725C",
"!. c #AC745B",
"~. c #AC7A5C",
"^. c #A47958",
"/. c #B37555",
"(. c #BA7755",
"). c #B47857",
"_. c #BB7956",
"`. c #B3765A",
"'. c #B57A5B",
"]. c #BB7C5C",
"[. c #B9775A",
"{. c #B1714E",
"}. c #986B63",
"|. c #99746A",
" X c #AD7562",
".X c #AD7A64",
"XX c #AD7B69",
"oX c #A67565",
"OX c #B27663",
"+X c #B47B63",
"@X c #BB7E61",
"#X c #B47D6A",
"$X c #B97E6B",
"%X c #A76F65",
"&X c #A15C62",
"*X c #C17E5C",
"=X c #C07F62",
"-X c #578632",
";X c #6B8835",
":X c #78863B",
">X c #709037",
",X c #7EA43B",
"<X c #7B8A44",
"1X c #7B9747",
"2X c #709348",
"3X c #7DA34C",
"4X c #458141",
"5X c #3A8335",
"6X c #888648",
"7X c #93874D",
"8X c #88984A",
"9X c #94984C",
"0X c #8B8953",
"qX c #978855",
"wX c #8C9853",
"eX c #999856",
"rX c #AB845C",
"tX c #A68959",
"yX c #B4825C",
"uX c #BC815E",
"iX c #B3885A",
"pX c #A5955A",
"aX c #A98F56",
"sX c #87A34A",
"dX c #8CA453",
"fX c #97A557",
"gX c #92A54D",
"hX c #9D9262",
"jX c #AB8764",
"kX c #B48263",
"lX c #BD8263",
"zX c #B4816C",
"xX c #BA836C",
"cX c #B78A66",
"vX c #A99664",
"bX c #B49364",
"nX c #BB8571",
"mX c #B98572",
"MX c #B79272",
"NX c #A4A663",
"BX c #A2A75E",
"VX c #C2815E",
"CX c #C28364",
"ZX c #C38569",
"AX c #C58A6A",
"SX c #C78969",
"DX c #C28A78",
"FX c #80943F",
"GX c #A48787",
/* pixels */
"                                                                                                                                                                                                                                                                                                                                                                                                                                                                                                                                                                                                                                                                                                                                                                                                                                                                                                                                                                                                                                                                                                                                                                                                                                                ",
"                                                                                                                                                                                                                                                                                                                                                                                                                                                                                                                                                                                                                                                                                                                                                                                                                                                                                                                                                                                                                                                                                                                                                                                                                                                ",
"                                                                                                                                                                                                                                                                                                                                                                                                                                                                                                                                                                                                                                                                                                                                                                                                                                                                                                                                                                                                                                                                                                                                                                                                                                                ",
"                                                                                                                                                                                                                                                                                                                                                                                                                                                                                                                                                                                                                                                                                                                                                                                                                                                                                                                                                                                                                                                                                                                                                                                                                                                ",
"                                                                                                                                                                                                                                                                                                                                                                                                                                                                                                                                                                                                                                                                                                                                                                                                                                                                                                                                                                                                                                                                                                                                                                                                                                                ",
"                                                                                                                                                                                                                                                                                                                                                                                                                                                                                                                                                                                                                                                                                                                                                                                                                                                                                                                                                                                                                                                                                                                                                                                                                                                ",
"                                                                                                                                                                                                                                                                                                                                                                                                                                                                                                                                                                                                                                                                                                                                                                                                                                                                                                                                                                                                                                                                                                                                                                                                                                                ",
"                                                                                                                                                                                                                                                                                                                                                                                                                                                                                                                                                                                                                                                                                                                                                                                                                                                                                                                                                                                                                                                                                                                                                                                                                                                ",
"                                                                                                                                                                                                                                                                                                                                                                                                                                                                                                                                                                                                                                                                                                                                                                                                                                                                                                                                                                                                                                                                                                                                                                                                                                                ",
"                                                                                                                                                                                                                                                                                                                                                                                                                                                                                                                                                                                                                                                                                                                                                                                                                                                                                                                                                                                                                                                                                                                                                                                                                                                ",
"                                                                                                                                                                                                                                                                                                                                                                                                                                                                                                                                                                                                                                                                                                                                                                                                                                                                                                                                                                                                                                                                                                                                                                                                                                                ",
"                                                                                                                                                                                                                                                                                                                                                                                                                                                                                                                                                                                                                                                                                                                                                                                                                                                                                                                                                                                                                                                                                                                                                                                                                                                ",
"                                                                                                                                                                                                                                                                                                                                                                                                                                                                                                                                                                                                                                                                                                                                                                                                                                                                                                                                                                                                                                                                                                                                                                                                                                                ",
"                                                                                                                                                                                                                                                                                                                                                                                                                                                                                                                                                                                                                                                                                                                                                                                                                                                                                                                                                                                                                                                                                                                                                                                                                                                ",
"                                                                                                                                                                                                                                                                                                                                                                                                                                                                                                                                                                                                                                                                                                                                                                                                                                                                                                                                                                                                                                                                                                                                                                                                                                                ",
"                                                                                                                                                                                                                                                                                                                                                                                                                                                                                                                                                                                                                                                                                                                                                                                                                                                                                                                                                                                                                                                                                                                                                                                                                                                ",
"                                                                                                                                                                                                                                                                                                                                                                                                                                                                                                                                                                                                                                                                                                                                                                                                                                                                                                                                                                                                                                                                                                                                                                                                                                                ",
"                                                                                                                                                                                                                                                                                                                                                                                                                                                                                                                                                                                                                                                                                                                                                                                                                                                                                                                                                                                                                                                                                                                                                                                                                                                ",
"                                                                                                                                                                                                                                                                                                                                                                                                                                                                                                                                                                                                                                                                                                                                                                                                                                                                                                                                                                                                                                                                                                                                                                                                                                                ",
"                                                                                                                                                                                                                                                                                                                                                                                                                                                                                                                                                                                                                                                                                                                                                                                                                                                                                                                                                                                                                                                                                                                                                                                                                                                ",
"                                                                                                                                                                                                                                                                                                                                                                                                                                                                                                                                                                                                                                                                                                                                                                                                                                                                                                                                                                                                                                                                                                                                                                                                                                                ",
"                                                                                                                                                                                                                                                                                                                                                                                                                                                                                                                                                                                                                                                                                                                                                                                                                                                                                                                                                                                                                                                                                                                                                                                                                                                ",
"                                                                                                                                                                                                                                                                                                                                                                                                                                                                                                                                                                                                                                                                                                                                                                                                                                                                                                                                                                                                                                                                                                                                                                                                                                                ",
"                                                                                                                                                                                                                                                                                                                                                                                                                                                                                                                                                                                                                                                                                                                                                                                                                                                                                                                                                                                                                                                                                                                                                                                                                                                ",
"                                                                                                                                                                                                                                                                                                                                                                                                                                                                                                                                                                                                                                                                                                                                                                                                                                                                                                                                                                                                                                                                                                                                                                                                                                                ",
"                                                                                                                                                                                                                                                                                                                                                                                                                                                                                                                                                                                                                                                                                                                                                                                                                                                                                                                                                                                                                                                                                                                                                                                                                                                ",
"                                                                                                                                                                                                                                                                                                                                                                                                                                                                                                                                                                                                                                                                                                                                                                                                                                                                                                                                                                                                                                                                                                                                                                                                                                                ",
"                                                                                                                                                                                                                                                                                                                                                                                                                                                                                                                                                                                                                                                                                                                                                                                                                                                                                                                                                                                                                                                                                                                                                                                                                                                ",
"                                                                                                                                                                                                                                                                                                                                                                                                                                                                                                                                                                                                                                                                                                                                                                                                                                                                                                                                                                                                                                                                                                                                                                                                                                                ",
"                                                                                                                                                                                                                                                                                                                                                                                                                                                                                                                                                                                                                                                                                                                                                                                                                                                                                                                                                                                                                                                                                                                                                                                                                                                ",
"                                                                                                                                                                                                                                                                                                                                                                                                                                                                                                                                                                                                                                                                                                                                                                                                                                                                                                                                                                                                                                                                                                                                                                                                                                                ",
"                                                                                                                                                                                                                                                                                                                                                                                                                                                                                                                                                                                                                                                                                                                                                                                                                                                                                                                                                                                                                                                                                                                                                                                                                                                ",
"                                                                                                                                                                                                                                                                                                                                                                                                                                                                                                                                                                                                                                                                                                                                                                                                                                                                                                                                                                                                                                                                                                                                                                                                                                                ",
"                                                                                                                                                                                                                                                                                                                                                                                                                                                                                                                                                                                                                                                                                                                                                                                                                                                                                                                                                                                                                                                                                                                                                                                                                                                ",
"                                                                                                                                                                                                                                                                                                                                                                                                                                                                                                                                                                                                                                                                                                                                                                                                                                                                                                                                                                                                                                                                                                                                                                                                                                                ",
"                                                                                                                                                                                                                                                                                                                                                                                                                                                                                                                                                                                                                                                                                                                                                                                                                                                                                                                                                                                                                                                                                                                                                                                                                                                ",
"                                                                                                                                                                                                                                                                                                                                                                                                                                                                                                                                                                                                                                                                                                                                                                                                                                                                                                                                                                                                                                                                                                                                                                                                                                                ",
"                                                                                                                                                                                                                                                                                                                                                                                                                                                                                                                                                                                                                                                                                                                                                                                                                                                                                                                                                                                                                                                                                                                                                                                                                                                ",
"                                                                                                                                                                                                                                                                                                                                                                                                                                                                                                                                                                                                                                                                                                                                                                                                                                                                                                                                                                                                                                                                                                                                                                                                                                                ",
"                                                                                                                                                                                                                                                                                                                                                                                                                                                                                                                                                                                                                                                                                                                                                                                                                                                                                                                                                                                                                                                                                                                                                                                                                                                ",
"                                                                                                                                                                                                                                                                                                                                                                                                                                                                                                                                                                                                                                                                                                                                                                                                                                                                                                                                                                                                                                                                                                                                                                                                                                                ",
"                                                                                                                                                                                                                                                                                                                                                                                                                                                                                                                                                                                                                                                                                                                                                                                                                                                                                                                                                                                                                                                                                                                                                                                                                                                ",
"                                                                                                                                                                                                                                                                                                                                                                                                                                                                                                                                                                                                                                                                                                                                                                                                                                                                                                                                                                                                                                                                                                                                                                                                                                                ",
"                                                                                                                                                                                                                                                                                                                                                                                                                                                                                                                                                                                                                                                                                                                                                                                                                                                                                                                                                                                                                                                                                                                                                                                                                                                ",
"                                                                                                                                                                                                                                                                                                                                                                                                                                                                                                                                                                                                                                                                                                                                                                                                                                                                                                                                                                                                                                                                                                                                                                                                                                                ",
"                                                                                                                                                                                                                                                                                                                                                                                                                                                                                                                                                                                                                                                                                                                                                                                                                                                                                                                                                                                                                                                                                                                                                                                                                                                ",
"                                                                                                                                                                                                                                                                                                                                                                                                                                                                                                                                                                                                                                                                                                                                                                                                                                                                                                                                                                                                                                                                                                                                                                                                                                                ",
"                                                                                                                                                                                                                                                                                                                                                                                                                                                                                                                                                                                                                                                                                                                                                                                                                                                                                                                                                                                                                                                                                                                                                                                                                                                ",
"                                                                                                                                                                                                                                                                                                                                                                                                                                                                                                                                                                                                                                                                                                                                                                                                                                                                                                                                                                                                                                                                                                                                                                                                                                                ",
"                                                                                                                                                                                                                                                                                                                                                                                                                                                                                                                                                                                                                                                                                                                                                                                                                                                                                                                                                                                                                                                                                                                                                                                                                                                ",
"                                                                                                                                                                                                                                                                                                                                                                                                                                                                                                                                                                                                                                                                                                                                                                                                                                                                                                                                                                                                                                                                                                                                                                                                                                                ",
"                                                                                                                                                                                                                                                                                                                                                                                                                                                                                                                                                                                                                                                                                                                                                                                                                                                                                                                                                                                                                                                                                                                                                                                                                                                ",
"                                                                                                                                                                                                                                                                                                                                                                                                                                                                                                                                                                                                                                                                                                                                                                                                                                                                                                                                                                                                                                                                                                                                                                                                                                                ",
"                                                                                                                                                                                                                                                                                                                                                                                                                                                                                                                                                                                                                                                                                                                                                                                                                                                                                                                                                                                                                                                                                                                                                                                                                                                ",
"                                                                                                                                                                                                                                                                                                                                                                                                                                                                                                                                                                                                                                                                                                                                                                                                                                                                                                                                                                                                                                                                                                                                                                                                                                                ",
"                                                                                                                                                                                                                                                                                                                                                                                                                                                                                                                                                                                                                                                                                                                                                                                                                                                                                                                                                                                                                                                                                                                                                                                                                                                ",
"                                                                                                                                                                                                                                                                                                                                                                                                                                                                                                                                                                                                                                                                                                                                                                                                                                                                                                                                                                                                                                                                                                                                                                                                                                                ",
"                                                                                                                                                                                                                                                                                                                                                                                                                                                                                                                                                                                                                                                                                                                                                                                                                                                                                                                                                                                                                                                                                                                                                                                                                                                ",
"                                                                                                                                                                                                                                                                                                                                                                                                                                                                                                                                                                                                                                                                                                                                                                                                                                                                                                                                                                                                                                                                                                                                                                                                                                                ",
"                                                                                                                                                                                                                                                                                                                                                                                                                                                                                                                                                                                                                                                                                                                                                                                                                                                                                                                                                                                                                                                                                                                                                                                                                                                ",
"                                                                                                                                                                                                                                                                                                                                                                                                                                                                                                                                                                                                                                                                                                                                                                                                                                                                                                                                                                                                                                                                                                                                                                                                                                                ",
"                                                                                                                                                                                                                                                                                                                                                                                                                                                                                                                                                                                                                                                                                                                                                                                                                                                                                                                                                                                                                                                                                                                                                                                                                                                ",
"                                                                                                                                                                                                                                                                                                                                                                                                                                                                                                                                                                                                                                                                                                                                                                                                                                                                                                                                                                                                                                                                                                                                                                                                                                                ",
"                                                                                                                                                                                                                                                                                                                                                                                                                                                                                                                                                                                                                                                                                                                                                                                                                                                                                                                                                                                                                                                                                                                                                                                                                                                ",
"                                                                                                                                                                                                                                                                                                                                                                                                                                                                                                                                                                                                                                                                                                                                                                                                                                                                                                                                                                                                                                                                                                                                                                                                                                                ",
"                                                                                                                                                                                                                                                                                                                                                                                                                                                                                                                                                                                                                                                                                                                                                                                                                                                                                                                                                                                                                                                                                                                                                                                                                                                ",
"                                                                                                                                                                                                                                                                                                                                                                                                                                                                                                                                                                                                                                                                                                                                                                                                                                                                                                                                                                                                                                                                                                                                                                                                                                                ",
"                                                                                                                                                                                                                                                                                                                                                                                                                                                                                                                                                                                                                                                                                                                                                                                                                                                                                                                                                                                                                                                                                                                                                                                                                                                ",
"                                                                                                                                                                                                                                                                                                                                                                                                                                                                                                                                                                                                                                                                                                                                                                                                                                                                                                                                                                                                                                                                                                                                                                                                                                                ",
"                                                                                                                                                                                                                                                                                                                                                                                                                                                                                                                                                                                                                                                                                                                                                                                                                                                                                                                                                                                                                                                                                                                                                                                                                                                ",
"                                                                                                                                                                                                                                                                                                                                                                                                                                                                                                                                                                                                                                                                                                                                                                                                                                                                                                                                                                                                                                                                                                                                                                                                                                                ",
"                                                                                                                                                                                                                                                                                                                                                                                                                                                                                                                                                                                                                                                                                                                                                                                                                                                                                                                                                                                                                                                                                                                                                                                                                                                ",
"                                                                                                                                                                                                                                                                                                                                                                                                                                                                                                                                                                                                                                                                                                                                                                                                                                                                                                                                                                                                                                                                                                                                                                                                                                                ",
"                                                                                                                                                                                                                                                                                                                                                                                                                                                                                                                                                                                                                                                                                                                                                                                                                                                                                                                                                                                                                                                                                                                                                                                                                                                ",
"                                                                                                                                                                                                                                                                                                                                                                                                                                                                                                                                                                                                                                                                                                                                                                                                                                                                                                                                                                                                                                                                                                                                                                                                                                                ",
"                                                                                                                                                                                                                                                                                                                                                                                                                                                                                                                                                                                                                                                                                                                                                                                                                                                                                                                                                                                                                                                                                                                                                                                                                                                ",
"                                                                                                                                                                                                                                                                                                                                                                                                                                                                                                                                                                                                                                                                                                                                                                                                                                                                                                                                                                                                                                                                                                                                                                                                                                                ",
"                                                                                                                                                                                                                                                                                                                                                                                                                                                                                                                                                                                                                                                                                                                                                                                                                                                                                                                                                                                                                                                                                                                                                                                                                                                ",
"                                                                                                                                                                                                                                                                                                                                                                                                                                                                                                                                                                                                                                                                                                                                                                                                                                                                                                                                                                                                                                                                                                                                                                                                                                                ",
"                                                                                                                                                                                                                                                                                                                                                                                                                                                                                                                                                                                                                                                                                                                                                                                                                                                                                                                                                                                                                                                                                                                                                                                                                                                ",
"                                                                                                                                                                                                                                                                                                                                                                                                                                                                                                                                                                                                                                                                                                                                                                                                                                                                                                                                                                                                                                                                                                                                                                                                                                                ",
"                                                                                                                                                                                                                                                                                                                                                                                                                                                                                                                                                                                                                                                                                                                                                                                                                                                                                                                                                                                                                                                                                                                                                                                                                                                ",
"                                                                                                                                                                                                                                                                                                                                                                                                                                                                                                                                                                                                                                                                                                                                                                                                                                                                                                                                                                                                                                                                                                                                                                                                                                                ",
"                                                                                                                                                                                                                                                                                                                                                                                                                                                                                                                                                                                                                                                                                                                                                                                                                                                                                                                                                                                                                                                                                                                                                                                                                                                ",
"                                                                                                                                                                                                                                                                                                                                                                                                                                                                                                                                                                                                                                                                                                                                                                                                                                                                                                                                                                                                                                                                                                                                                                                                                                                ",
"                                                                                                                                                                                                                                                                                                                                                                                                                                                                                                                                                                                                                                                                                                                                                                                                                                                                                                                                                                                                                                                                                                                                                                                                                                                ",
"                                                                                                                                                                                                                                                                                                                                                                                                                                                                                                                                                                                                                                                                                                                                                                                                                                                                                                                                                                                                                                                                                                                                                                                                                                                ",
"                                                                                                                                                                                                                                                                                                                                                                                                                                                                                                                                                                                                                                                                                                                                                                                                                                                                                                                                                                                                                                                                                                                                                                                                                                                ",
"                                                                                                                                                                                                                                                                                                                                                                                                                                                                                                                                                                                                                                                                                                                                                                                                                                                                                                                                                                                                                                                                                                                                                                                                                                                ",
"                                                                                                                                                                                                                                                                                                                                                                                                                                                                                                                                                                                                                                                                                                                                                                                                                                                                                                                                                                                                                                                                                                                                                                                                                                                ",
"                                                                                                                                                                                                                                                                                                                                                                                                                                                                                                                                                                                                                                                                                                                                                                                                                                                                                                                                                                                                                                                                                                                                                                                                                                                ",
"                                                                                                                                                                                                                                                                                                                                                                                                                                                                                                                                                                                                                                                                                                                                                                                                                                                                                                                                                                                                                                                                                                                                                                                                                                                ",
"                                                                                                                                                                                                                                                                                                                                                                                                                                                                                                                                                                                                                                                                                                                                                                                                                                                                                                                                                                                                                                                                                                                                                                                                                                                ",
"                                                                                                                                                                                                                                                                                                                                                                                                                                                                                                                                                                                                                                                                                                                                                                                                                                                                                                                                                                                                                                                                                                                                                                                                                                                ",
"                                                                                                                                                                                                                                                                                                                                                                                                                                                                                                                                                                                                                                                                                                                                                                                                                                                                                                                                                                                                                                                                                                                                                                                                                                                ",
"                                                                                                                                                                                                                                                                                                                                                                                                                                                                                                                                                                                                                                                                                                                                                                                                                                                                                                                                                                                                                                                                                                                                                                                                                                                ",
"                                                                                                                                                                                                                                                                                                                                                                                                                                                                                                                                                                                                                                                                                                                                                                                                                                                                                                                                                                                                                                                                                                                                                                                                                                                ",
"                                                                                                                                                                                                                                                                                                                                                                                                                                                                                                                                                                                                                                                                                                                                                                                                                                                                                                                                                                                                                                                                                                                                                                                                                                                ",
"                                                                                                                                                                                                                                                                                                                                                                                                                                                                                                                                                                                                                                                                                                                                                                                                                                                                                                                                                                                                                                                                                                                                                                                                                                                ",
"                                                                                                                                                                                                                                                                                                                                                                                                                                                                                                                                                                                                                                                                                                                                                                                                                                                                                                                                                                                                                                                                                                                                                                                                                                                ",
"                                                                                                                                                                                                                                                                                                                                                                                                                                                                                                                                                                                                                                                                                                                                                                                                                                                                                                                                                                                                                                                                                                                                                                                                                                                ",
"                                                                                                                                                                                                                                                                                                                                                                                                                                                                                                                                                                                                                                                                                                                                                                                                                                                                                                                                                                                                                                                                                                                                                                                                                                                ",
"                                                                                                                                                                                                                                                                                                                                                                                                                                                                                                                                                                                                                                                                                                                                                                                                                                                                                                                                                                                                                                                                                                                                                                                                                                                ",
"                                                                                                                                                                                                                                                                                                                                                                                                                                                                                                                                                                                                                                                                                                                                                                                                                                                                                                                                                                                                                                                                                                                                                                                                                                                ",
"                                                                                                                                                                                                                                                                                                                                                                                                                                                                                                                                                                                                                                                                                                                                                                                                                                                                                                                                                                                                                                                                                                                                                                                                                                                ",
"                                                                                                                                                                                                                                                                                                                                                                                                                                                                                                                                                                                                                                                                                                                                                                                                                                                                                                                                                                                                                                                                                                                                                                                                                                                ",
"                                                                                                                                                                                                                                                                                                                                                                                                                                                                                                                                                                                                                                                                                                                                                                                                                                                                                                                                                                                                                                                                                                                                                                                                                                                ",
"                                                                                                                                                                                                                                                                                                                                                                                                                                                                                                                                                                                                                                                                                                                                                                                                                                                                                                                                                                                                                                                                                                                                                                                                                                                ",
"                                                                                                                                                                                                                                                                                                                                                                                                                                                                                                                                                                                                                                                                                                                                                                                                                                                                                                                                                                                                                                                                                                                                                                                                                                                ",
"                                                                                                                                                                                                                                                                                                                                                                                                                                                                                                                                                                                                                                                                                                                                                                                                                                                                                                                                                                                                                                                                                                                                                                                                                                                ",
"                                                                                                                                                                                                                                                                                                                                                                                                                                                                                                                                                                                                                                                                                                                                                                                                                                                                                                                                                                                                                                                                                                                                                                                                                                                ",
"                                                                                                                                                                                                                                                                                                                                                                                                                                                                                                                                                                                                                                                                                                                                                                                                                                                                                                                                                                                                                                                                                                                                                                                                                                                ",
"                                                                                                                                                                                                                                                                                                                                                                                                                                                                                                                                                                                                                                                                                                                                                                                                                                                                                                                                                                                                                                                                                                                                                                                                                                                ",
"                                                                                                                                                                                                                                                                                                                                                                                                                                                                                                                                                                                                                                                                                                                                                                                                                                                                                                                                                                                                                                                                                                                                                                                                                                                ",
"                                                                                                                                                                                                                                                                                                                                                                                                                                                                                                                                                                                                                                                                                                                                                                                                                                                                                                                                                                                                                                                                                                                                                                                                                                                ",
"                                                                                                                                                                                                                                                                                                                                                                                                                                                                                                                                                                                                                                                                                                                                                                                                                                                                                                                                                                                                                                                                                                                                                                                                                                                ",
"                                                                                                                                                                                                                                                                                                                                                                                                                                                                                                                                                                                                                                                                                                                                                                                                                                                                                                                                                                                                                                                                                                                                                                                                                                                ",
"                                                                                                                                                                                                                                                                                                                                                                                                                                                                                                                                                                                                                                                                                                                                                                                                                                                                                                                                                                                                                                                                                                                                                                                                                                                ",
"                                                                                                                                                                                                                                                                                                                                                                                                                                                                                                                                                                                                                                                                                                                                                                                                                                                                                                                                                                                                                                                                                                                                                                                                                                                ",
"                                                                                                                                                                                                                                                                                                                                                                                                                                                                                                                                                                                                                                                                                                                                                                                                                                                                                                                                                                                                                                                                                                                                                                                                                                                ",
"                                                                                                                                                                                                                                                                                                                                                                                                                                                                                                                                                                                                                                                                                                                                                                                                                                                                                                                                                                                                                                                                                                                                                                                                                                                ",
"                                                                                                                                                                                                                                                                                                                                                                                                                                                                                                                                                                                                                                                                                                                                                                                                                                                                                                                                                                                                                                                                                                                                                                                                                                                ",
"                                                                                                                                                                                                                                                                                                                                                                                                                                                                                                                                                                                                                                                                                                                                                                                                                                                                                                                                                                                                                                                                                                                                                                                                                                                ",
"                                                                                                                                                                                                                                                                                                                                                                                                                                                                                                                                                                                                                                                                                                                                                                                                                                                                                                                                                                                                                                                                                                                                                                                                                                                ",
"                                                                                                                                                                                                                                                                                                                                                                                                                                                                                                                                                                                                                                                                                                                                                                                                                                                                                                                                                                                                                                                                                                                                                                                                                                                ",
"                                                                                                                                                                                                                                                                                                                                                                                                                                                                                                                                                                                                                                                                                                                                                                                                                                                                                                                                                                                                                                                                                                                                                                                                                                                ",
"                                                                                                                                                                                                                                                                                                                                                                                                                                                                                                                                                                                                                                                                                                                                                                                                                                                                                                                                                                                                                                                                                                                                                                                                                                                ",
"                                                                                                                                                                                                                                                                                                                                                                                                                                                                                                                                                                                                                                                                                                                                                                                                                                                                                                                                                                                                                                                                                                                                                                                                                                                ",
"                                                                                                                                                                                                                                                                                                                                                                                                                                                                                                                                                                                                                                                                                                                                                                                                                                                                                                                                                                                                                                                                                                                                                                                                                                                ",
"                                                                                                                                                                                                                                                                                                                                                                                                                                                                                                                                                                                                                                                                                                                                                                                                                                                                                                                                                                                                                                                                                                                                                                                                                                                ",
"                                                                                                                                                                                                                                                                                                                                                                                                                                                                                                                                                                                                                                                                                                                                                                                                                                                                                                                                                                                                                                                                                                                                                                                                                                                ",
"                                                                                                                                                                                                                                                                                                                                                                                                                                                                                                                                                                                                                                                                                                                                                                                                                                                                                                                                                                                                                                                                                                                                                                                                                                                ",
"                                                                                                                                                                                                                                                                                                                                                                                                                                                                                                                                                                                                                                                                                                                                                                                                                                                                                                                                                                                                                                                                                                                                                                                                                                                ",
"                                                                                                                                                                                                                                                                                                                                                                                                                                                                                                                                                                                                                                                                                                                                                                                                                                                                                                                                                                                                                                                                                                                                                                                                                                                ",
"                                                                                                                                                                                                                                                                                                                                                                                                                                                                                                                                                                                                                                                                                                                                                                                                                                                                                                                                                                                                                                                                                                                                                                                                                                                ",
"                                                                                                                                                                                                                                                                                                                                                                                                                                                                                                                                                                                                                                                                                                                                                                                                                                                                                                                                                                                                                                                                                                                                                                                                                                                ",
"                                                                                                                                                                                                                                                                                                                                                                                                                                                                                                                                                                                                                                                                                                                                                                                                                                                                                                                                                                                                                                                                                                                                                                                                                                                ",
"                                                                                                                                                                                                                                                                                                                                                                                                                                                                                                                                                                                                                                                                                                                                                                                                                                                                                                                                                                                                                                                                                                                                                                                                                                                ",
"                                                                                                                                                                                                                                                                                                                                                                                                                                                                                                                                                                                                                                                                                                                                                                                                                                                                                                                                                                                                                                                                                                                                                                                                                                                ",
"                                                                                                                                                                                                                                                                                                                                                                                                                                                                                                                                                                                                                                                                                                                                                                                                                                                                                                                                                                                                                                                                                                                                                                                                                                                ",
"                                                                                                                                                                                                                                                                                                                                                                                                                                                                                                                                                                                                                                                                                                                                                                                                                                                                                                                                                                                                                                                                                                                                                                                                                                                ",
"                                                                                                                                                                                                                                                                                                                                                                                                                                                                                                                                                                                                                                                                                                                                                                                                                                                                                                                                                                                                                                                                                                                                                                                                                                                ",
"                                                                                                                                                                                                                                                                                                                                                                                                                                                                                                                                                                                                                                                                                                                                                                                                                                                                                                                                                                                                                                                                                                                                                                                                                                                ",
"                                                                                                                                                                                                                                                                                                                                                                                                                                                                                                                                                                                                                                                                                                                                                                                                                                                                                                                                                                                                                                                                                                                                                                                                                                                ",
"                                                                                                                                                                                                                                                                                                                                                                                                                                                                                                                                                                                                                                                                                                                                                                                                                                                                                                                                                                                                                                                                                                                                                                                                                                                ",
"                                                                                                                                                                                                                                                                                                                                                                                                                                                                                                                                                                                                                                                                                                                                                                                                                                                                                                                                                                                                                                                                                                                                                                                                                                                ",
"                                                                                                                                                                                                                                                                                                                                                                                                                                                                                                                                                                                                                                                                                                                                                                                                                                                                                                                                                                                                                                                                                                                                                                                                                                                ",
"                                                                                                                                                                                                                                                                                                                                                                                                                                                                                                                                                                                                                                                                                                                                                                                                                                                                                                                                                                                                                                                                                                                                                                                                                                                ",
"                                                                                                                                                                                                                                                                                                                                                                                                                                                                                                                                                                                                                                                                                                                                                                                                                                                                                                                                                                                                                                                                                                                                                                                                                                                ",
"                                                                                                                                                                                                                                                                                                                                                                                                                                                                                                                                                                                                                                                                                                                                                                                                                                                                                                                                                                                                                                                                                                                                                                                                                                                ",
"                                                                                                                                                                                                                                                                                                                                                                                                                                                                                                                                                                                                                                                                                                                                                                                                                                                                                                                                                                                                                                                                                                                                                                                                                                                ",
"                                                                                                                                                                                                                                                                                                                                                                                                                                                                                                                                                                                                                                                                                                                                                                                                                                                                                                                                                                                                                                                                                                                                                                                                                                                ",
"                                                                                                                                                                                                                                                                                                                                                                                                                                                                                                                                                                                                                                                                                                                                                                                                                                                                                                                                                                                                                                                                                                                                                                                                                                                ",
"                                                                                                                                                                                                                                                                                                                                                                                                                                                                                                                                                                                                                                                                                                                                                                                                                                                                                                                                                                                                                                                                                                                                                                                                                                                ",
"                                                                                                                                                                                                                                                                                                                                                                                                                                                                                                                                                                                                                                                                                                                                                                                                                                                                                                                                                                                                                                                                                                                                                                                                                                                ",
"                                                                                                                                                                                                                                                                                                                                                                                                                                                                                                                                                                                                                                                                                                                                                                                                                                                                                                                                                                                                                                                                                                                                                                                                                                                ",
"                                                                                                                                                                                                                                                                                                                                                                                                                                                                                                                                                                                                                                                                                                                                                                                                                                                                                                                                                                                                                                                                                                                                                                                                                                                ",
"                                                                                                                                                                                                                                                                                                                                                                                                                                                                                                                                                                                                                                                                                                                                                                                                                                                                                                                                                                                                                                                                                                                                                                                                                                                ",
"                                                                                                                                                                                                                                                                                                                                                                                                                                                                                                                                                                                                                                                                                                                                                                                                                                                                                                                                                                                                                                                                                                                                                                                                                                                ",
"                                                                                                                                                                                                                                                                                                                                                                                                                                                                                                                                                                                                                                                                                                                                                                                                                                                                                                                                                                                                                                                                                                                                                                                                                                                ",
"                                                                                                                                                                                                                                                                                                                                                                                                                                                                                                                                                                                                                                                                                                                                                                                                                                                                                                                                                                                                                                                                                                                                                                                                                                                ",
"                                                                                                                                                                                                                                                                                                                                                                                                                                                                                                                                                                                                                                                                                                                                                                                                                                                                                                                                                                                                                                                                                                                                                                                                                                                ",
"                                                                                                                                                                                                                                                                                                                                                                                                                                                                                                                                                                                                                                                                                                                                                                                                                                                                                                                                                                                                                                                                                                                                                                                                                                                ",
"                                                                                                                                                                                                                                                                                                                                                                                                                                                                                                                                                                                                                                                                                                                                                                                                                                                                                                                                                                                                                                                                                                                                                                                                                                                ",
"                                                                                                                                                                                                                                                                                                                                                                                                                                                                                                                                                                                                                                                                                                                                                                                                                                                                                                                                                                                                                                                                                                                                                                                                                                                ",
"                                                                                                                                                                                                                                                                                                                                                                                                                                                                                                                                                                                                                                                                                                                                                                                                                                                                                                                                                                                                                                                                                                                                                                                                                                                ",
"                                                                                                                                                                                                                                                                                                                                                                                                                                                                                                                                                                                                                                                                                                                                                                                                                                                                                                                                                                                                                                                                                                                                                                                                                                                ",
"                                                                                                                                                                                                                                                                                                                                                                                                                                                                                                                                                                                                                                                                                                                                                                                                                                                                                                                                                                                                                                                                                                                                                                                                                                                ",
"                                                                                                                                                                                                                                                                                                                                                                                                                                                                                                                                                                                                                                                                                                                                                                                                                                                                                                                                                                                                                                                                                                                                                                                                                                                ",
"                                                                                                                                                                                                                                                                                                                                                                                                                                                                                                                                                                                                                                                                                                                                                                                                                                                                                                                                                                                                                                                                                                                                                                                                                                                ",
"                                                                                                                                                                                                                                                                                                                                                                                                                                                                                                                                                                                                                                                                                                                                                                                                                                                                                                                                                                                                                                                                                                                                                                                                                                                ",
"                                                                                                                                                                                                                                                                                                                                                                                                                                                                                                                                                                                                                                                                                                                                                                                                                                                                                                                                                                                                                                                                                                                                                                                                                                                ",
"                                                                                                                                                                                                                                                                                                                                                                                                                                                                                                                                                                                                                                                                                                                                                                                                                                                                                                                                                                                                                                                                                                                                                                                                                                                ",
"                                                                                                                                                                                                                                                                                                                                                                                                                                                                                                                                                                                                                                                                                                                                                                                                                                                                                                                                                                                                                                                                                                                                                                                                                                                ",
"                                                                                                                                                                                                                                                                                                                                                                                                                                                                                                                                                                                                                                                                                                                                                                                                                                                                                                                                                                                                                                                                                                                                                                                                                                                ",
"                                                                                                                                                                                                                                                                                                                                                                                                                                                                                                                                                                                                                                                                                                                                                                                                                                                                                                                                                                                                                                                                                                                                                                                                                                                ",
"                                                                                                                                                                                                                                                                                                                                                                                                                                                                                                                                                                                                                                                                                                                                                                                                                                                                                                                                                                                                                                                                                                                                                                                                                                                ",
"                                                                                                                                                                                                                                                                                                                                                                                                                                                                                                                                                                                                                                                                                                                                                                                                                                                                                                                                                                                                                                                                                                                                                                                                                                                ",
"                                                                                                                                                                                                                                                                                                                                                                                                                                                                                                                                                                                                                                                                                                                                                                                                                                                                                                                                                                                                                                                                                                                                                                                                                                                ",
"                                                                                                                                                                                                                                                                                                                                                                                                                                                                                                                                                                                                                                                                                                                                                                                                                                                                                                                                                                                                                                                                                                                                                                                                                                                ",
"                                                                                                                                                                                                                                                                                                                                                                                                                                                                                                                                                                                                                                                                                                                                                                                                                                                                                                                                                                                                                                                                                                                                                                                                                                                ",
"                                                                                                                                                                                                                                                                                                                                                                                                                                                                                                                                                                                                                                                                                                                                                                                                                                                                                                                                                                                                                                                                                                                                                                                                                                                ",
"                                                                                                                                                                                                                                                                                                                                                                                                                                                                                                                                                                                                                                                                                                                                                                                                                                                                                                                                                                                                                                                                                                                                                                                                                                                ",
"                                                                                                                                                                                                                                                                                                                                                                                                                                                                                                                                                                                                                                                                                                                                                                                                                                                                                                                                                                                                                                                                                                                                                                                                                                                ",
"                                                                                                                                                                                                                                                                                                                                                                                                                                                                                                                                                                                                                                                                                                                                                                                                                                                                                                                                                                                                                                                                                                                                                                                                                                                ",
"                                                                                                                                                                                                                                                                                                                                                                                                                                                                                                                                                                                                                                                                                                                                                                                                                                                                                                                                                                                                                                                                                                                                                                                                                                                ",
"                                                                                                                                                                                                                                                                                                                                                                                                                                                                                                                                                                                                                                                                                                                                                                                                                                                                                                                                                                                                                                                                                                                                                                                                                                                ",
"                                                                                                                                                                                                                                                                                                                                                                                                                                                                                                                                                                                                                                                                                                                                                                                                                                                                                                                                                                                                                                                                                                                                                                                                                                                ",
"                                                                                                                                                                                                                                                                                                                                                                                                                                                                                                                                                                                                                                                                                                                                                                                                                                                                                                                                                                                                                                                                                                                                                                                                                                                ",
"                                                                                                                                                                                                                                                                                                                                                                                                                                                                                                                                                                                                                                                                                                                                                                                                                                                                                                                                                                                                                                                                                                                                                                                                                                                ",
"                                                                                                                                                                                                                                                                                                                                                                                                                                                                                                                                                                                                                                                                                                                                                                                                                                                                                                                                                                                                                                                                                                                                                                                                                                                ",
"                                                                                                                                                                                                                                                                                                                                                                                                                                                                                                                                                                                                                                                                                                                                                                                                                                                                                                                                                                                                                                                                                                                                                                                                                                                ",
"                                                                                                                                                                                                                                                                                                                                                                                                                                                                                                                                                                                                                                                                                                                                                                                                                                                                                                                                                                                                                                                                                                                                                                                                                                                ",
"                                                                                                                                                                                                                                                                                                                                                                                                                                                                                                                                                                                                                                                                                                                                                                                                                                                                                                                                                                                                                                                                                                                                                                                                                                                ",
"                                                                                                                                                                                                                                                                                                                                                                                                                                                                                                                                                                                                                                                                                                                                                                                                                                                                                                                                                                                                                                                                                                                                                                                                                                                ",
"                                                                                                                                                                                                                                                                                                                                                                                                                                                                                                                                                                                                                                                                                                                                                                                                                                                                                                                                                                                                                                                                                                                                                                                                                                                ",
"                                                                                                                                                                                                                                                                                                                                                                                                                                                                                                                                                                                                                                                                                                                                                                                                                                                                                                                                                                                                                                                                                                                                                                                                                                                ",
"                                                                                                                                                                                                                                                                                                                                                                                                                                                                                                                                                                                                                                                                                                                                                                                                                                                                                                                                                                                                                                                                                                                                                                                                                                                ",
"                                                                                                                                                                                                                                                                                                                                                                                                                                                                                                                                                                                                                                                                                                                                                                                                                                                                                                                                                                                                                                                                                                                                                                                                                                                ",
"                                                                                                                                                                                                                                                                                                                                                                                                                                                                                                                                                                                                                                                                                                                                                                                                                                                                                                                                                                                                                                                                                                                                                                                                                                                ",
"                                                                                                                                                                                                                                                                                                                                                                                                                                                                                                                                                                                                                                                                                                                                                                                                                                                                                                                                                                                                                                                                                                                                                                                                                                                ",
"                                                                                                                                                                                                                                                                                                                                                                                                                                                                                                                                                                                                                                                                                                                                                                                                                                                                                                                                                                                                                                                                                                                                                                                                                                                ",
"                                                                                                                                                                                                                                                                                                                                                                                                                                                                                                                                                                                                                                                                                                                                                                                                                                                                                                                                                                                                                                                                                                                                                                                                                                                ",
"                                                                                                                                                                                                                                                                                                                                                                                                                                                                                                                                                                                                                                                                                                                                                                                                                                                                                                                                                                                                                                                                                                                                                                                                                                                ",
"                                                                                                                                                                                                                                                                                                                                                                                                                                                                                                                                                                                                                                                                                                                                                                                                                                                                                                                                                                                                                                                                                                                                                                                                                                                ",
"                                                                                                                                                                                                                                                                                                                                                                                                                                                                                                                                                                                                                                                                                                                                                                                                                                                                                                                                                                                                                                                                                                                                                                                                                                                ",
"                                                                                                                                                                                                                                                                                                                                                                                                                                                                                                                                                                                                                                                                                                                                                                                                                                                                                                                                                                                                                                                                                                                                                                                                                                                ",
"                                                                                                                                                                                                                                                                                                                                                                                                                                                                                                                                                                                                                                                                                                                                                                                                                                                                                                                                                                                                                                                                                                                                                                                                                                                ",
"                                                                                                                                                                                                                                                                                                                                                                                                                                                                                                                                                                                                                                                                                                                                                                                                                                                                                                                                                                                                                                                                                                                                                                                                                                                ",
"                                                                                                                                                                                                                                                                                                                                                                                                                                                                                                                                                                                                                                                                                                                                                                                                                                                                                                                                                                                                                                                                                                                                                                                                                                                ",
"                                                                                                                                                                                                                                                                                                                                                                                                                                                                                                                                                                                                                                                                                                                                                                                                                                                                                                                                                                                                                                                                                                                                                                                                                                                ",
"                                                                                                                                                                                                                                                                                                                                                                                                                                                                                                                                                                                                                                                                                                                                                                                                                                                                                                                                                                                                                                                                                                                                                                                                                                                ",
"                                                                                                                                                                                                                                                                                                                                                                                                                                                                                                                                                                                                                                                                                                                                                                                                                                                                                                                                                                                                                                                                                                                                                                                                                                                ",
"                                                                                                                                                                                                                                                                                                                                                                                                                                                                                                                                                                                                                                                                                                                                                                                                                                                                                                                                                                                                                                                                                                                                                                                                                                                ",
"                                                                                                                                                                                                                                                                                                                                                                                                                                                                                                                                                                                                                                                                                                                                                                                                                                                                                                                                                                                                                                                                                                                                                                                                                                                ",
"                                                                                                                                                                                                                                                                                                                                                                                                                                                                                                                                                                                                                                                                                                                                                                                                                                                                                                                                                                                                                                                                                                                                                                                                                                                ",
"                                                                                                                                                                                                                                                                                                                                                                                                                                                                                                                                                                                                                                                                                                                                                                                                                                                                                                                                                                                                                                                                                                                                                                                                                                                ",
"                                                                                                                                                                                                                                                                                                                                                                                                      ] ` y e ! [ ^ ! E E W                                                                                                                                                                                                                                                                                                                                                                                                                                                                                                                                                                                                                                                                                                                                                                                                                     ",
"                                                                                                                                                                                                                                                                                                                                                                                                  _ / W W y y t q y t t n e E                                                                                                                                                                                                                                                                                                                                                                                         t y E W W W _ ] 5.                                                                                                                                                                                                                                                                                                                                                                                                        ",
"                                                                                                                                                                                                                                                                                                                                                                                              Q [ ) O.3.9.9.4.F D H h z B C t e                                                                                                                                                                                                                                                                                                                                                                                   E e t n i c k r r r t ! E _                                                                                                                                                                                                                                                                                                                                                                                                   ",
"                                                                                                                                                                                                                                                                                                                                                                                          ` ^ | @.7.o.G x > x Z C 2.9.9.S x c t e                                                                                                                                                                                                                                                                                                                                                                               w e r n h h r < h h h r r t W Q |                                                                                                                                                                                                                                                                                                                                                                                               ",
"                                                                                                                                                                                                                                                                                                                                                                                      _ ^ ` 7.2.A m k x h X 1 1 x 2.H C D 4.B x t e                                                                                                                                                                                                                                                                                                                                                                           e e c j d 1 , < h h s s 1 1 s j n ) { } u.                                                                                                                                                                                                                                                                                                                                                                                        ",
"                                                                                                                                                                                                                                                                                                                                                                                  @._ ` ] 7.A S C G C x x h , j N C D x x C <.x c y !                                                                                                                                                                                                                                                                                                                                                                       w y r h k 1 > ; < 1 1 s s l h h l x n G =.u.| i.                                                                                                                                                                                                                                                                                                                                                                                    ",
"                                                                                                                                                                                                                                                                                                                                                                              ` Q Q @.5.A C C C v x v C A x h = 1 h j x j C 1.F z r W ]                                                                                                                                                                                                                                                                                                                                                                   E y h h j h 1 1 1 u h h h h h h h h l x B v M 7.p.-X|                                                                                                                                                                                                                                                                                                                                                                                 ",
"                                                                                                                                                                                                                                                                                                                                                                          ) Q ~ @.7.8.o.G h j h j x C A P x h 6 X , h j h H D F Z r t E                                                                                                                                                                                                                                                                                                                                                                 W E t x x C x h j j x C P F S x j h z l z z j v M 7.i.p.-._ 7.                                                                                                                                                                                                                                                                                                                                                                          ",
"                                                                                                                                                                                                                                                                                                                                                                      @.Q ~ ' o.8.0.6.v m 6 6 x x j 1 : , , ; = = X d h j x C j Z x i W `                                                                                                                                                                                                                                                                                                                                                               e t c m 5.4.s.s.9.3.o.Z 3.3.D x x z z x z d z x x G A 3.9.i.-.[ =.                                                                                                                                                                                                                                                                                                                                                                      ",
"                                                                                                                                                                                                                                                                                                                                                                    W _ ) ' 5.6.6.o.P v k k h 1 , 6 h h 6 : ; = X X , d h l C l 1 G u t E                                                                                                                                                                                                                                                                                                                                                             W e r k s.4.2.<.C j j 6 , 6 6 x B v x j j j j C B x x C C Z o.8.u.=.} u.                                                                                                                                                                                                                                                                                                                                                                  ",
"                                                                                                                                                                                                                                                                                                                                                                ! [ ] 5.o.3.6.6.P Z P Z > > > : h 2.x x k x 1 , ; X = < s s N h h x x r e (                                                                                                                                                                                                                                                                                                                                                           ! y > 9.C B C D B C < o X + ; < j j z h z x j C B j z z x x v C 2.9.i.=.} u.                                                                                                                                                                                                                                                                                                                                                              ",
"                                                                                                                                                                                                                                                                                                                                                            ~ [ | @.5.5.3.3.3.m v v V v % + ; h 2.C h x x A 1 , 1 h < ; , 1 x 6 j k Z i & E                                                                                                                                                                                                                                                                                                                                                         e W r 4.C x C S 2.h l 1 ; h h h z z j h d j h x v x z l h h z j x v G 2.7.u.| { p.                                                                                                                                                                                                                                                                                                                                                          ",
"                                                                                                                                                                                                                                                                                                                                                        _ ^ =.7.5.5.o.P P A v v m m 6 6 o 6 x k h h x x k F X < x S x < ; 1 h h h j x k > y E                                                                                                                                                                                                                                                                                                                                                       E r F D x x D S x B h * h N N B N B j 1 1 h j C C B z h h h d h h j j x B D 0.i.p.[ u.                                                                                                                                                                                                                                                                                                                                                      ",
"                                                                                                                                                                                                                                                                                                                                                    ) { =.@.O.2.P A A Z Z G m m k 1 1 > 6 k x h 1 6 j x x 2.1 x C C h 6 ; 1 d h 1 h k k u t E                                                                                                                                                                                                                                                                                                                                                     e 0 2.C F x x x h z , 1 z S N B B j h 6 > d 1 x 2.F C j j h h 1 6 1 h h h z z x A 7.p.p.|                                                                                                                                                                                                                                                                                                                                                     ",
"                                                                                                                                                                                                                                                                                                                                                  ! | 8.6.3.P A Z Z S A F Z v u > > 6 1 1 1 1 6 1 1 h x j v h x v v h 1 < ; h : 1 h h u j r W '                                                                                                                                                                                                                                                                                                                                                   E t x x C z x s s = , x x S D x h d 1 1 1 h h D 2.F B z j h d 6 6 d d h h l h j z x F 9.p. . .                                                                                                                                                                                                                                                                                                                                                ",
"                                                                                                                                                                                                                                                                                                                                              ` } =.O.o.P Z Z C C G G m C j 1 h x x h : 1 1 1 z j 6 u C j 1 d x z j d 6 1 ; , < 1 6 6 6 k r y y                                                                                                                                                                                                                                                                                                                                                 t E n j x C l h d ; ; 1 1 z S F C x z j d 1 h d x B x h h j h 1 1 1 1 h h h j j z z z x C O.i.p. .p.                                                                                                                                                                                                                                                                                                                                            ",
"                                                                                                                                                                                                                                                                                                                                          ] } =.7.o.I Z Z Z Z Z B C C j h h x C C x h < : ; < 6 C m h x : 1 h h h h h d d < = 1 1 h j j z h $ y                                                                                                                                                                                                                                                                                                                                                 q ( c h x x h h s ; X ; ; 1 1 < x x x h 6 6 C 1 C x j x x j h 1 h h h h h h h z z x z z x x C 2.9.p.} p.                                                                                                                                                                                                                                                                                                                                        ",
"                                                                                                                                                                                                                                                                                                                                        { -.=.O.G Z A Z Z S C x x h : 6 u x x x C C h 1 : < 6 1 j m j x > 1 d d d d 1 6 1 1 , ; d h j z x Z 6.`                                                                                                                                                                                                                                                                                                                                                 E n c 1 x g d j ; X X X = ; < ; + ; 1 < j x 1 x B x j x k j h h h h h h j h h z x x x x x x x x m O.u.p.{                                                                                                                                                                                                                                                                                                                                       ",
"                                                                                                                                                                                                                                                                                                                                    _ } =.O.Z Z Z A A Z S z h l < 1 j j h 6 h j x x h 1 1 1 > > h x j x X 1 x x 6 1 1 1 1 1 1 < 6 h j z x v +.p.-.                                                                                                                                                                                                                                                                                                                                              E c h h x d < X * = = < 1 h z x k % X : d 1 h F G h 6 j x h h h h s u h h h h z x x x x B N v v v k Z 7.p.-X .                                                                                                                                                                                                                                                                                                                                  ",
"                                                                                                                                                                                                                                                                                                                                @. .u.@.G G A A 2.D C B j 1 = < C B j 1 1 : > 1 j x j j h u 6 > 1 h u 6 X 6 C z d 1 1 1 1 1 1 1 1 h z z x j b a.;.                                                                                                                                                                                                                                                                                                                                            e y g s h 1 < = < 1 , , d x h v B 4.Z : ; ; X h m S x h 1 k j j h h g h h h h h j l x x x x C C B v v x H G @.p. .u.                                                                                                                                                                                                                                                                                                                              ",
"                                                                                                                                                                                                                                                                                                                              [  .7.' Z Z C G A D z 1 ; + X d C C h h s < ; : 1 h h > 1 j h h 6 1 < 1 1 + : h h h 6 1 1 d 6 d h 1 1 d h j j b O.2Xa.                                                                                                                                                                                                                                                                                                                                          E r z s < h ; < h S x < 1 D v x z x F x u ; X > u x x x x x x x h j h j h j h j h h l j z x x x x C C C C v m F u.p. .                                                                                                                                                                                                                                                                                                                            ",
"                                                                                                                                                                                                                                                                                                                          ] ..u.' G m C C G x h d < ; ; s h z z l s 1 < ; ; , < u h 1 1 h j j h 1 > < ; ; ; 6 h j j d d h j z x s < < 1 d 6 8 J V.<X                                                                                                                                                                                                                                                                                                                                        e t g l s < j * 1 j S S 1 < F C x z h 1 z x h X ; u h v C S S C C z d h h h x j h h h h h j j j z x C D Z Z S C m G O.u. .u.                                                                                                                                                                                                                                                                                                                        ",
"                                                                                                                                                                                                                                                                                                                        ^  .@.G m m Z B x x h , ; : s d h 1 d s 1 1 < < ; ; > u h 6 > > 1 1 h 6 1 1 > ; 6 < d h x h d h d z x v h < : > 7 7 q.q.l.<X0X                                                                                                                                                                                                                                                                                                                                    W e c x s 1 1 ; , 6 h C C z d D x x h d d 6 h x 1 1 1 > 1 h x S D S B j j j j j h j h h h h h h h h j x C S S S S S v G A 7.=.[                                                                                                                                                                                                                                                                                                                       ",
"                                                                                                                                                                                                                                                                                                                    _  .=.' M m x G C j 1 1 = ; < h h 1 1 < < < < < < , , < < 1 1 < < , , , ; < < 1 , , : : s d l h h h d l N j k > % @ 8 t.n.G.G.qX3X                                                                                                                                                                                                                                                                                                                                    E t l h s , ; < d d l l C l s N x z j 6 6 6 1 : : 1 h h 1 ; 6 x m B x x j h g x x j h h h h s 1 1 s h j j N S S C C C m v G ' u.-.=.                                                                                                                                                                                                                                                                                                                  ",
"                                                                                                                                                                                                                                                                                                                _ ..=.5.A k k m x x j 6 : : z x x 1 1 < < , < < < < < < < < 1 1 < < , , ; ; = ; ; ; = 1 1 < < < < 1 l h l l h h j 7 O e.Y l.S.G.oXJ.8XqX                                                                                                                                                                                                                                                                                                                                w y c z s h , ; h 6 d h h l l s s C x 6 6 j 6 1 1 > > u k v x h 6 1 h x H x h h j h z z j h j h 1 1 1 d h h l x S C x C C x v k M 7.u.[ u.                                                                                                                                                                                                                                                                                                              ",
"                                                                                                                                                                                                                                                                                                            @.^ { ] G k h k m m v k u : 1 k x C h < < , , , < 1 < < < < < < 1 < < , ; ; ; ; + + + + X < z < ; < , < s l l d h j 7 O t.w.z.F.Q.Y.Y.Q.qX<X                                                                                                                                                                                                                                                                                                                              #.e c x l l s 1 1 6 6 1 s h h d 1 , C h d C x 6 6 1 1 6 j v v C j j h ; , 1 1 h x j g j x x x x x h s 1 s s s d j x C B x Z Z j j j m ' u.=._ i.                                                                                                                                                                                                                                                                                                          ",
"                                                                                                                                                                                                                                                                                                          ^  .@.' k u u h k v x j 1 ; 6 j x x x h < < , , , < 1 < 1 1 1 1 1 1 < , ; ; ; ; ; = + + X X z B 1 = ; = , < d d 6 : @ U w.j.S.Q. X.X.X.X.XQ.6XhX                                                                                                                                                                                                                                                                                                                            / a j h l h 1 h d d 6 1 s h l z h < 1 z j C j 6 1 1 : 1 j m m v j j d d , , 3 , j h j h N x x S j h h h 1 s 1 1 1 h l x C v C v j j j u Z 8.u. . .                                                                                                                                                                                                                                                                                                        ",
"                                                                                                                                                                                                                                                                                                      _  .=.] M k h 6 1 1 h j 1 ; < j j h d d h h 1 < , , , < < < 1 1 1 1 1 1 < , ; ; ; ; ; = = = X = 5.F v : : ; - - 7 > : O t.t.}.oX#X#XzXzXzX#X.X XV.>X                                                                                                                                                                                                                                                                                                                          ;.>.L 7 6 1 1 d l h l s d s s 1 S z 1 = h x z 6 > 1 1 1 h k v k j j 6 < < 1 j j < ; < 1 < 1 s j x j h h h h 1 1 < < 1 h z C C v x j j j j j k ' @.u.-.=.                                                                                                                                                                                                                                                                                                    ",
"                                                                                                                                                                                                                                                                                                  ~ 5X=.7.o.m j 6 1 : 1 j h ; : h h d 6 < < 1 d j 1 < < , , < < 1 1 1 1 1 1 < < , ; ; ; ; ; = = + = 1 F 0.A 6 + O 8 5 O O O y.Z.G.oX.X#XmXmXxX#X#X X.XJ.>X                                                                                                                                                                                                                                                                                                                        a.<XH.t.5 - : 1 h N N l s s s s N s s , * < h d 1 1 6 u 6 h v v h 1 , ; : d j j z x 1 X = ; , , < 1 1 h j j j h 1 1 < 1 s h x C C x h j h j k h j x F 7.p.} p.                                                                                                                                                                                                                                                                                                ",
"                                                                                                                                                                                                                                                                                              @.[ | ] G m C v h ; ; : < : > h x h < < , , < 1 d h h 1 < , , < < 1 1 1 1 1 1 < < , ; ; ; ; = + = * = j P A A 7 q.t.%.T r.l.$.x.S..X#X#XmXmXxXzX#X#X+XOXJ.:XrX                                                                                                                                                                                                                                                                                                                      1X7XG.r.w.@ : 6 x x x l h s l z l h s , * < 1 1 6 1 h j j 1 u h 6 < ; < , 1 j h l j j 1 , X X ; , , < < h j j j h 1 < 1 < < j x j j 1 h h j j k j j k x ' @.=.{ i.                                                                                                                                                                                                                                                                                            ",
"                                                                                                                                                                                                                                                                                            ^ } ] G v v v v z < = ; < < j m x h d < , ; ; , < 1 h 1 1 < < , < < 1 1 s 1 1 < < < , , , , ; ; = = * ; j S x 6 7 q.r.k.k.g.&.z.F..X#XzXmXmXmXmXxX#X#X+X+X^.C.7X                                                                                                                                                                                                                                                                                                                    a.0X^.Q.S.$.t.4 7 v j x l l s d N l s 1 ; ; ; < 1 6 j x h h 6 u h u < < ; ; < 1 h z x h 1 1 1 1 , X ; ; < 1 s h j j j h 1 < 1 1 1 1 < > h h k k x x x z x k v ' 7.-...u.                                                                                                                                                                                                                                                                                        ",
"                                                                                                                                                                                                                                                                                        {  .] ) G Z m v z h 6 < ; < h C C x h d < , ; ; , , < 1 1 1 1 , , , , < 1 d s 1 1 1 < < < , , < , ; = = X ; h z 6 6 7 b A.l.k.c.M.I. X#X#XzX#XmXmXmXnXxX#X#X+XI.B.6X                                                                                                                                                                                                                                                                                                                    1X^.XX#XoXS.r.n.5 j j d N h s s s , < 1 > + V + 1 j h 1 d 1 1 1 d d 1 ; , , < 1 h h h h s 1 s 1 1 < < X X < 1 1 j j l j h 1 1 1 < ; 3 ; 1 h h j k x x x x x x x M ' @.| -.i.                                                                                                                                                                                                                                                                                    ",
"                                                                                                                                                                                                                                                                                    _ ..( ' G Z C v x h h d < = < j x C z h 1 1 < , ; ; ; , < 1 1 1 1 < , , < < d d 1 1 1 1 < < < < < < , ; = + X , h d h u i p q.H.M.M.F.Q. XOX$X#X#XxXxXmXxXxXxX+X#X!.B.>.                                                                                                                                                                                                                                                                                                                  ;XqX#X#X#X#X XG.l.U @ 6 h h h h 1 , , ; % @ 6.6.@ + , ; , , < , < 1 1 < < < , < < < < < < 1 < 1 1 h h h j < , 1 1 h j x x j h h < , ; 3 % , 1 u u h j j x x x x B v Z Z o.7.u.[ i.                                                                                                                                                                                                                                                                                ",
"                                                                                                                                                                                                                                                                                @.[ _ ( G A Z m v x h u 1 < ; ; h x j h 1 < , : , ; ; ; ; , < < 1 1 1 < , , < 1 1 h s 1 1 1 1 < < < < < < ; ; X X 1 d d d h j b K |.H.D.I.Y.!.OX+X#X#X#XxXnXxXxXxX#X#X XM.>.                                                                                                                                                                                                                                                                                                                V.8X^..XXX#X#X#X#X}.l.w.@ : 6 1 < : : : : @ q.|.|.4 + + ; * , , , , < 1 1 < < < < < 1 < < < , , < 1 1 h x l j 1 , 1 1 d h x x j 1 < ; X X < ; < 1 1 1 h h j j j x S C Z 2.C G O.] =.| u.                                                                                                                                                                                                                                                                            ",
"                                                                                                                                                                                                                                                                            ] ..=.n j Z Z Z m v j j 6 ; + ; ; d h d < : , , , , , ; ; ; ; , < < < < < < , < < 1 h h h 1 1 1 1 1 1 1 < < < ; % X + 6 7 6 6 6 j j p y.G.Y.Y.Y.!.OXOX+X+X#X#XnXxXxX#X$X#XI.I.:X                                                                                                                                                                                                                                                                                                                >.tX.X#X#X#XzXnX#XoXG.l.A.O @ 5 5 5 4 4 5 b |.XX|.q.@ + + * ; ; , ; , < < < < < < < 1 1 < , ; ; < < 1 x l x h h , ; , < 1 1 1 j 1 < ; X X * , < < < < 1 1 1 h h 1 h x x Z P 2.Z A 3.O.=.{ Q ` u.                                                                                                                                                                                                                                                                    ",
"                                                                                                                                                                                                                                                                        ( { | ] r m Z Z m m x j u > % + ; 1 h h h 1 < ; ; , : : , , ; ; , : < < < < < < < 1 1 1 h h h 1 s 1 1 1 1 1 1 < < : + + @ GXy.5 7 f j j j p }.oXQ.I.T.T.!.OX+X+X#X#XxXxX#X+X+X!.I.>.                                                                                                                                                                                                                                                                                                                :X~.#XxXnXzXnXzXmXzXQ.H.z.r.K t.t.w.T Y Y n.Z.}.oX|.O + + * ; ; ; ; ; , s 1 < < < < < < < , , , , < d h x x d 1 h 1 ; X X , 1 h g 1 ; X ; ; : < : < , < , 1 1 1 1 < < < h B Z 9.9.m m ' ] ] u.` ` ` { | u.i.8.8.                                                                                                                                                                                                                                                    ",
"                                                                                                                                                                                                                                                                =.| ../ ) ' I 6.Z m v v v k h 6 ; ; ; 1 u h h h h 1 , ; , , : < , , , , , < < < < < 1 1 1 1 1 s h j h h s s 1 1 1 1 s 1 1 > : @ q.|.}.XX5 7 6 c a & J G.I.I.Y.I.T.!. XOX#X#X#X#X+X X X!.I.;.                                                                                                                                                                                                                                                                                                              a.6X+XnXxXnXnXmXmXzXzX#X XD.z.%.%.r.x.j.j.z.z.z.z.S.}.p @ = = = = ; ; ; < j 1 < < < < < < < , ; , < < h j h s 1 1 1 < < ; = X = < < < = X X * ; , , , , , , , < < 1 < < < < 1 6 % A o.k C Z V 3.6.P P A A A ' ] ] | } {                                                                                                                                                                                                                                               ",
"                                                                                                                                                                                                                                                        O.] -.{ _ =.u.) M A 0.Z j v V j j j 1 : : 1 1 1 1 6 h d < < , ; , , : < < < , : < < 1 1 1 1 1 d s 1 u 1 h h j j h g 1 d u h h h 1 1 7 b }.%XT.T.%XJ 7 q d.` J #X!.I.I.I.Y.T.!. X+X+XOXOXOX X X!.B.:X                                                                                                                                                                                                                                                                                                              >.6X#XxX#XnXnXxXmXxX#X#X X XD.c.z.k.z.z.z.z.M.z.z.S.}.t.@ + = ; ; ; ; ; < h s 1 1 < < < < < , ; , , 1 h h d < < > < 1 , , < < ; ; ; ; X X ; ; , : < ; , , ; , , < 1 < ; : : : 1 A 1 x x v v j Z 2.1.Z Z m G A ' ' ' ] ] { ]                                                                                                                                                                                                                                           ",
"                                                                                                                                                                                                                                                  {  . .| ) ' P 3.3.3.v v I Z i k k 6 i j 6 : 1 u 6 1 > 1 > 1 < : , ; ; ; , , : , < , < < 1 1 1 1 1 1 s h h u u h h j x z h 1 1 u h j j h 6 7 b }.Y.E.E.T.oX8 T   $.V.Y.I.I.P.P.P.P.I. X+XOXOXOXOXT.OX!.B.:X                                                                                                                                                                                                                                                                                                              ;XV.#X#XzXnXnXnXxXxX#X#X X!.Q.D.D.N.N.c.c.c.z.S.z.S.oXoX4 @ = ; ; ; ; , < < 1 1 1 1 1 1 < < , , < < s h h s < < , > , ; ; < h h 1 X X X X ; ; ; : < ; ; , , : , < < 1 < , , : : ; C D h j h 1 x 4.Z v v v v v C C Z Z 1.2.]  .=.                                                                                                                                                                                                                                      ",
"                                                                                                                                                                                                                                              | 4Xu.) ' O.o.m m P 6.P i j u 6 v v > 6 j : : 6 j u 1 : ; , ; : : , ; ; ; ; , < < , , < < < 1 1 1 1 1 1 h h h u u h h j x x j h h h h z j j j 6 b t.}.R.E.E.I.C.&X  m.V.I.I.P.D.D.P.P.P.!. X XOXOXOX!.OX~.V.V.                                                                                                                                                                                                                                                                                                              -XqX+X$XxXnXxXxX#X#X#X+X XQ.T.I.P.P.I.D.D.D.S.S.S.c.oXoXR - = ; ; ; = ; , : > < 1 1 1 1 < < , , , s d h h 1 < , ; ; ; ; , j h h h 1 ; X X ; ; ; < < , , , , : : < 1 1 < < , ; < x 1 1 6 h 6 1 v S h u j j j v C S D D D F ' ] ] { u.                                                                                                                                                                                                                                  ",
"                                                                                                                                                                                                                                          { 5X` ) 9.5.m V m k k Z P Z 7 6 v v Z 6 j > : > j x j 1 > ; ; ; ; ; ; ; ; ; ; , < < < < < < < < 1 d d s s 1 h h h h j j j j j j j h h 1 j z x z j j j L }.T.E.E.U.C.V.XX>.V.P.I.P.D.P.I.T.!.!.OXOXOXOXOX`.$XC.:XJ.                                                                                                                                                                                                                                                                                                              X.7XOX+X#X#X#X#X#XOX X!.!.Q.Y.Y.Y.Y.Y.I.Y.G.D.z..Xv.Y.%Xn.4 - = ; ; < < < < > < 1 1 1 1 < < < < < 1 s h s < < ; ; ; ; , , h s 1 h 1 1 ; X = X ; , < , , , : , > 1 1 6 < : < < ; ; v h 1 h > 1 2.m u u u h d h l N C D D F P P o.O.| ..=.                                                                                                                                                                                                                              ",
"                                                                                                                                                                                                                                      @. ._ ] 8.' S P m k j j j Z P o.7 7 k v + : o 6 6 j j h d 1 > : , ; , : < : ; : : < < 1 1 < , < < 1 h h h h h s h h j j j j l l x x x x j j j x x x x x v V e.Y.R.E.U.L.B.V.C.F.P.P.D.P.Y.!. X X XOXOXOX`.!.@X`.h.>X                                                                                                                                                                                                                                                                                                                ;.qXQ.OX$X$X#X#X+X!.Q.Y.F.Y.I.N.D.I.Y.Y.Y.I.F.S.c.Y.T.T.oXO + = , , , < 1 < 1 1 1 1 1 1 < , , , , 1 s s 1 < < , ; ; ; ; ; < 1 h s s < < ; X X X ; ; ; ; : 1 6 h h d d d 1 < < : : ; > : 6 % 1 4.F u 1 h d d 6 h h z x C A P 5.2.o.O.] _ ~                                                                                                                                                                                                                             ",
"                                                                                                                                                                                                                                    [ { ' 8.2.2.2.S m k j 6 7 j Z 3.3.j 7 6 7 % > k 6 j j 6 6 1 1 > : , ; : : < : : , < < < 1 1 < < 1 d 1 h h h h h h h h j z x x x x x B C x x l z x x B B C v v p H.T.R.R.R.I.I.I.I.I.I.I.Y.T.OX X X X XOX!.U.U.ZXL.;.7X                                                                                                                                                                                                                                                                                                                ;.7XT. XOXOX#X+X XT.I.D.D.D.N.c.c.N.I.!.Y.!.F.D.c.P.E.E.%X5 @ ; < 1 1 < < 1 1 1 1 d 1 1 < < , < < 1 1 1 1 < < ; ; ; ; ; , , < < < < , , ; = X X X X X + < 1 h h h h h d 6 1 : < h k h > ; % h A x < 1 1 d h j j j h h h x G A 3.3.3.P A ( ^                                                                                                                                                                                                                           ",
"                                                                                                                                                                                                                                _ -.] 8.5.' o.o.S C k h 6 1 > > v 3.o.k 6 k + j A Z v u 6 d 6 1 < < < < < < < < < , < < < 1 1 1 1 1 1 h h h h h j h h j j k k k k x x x v x x x x x x C C Z Z x v b K }.T.T.P.U.U.U.T.T.Y.T. X+X#X+X+X#X#X!.T.R.@XkXh.X.                                                                                                                                                                                                                                                                                                                  >.eX!.OXOXOXOX!.T.D.D.D.D.P.P.D.D.D.I..X X XY.I.P.OXR.R.Y.U 5 < 1 1 < < 1 1 1 s h h h 1 < < < < < 1 1 < < < , , ; ; ; , < , ; , ; ; , < < : % X X X X X + ; 1 d h k h d 6 6 1 : h A 6 > X ; F 2.h : : < 1 1 z x C S S x z x x C D o.P Z x ) _                                                                                                                                                                                                                         ",
"                                                                                                                                                                                                                              ^ ] 8.4.2.F G G G C x j 6 > : ; ; k A P v j v A P Z x u 6 6 6 1 1 < < < < < < < < < < < < 1 1 1 1 1 h h h h h j z x x x x x v v x x x v v v x x x x x v C Z Z Z v v v b U G.oXY.I.Y.I.T.!. X.X+X#X#XzXzXzXxX#XOX`.ZXh.X.                                                                                                                                                                                                                                                                                                                      1X^.!.OXOXOX XT.I.I.I.D.P.P.I.D.D.D. X XT. X!.T.R.R.R.Y.$.7 6 d 1 1 1 1 1 1 1 h h 1 < 1 1 < < < 1 1 < < , ; , , ; , < < < , ; ; ; ; 1 1 < 1 , ; X X X X = ; : 6 6 6 < 6 1 1 > > 1 > ; + % G P 6 : 1 < < 1 h z x B D A S x x x x C A Z k P ` W                                                                                                                                                                                                                       ",
"                                                                                                                                                                                                                            Q | O.o.3.C v C x x z j d , , , % ; j P P v 7 v k j 6 1 > 6 6 1 6 1 < < < < < < 1 1 < < 1 1 1 d h d h j j h h j j x x x x x v v v m v v x v v x x x x x B C C C v j v P I o.6.t.H.G.I.Y. X X+X#X#X#X#X#XzXzX#X#XOX@XC.X.                                                                                                                                                                                                                                                                                                                        >.qXI.`.OXOX XT.!.Y.I.D.P.P.I.P.P.N.D.OXOXOXR.P.R.R.R.P.U 7 6 s 1 < < 1 s 1 1 h h 1 d 6 < 1 < < 1 < 1 < , , , , , < , < , , ; ; ; , < h h h 1 , , ; ; = X + + j d d > > > > > % + + X + 6 k j > ; 1 h 1 d h h z x x B C Z Z v j k x v v Z ' !                                                                                                                                                                                                                       ",
"                                                                                                                                                                                                                          ^ ` G o.Z m B x x x x x h 1 < , , % ; h C 6.v + : d d 6 1 1 6 6 6 6 1 1 < 1 < < < 1 1 1 1 1 d h h h j z x x j h h j x x x x x x v v x v v x x x x x x x j x x v x v C A Z Z P I L $.G.I. X+X#X#X#XzX#X.XzXmXmXxX$X@XxXh.                                                                                                                                                                                                                                                                                                                            8XC.W.OXOX XOX XQ.I.D.D.D.P.I.I.P.N.P.T.R.R.R.E.E.R.XXp 7 6 d s s d 1 d 1 h h d 1 1 6 1 1 < 1 1 < < < 1 < , , < < , , , , ; ; ; , < s h 1 1 < , ; , , ; ; + + + d v 6 > > 7 % > k 6 ; x C k > ; h 1 1 d j z x x N N N x x C D v j j j v o.( @.                                                                                                                                                                                                                    ",
"                                                                                                                                                                                                                        ~ ( ) A m x x x x x x x z 1 1 1 , ; % ; h P s.P x C j 6 1 6 6 6 1 1 6 6 1 < < < < 1 1 1 1 1 s s h j j x x v x x h h h z x x x x x x x x v x x x x x x x x j v x x x P 3.j x x 6 8 K t.z.c.D.Y. X.XzXmXmXmXmXnXMXDXnXDXjXvX                                                                                                                                                                                                                                                                                                                            V.gX^.'.OXOX.X.XQ.Q.I.P.P.I.I.I.I.P.P.R.R.E.E.E.R.Y.w.8 h j h h h g 1 d h z z h h 1 1 6 1 1 1 < 1 < 1 < < < , , , , , , ; ; ; ; ; ; < 1 < < < , ; < < < : : ; % + O @ 6 6 6 v 6 h ; 6 A A h ; ; < 1 j z z B C C v C B B z h j C C x 6 j 2.' Q                                                                                                                                                                                                                     ",
"                                                                                                                                                                                                                      ! _ G G v x j v x x x x x l < < < < , X ; h 3.s.Z d 6 z v v j d 6 d d d d 1 1 1 1 1 1 1 1 1 h h h j l x x z x x x z z z j z x x x x x x x x x x x x x x x x v v v 6 d 0.j k v j 5 t.w.j.M.D.D.I.I.I. X.XXXxXxXzXxXxXmXDXMXvXNX                                                                                                                                                                                                                                                                                                                            V.8XtXkX#X#X.X.X.XQ.Y.I.I.I.I.I.U.R.R.E.E.E.E.R.S.J 6 h h z j h h d h l z h 1 6 h u h h 1 1 < < 1 < 1 < < , , , , , , , ; ; ; ; ; ; , , : , ; ; , 1 d h 6 1 ; + + + + ; + 6 6 : ; v 2.Z d ; = < < h j C C C C C C C C v x z 1 h z 6 6 V P ( ~                                                                                                                                                                                                                   ",
"                                                                                                                                                                                                                    ~ _ c m x x j z z x z N N B x 1 1 , < > o > j 2.s.P 6 V 3.A j d 6 d 6 d d d h h h h h s d h h h j j x x x x x x x x x x x x x x x x x x x x x x x x x x x x x x x j j 3.d k i 7 5 t.t.j.k.c.N.N.D.Y.Y.!..XzXxXzXzXzX#X$XxXxXzXvXfXtX                                                                                                                                                                                                                                                                                                                          7X8XjXxX#XzXzX#X.X X!.Y.Y.I.Y.U.P.E.E.E.E.R.Y.$.b j j j z z h d 1 h x x h 1 < 6 h j u h 1 < 1 h h < < : , , , , , , ; ; ; ; ; , , ; , , , , ; ; < 6 h j h : % + % + + + % o o 1 D 2.C > X + < 1 d h h x x z B B x x x x x x h j d j Z Z ( E                                                                                                                                                                                                                   ",
"                                                                                                                                                                                                                  Q _ 7.j v k j j x x z x N S B x l j 1 1 d X , h 3.s.z h F v d 6 6 6 h d d d d h h h h h j j j j j z x x x x x x x x x x x x x x x x x x x x x x x x x x k x x z j j h S G C Z 7 5 e.r.j.z.c.N.N.D.I.Y. X.X.X.X#X#XXX#XzX#XOX+X#X+XrXeXfX                                                                                                                                                                                                                                                                                                                          .XeXjX.XXX#XzX#X#X+XQ.Y.T.Y.I.P.E.E.E.R.Y.n.K v x l l x j h h h j x z j h h j h h h 1 1 1 h h 1 1 < > , , < , , , ; ; ; * ; ; ; ; ; , , ; , , < 1 d 1 d 6 > : % ; + X + j 6 z P A x ; X X = ; , d z z x l z z N B z x z j j 6 ; x P Z M t |                                                                                                                                                                                                                 ",
"                                                                                                                                                                                                                -.Q ) 9.6 v j z x x x x B S <.D N N l j 1 x o X h 5.9.z h z > 6 6 6 h j d d d d h h h h j j z x x x x x x x x x x x x x x x x x x x x x v v v x x x x x k k x k j u 1 Z Z v k i 8 $.l.z.k.c.D.N.P.P.Y.!.OX+X X.X.X.X.X.X.X.X#X#X+X#XxXvXwXvX                                                                                                                                                                                                                                                                                                                          XXqXjXXX#XmXzX#X+X!.Y.Y.Y.P.v.R.R.R.Y.H.K b x x x x x z d h l z z z z j h h h h 6 1 1 s d h h h 1 < , , < < < < , , , ; , , , , ; ; ; ; ; , < 1 < < < 1 1 > > > 6 j : j 6 x A F z ; X X = X = 1 d l l l z x x z z j h h h h ; h V Z v i ( ;.a.                                                                                                                                                                                                            ",
"                                                                                                                                                                                                              -X{ n 4.v j j j h x C C B C D F D B C x l 1 x = ; j F s.z : : 6 6 6 6 d h h h h d h h j j x z x x x x z x x x x x x x x x z x x x x x x x v v x x x x x x x k j k j h 6 v x Z V p L t.j.c.N.D.P.P.T.T.T.+X X$X+X+X#X.X#X#X.X#X#X#X#XnXnXmXvXdX                                                                                                                                                                                                                                                                                                                          MXhXzX#XmXzXzX#X+X XQ.Q.I.b.v.R.R.T.}.K 8 z x x C x x z h j x x x x x x j j h j d d h s h j j h 1 1 < < < 1 < < , ; , , , , < < , , , , , , < 1 1 1 1 : : : : 6 6 k m h 6 Z 2.V h = X : , * < < l x N N l x z z d h d h j j : z C v k i L a.a.-Xa.                                                                                                                                                                                                        ",
"                                                                                                                                                                                                            -Xp.M i F h u j h z x B C B S D <.S C C x h < > X + h x 6.Z A x 1 1 6 d d h h 6 h h h j j l x x x x x x x x x x x x x x z j z z z x x x x v x x x x x x x x x k j j j > v v k k b p t.r.k.N.I.I.I.P.T.T.OX+X X+XxX X#X#XzX.XoX#X#X#XzXzXnXmXmXeXfX                                                                                                                                                                                                                                                                                                                    eXNXvXMXmXzXmXnXmX#X+X.X X!.I.v.P.P.Y.}.Y p 6 j x S Z C x z j x x m v x x v x j k z h h h h d h l j h 1 1 < 1 1 1 1 < < < 1 < , < < < < < < , < 1 1 1 1 < : : : > 1 6 6 + ; % 0.3.v 6 ; X = ; ; < < d l B l l h d h s d 1 s h h ; 2.A x 6 7 I e.a.a.2X2X                                                                                                                                                                                                      ",
"                                                                                                                                                                                                        a.2Xa.+.b k Z h j j x x N x N D <.F F S C C N j 1 > X , u h 9.4.6 v : : 1 d h h h 6 1 d h j j l x x x x x x B x x x x x z z z z j z j z z z x x x x x x x x x z j h j u 6 u C v m b p U t.j.c.D.I.I.T.T.!.!.+XOX+X+X#X+X X#XzXoX.XzX#X#X#XzXmXzX#XvX3X                                                                                                                                                                                                                                                                                                                  >XvXMXDXnX#XxXnXnXnXnX#X+X.X XN.N.D.D.n.K p f j j v F Z C x x x v x v C x k j j k v v j h h 6 h d h h j j d < 1 s s 1 1 1 < 1 1 1 < < < < < < < 1 1 1 1 1 1 > : : : 1 6 ; 6 V v d.0.v < + o X + < < , h z N N x l h h h d 1 1 < s 1 9.0.x j 7 +.e.t.A.A.K.2X1X                                                                                                                                                                                                  ",
"                                                                                                                                                                                                      6X;Xa.e.U i 6 P x j j x z l C C <.2.2.S N N N N x d h ; X u m s.4.x u ; : 1 6 h h h 6 6 d h j j l x x x N v v x x x x z z z j j j j h j z z z x x x x x x x j z z j h u 6 1 v h x j 7 5 t.x.%.b.N.N.P.I.T.T.OX+X+X X.X+X#X.X#X#X#XXXXX#XzX#X#XmX#XoXvXdX                                                                                                                                                                                                                                                                                                                8XeXMXDXDXmXzXOX+XmXDXnXxX#X#X XN.D.D.l.K b Z z d j x Z A Z v v v v v C C x x v Z v v v v x x j j j h h d h d 6 1 1 6 1 < < < 1 1 1 1 1 < < < 1 s 1 1 6 1 6 1 < < > > 1 6 6 Z 6 v s.6.v : + o < , ; < 1 l N N N l j j j h h s < < < ; F C j 6 : +.e.e.t.A.A.K.0X1XqX                                                                                                                                                                                              ",
"                                                                                                                                                                                                    1X<XV.t.t.U j > 5.h h v h B x x N N 2.2.D C C x x l h h < ; h x s.4.% + < : > 6 6 d d 6 1 6 h h j j l x x x x x x x x z z z z z j j j j j j j z z x x x x z z z j z h u 1 1 6 j 1 6 7 7 K l.f.g.g.v.I.N.P.T.T.$XOX+X+X.X XxX XzX#X#XXX.XzX#X#XxXzX#XQ.vX3X                                                                                                                                                                                                                                                                                                                1XvXDXDXnXnXmXnXnXnXDXnXxX.X!.!.I.N.z.U b Z x 2.j h x C C Z C v v j x x v v v v V v v v z z x v x x j h j x h j h h d 6 6 1 1 1 1 1 1 1 < < 1 1 s s 6 1 d h u 6 1 > > 6 6 j > d 3.s.3.f > X o : : , h d N S D S C x l x j h s 1 1 < % C C 1 1 - +.q.q.t.t.l.H.G.qXwX3XhX                                                                                                                                                                                          ",
"                                                                                                                                                                                                  <X6Xm.A.t.t.q.7 % 2., h l l N N N N N S <.<.S C x l h < X X o ; x 9.3.> > > : > 6 6 6 6 1 1 1 h h h h l l x x z l z z x z z l z z z z j j j j j j z x x x x z z l j j h 6 > : j 1 1 6 : @ t.r.f.f.f.v.I.P.D.T.T.$X+X+X#X+X!.zXoX#XXX.XXXXXzX#XXXmXmXXXY.qX1X                                                                                                                                                                                                                                                                                                                1XvXDXDXnXmXxXmXnXmX#X#X XQ.I.I.D.k.z.8 7 h C h 5.x h j v v v v k k k x v Z v v V k v v k k v V v j d h j v x j j j h d d h 6 : 1 1 1 s 1 1 1 1 s 1 d d h d d 6 1 > 1 1 j d Z : o.9.o.6 - X = 1 1 1 x N B D F C C x C D x h h h s < < 2.j , ; O e.q.t.t.l.n.Z.G.J.jXhXfXeX                                                                                                                                                                                        ",
"                                                                                                                                                                                              qXdXV.S.S.m.A.w.e.@ % 0.< < h h s l N z N B <.<.S N l l h < = X X < h y.0.6 j : ; > 6 6 6 1 1 1 6 d h h h l l l l l l j z z z z x z z z z z z j j j j j x x z z h h h h h u 1 ; > h 6 1 > - 8 A.j.f.b.b.v.P.P.v.v.+XOX X#X+X#X X#XXX#X.XXXXXoXzX#XzXmXmXXXoXqX1X                                                                                                                                                                                                                                                                                                                1XvXDXnXDXnXxXxXzXzX#X.XQ.F.F.N.M.k.z.8 7 6 h j C Z h k m v k k k k m v v v v j v v v k k v v v x z z j z B C x j z h h j h h 1 d 1 1 s 1 1 s 1 s d d d d h d 1 < < < < j Z h : 0.s.P 6 + X 1 j j x z C S D D S C S S x N C x h s 1 h 2.X ; @ O e.t.n.n.Z.Z.H.S.F.Q.XXjXpXdXfX                                                                                                                                                                                    ",
"                                                                                                                                                                                            hXwXqXB.m.Z.z.A.t.e.O : 3.j < h h s h l s z C <.F D C N l h 1 , ; X < j 9.3.j 6 ; : < 1 6 6 1 1 1 1 s h j h j j l l j j j j z z z z z z z z z z j h h j j z z z j h d d d d 6 1 ; 1 6 6 6 > % O r.k.f.b.b.v.P.P.P.P.!.+X X+X+X+X X.X#X XoX#XXXoXzXzXzXmXzX.XoX0X1X                                                                                                                                                                                                                                                                                                                8XjXZXxXnXxXzX#X#X#X+X XQ.I.D.N.M.k.j.q.@ : 6 k x 0.k x x x x h h k v v z v v v v v v z v v x j k j j z v v x x z x j j h h d 1 d 6 1 < s s d s d d d d d h h d < 1 1 6 6 h > 6 0.9.v d + o h 1 h N D S S S <.F D C N C x j x x h ; D 4.: + + U e.n.l.n.Z.Z.M.M.M.Q.Q..XjXjXpXdXvX                                                                                                                                                                                ",
"                                                                                                                                                                                          dXhX^.G.G.G.Z.z.l.t.q.5 + k C < h h l 1 d s l N C D D S B l h h 1 < * ; h 9.3.k : ; : < 1 6 6 1 1 1 s h h j x z x l l h h j j j j j j z z z z z z j j h h j j j z j h h 6 d d 1 : ; 6 6 6 1 : + 5 l.g.f.b.b.b.v.P.P.P.!.OXT.#X!.#X X#X X.X.X.XXX.XzXzXzXzX#X XH.6X0X                                                                                                                                                                                                                                                                                                                8XjX$X$XxX#X#X#X#X#X#X.X!.I.D.D.N.c.z.%.q.7 7 v h P x h x x m m x v v k z j k v v k j j v v V v k z j z j j h z j j j j j x j h d d 6 1 d d d d d d d d h h h s 1 1 1 1 : + + i 6.P k h = X < 1 1 l B C N D F 2.1.D N N l x l h s < S 5.o + . e.e.A.l.l.S.H.F.Q.F.Q.Q. X.XnXmXbXeXsX                                                                                                                                                                              ",
"                                                                                                                                                                                        fXeXJ.Q.G.F.S.z.m.l.t.q.p O : F , g 1 h s s d l l l N S S C x x l h 1 ; ; < 3.3.1 + + : < 1 6 6 6 6 1 d 1 h h j h h h h h h h h h h h h j h z z z j j h d j h j j j h h d d d 1 < ; ; h 6 6 > : + 8 l.f.f.b.b.b.v.P.P.T.T.T.T.+XT.+X#X.X#X#X.XXX.XoX#X#XzXzXzXQ.M.;.                                                                                                                                                                                                                                                                                                                tXeXzX#X#X#X#X+X$X$X#X#X#X X!.I.D.N.N.k.&.l.J 7 i j h 0.h 6 v x k k j z k k v v v v k k z v k z v v x v V v v z j z x x z x j x v z j h h d h l l d d d d h h h d 1 6 1 < 6 6 V Z 6.v j 6 ; X ; < d z N C S C <.<.D x C l N N d h 1 < D F + O 7 e.t.l.z.z.Z.S.S.F.G.Q.T.Q.!.+XkXxXbXeXdXvX                                                                                                                                                                          ",
"                                                                                                                                                                                    eXdXvX.X.X XoXQ.G.S.z.r.t.$.L @ + S ; < 1 s 1 s d d l x z N C C N x l l h ; ; 1 Z 3.> + : : < 1 1 1 1 1 1 1 1 d h j h d h h h h h h h h d h h h j j j h h d d d h j j j h 6 d d 6 1 ; % ; u 6 6 1 : + K l.k.b.v.v.v.v.P.P.P.T.!.T. X X!.+X#XXX.XXXXX.X.XXX#XzXjXjXV.>.>.                                                                                                                                                                                                                                                                                                                9XtXxX#X#X.X+X+X+X+X#X+X X XT.Y.D.N.v.c.f.&.A.4 7 j j S G h j k k k z k k x x x v z v v v v k v v v v v v x x z h z x x z z j x x z z h l h h h l d d d d h h h s s 1 < : 6 j % 9.s.v j 6 + - 1 d z B C S B <.D D C x x B l l h h , 1 4.x X . U e.t.l.l.Z.S.F.Q..X X X+X#X~.+X+X#XxXxXjX9XdX                                                                                                                                                                        ",
"                                                                                                                                                                                  pXfXjXjX.X.X X.XQ.Q.G.Z.l.r.q.+.5 + G h , , < s s d d s x B B B C B z l h h < ; > 3.s.> > > : < < < < < 1 1 1 d h d h h 1 1 1 s h h d d d d d d h h h j d 1 1 6 d h h h h d 1 1 6 d 1 : : ; h h d ; + @ p A.f.f.b.v.v.N.D.P.T.T.T.T.!. XOXOX X.X.XXXXXXX+X.X.XjXqX<X-X6X                                                                                                                                                                                                                                                                                                                  8XbXxXnXnX+X X X+XOX+X X+X+X+XY.Y.Y.v.v.c.k.r.t.8 i A F A v k j k v z v v v v x v v v v v v v v x k x x z x x v z x j x x x x x x x x z j j l h h h d d d l j h s 1 1 , ; 1 k > s.s.v d - - x h l x z B D <.2.<.B x N z C d h h l : h F < . O e.e.t.l.z.H.oXQ.G.oXQ.Y.!.#XxXlX+X#X#XxXcXbXpXfXvX                                                                                                                                                                    ",
"                                                                                                                                                                                dXpXcX@X#X+X!.!.Q.I.G.G.H.Z.Z.A.t.L . x x * ; , , s d h x N S S C C S N d d d : + ; 2.s.: 6 : : : : : < < 1 1 1 1 1 h h 1 1 1 1 1 1 s 1 1 1 1 1 6 6 d h h 6 1 1 1 1 1 6 d h d < < 1 < , = , , v A Z j ; O b A.&.f.c.c.b.N.P.P.P.I.T.!.T.!.!.!.!..XXXXX.X.X.X.XjX0X>XvX                                                                                                                                                                                                                                                                                                                      6XbXxXnX#X.X#X#XOX+X+X X+X#X XT.P.v.I.I.N.c.k.r.K 8 k h Z m j j v v k z x k j x v v v v v v k v x z v v z j z z x x x x x j x x x x x x j h l h d d s s d h j h s 1 1 < , X + % s.0.z d + - ; : d z x x N S 1.<.D l h l h d j j d ; F D o + p +.q.r.l.Z.G.G.G.Q.Q.I. X+XxXxXxXxX+X+X+XlXlX+XkXeXsXvX                                                                                                                                                                ",
"                                                                                                                                                                            pXdXpXcXlXlX#X+X!. X XG.G.G.H.H.Z.Z.A.q.@ 7 2.= X X , s s l x N N C x C C N h d < ; = ; D s., ; : : : , : ; , < < < < 1 1 1 1 < < 1 1 1 1 1 1 1 1 1 1 1 h d d d 1 1 < < 1 d h h < ; , h x j 1 ; + < < < = X o p Z.%.f.k.b.c.v.P.P.U.T.T.Q.Q.~.^.J.rXjXjXjXjX~.^.qX8X1X                                                                                                                                                                                                                                                                                                                          6XtXmXzX#XnX.X.XzX.X+X+X#XOX X XT.Y.P.N.I.D.c.j.A.5 b P P v j j j k k x k k x x x x v x v v v v z v x j z z j z x x x x v v x x x B B z z z h l d d s d d h h 1 1 s 1 < < ; + k s.P j > + + + = s h N N D <.1.S N l 1 s s s s s 1 < C h o O q.t.r.n.Z.H.H.G.G.Q..X.X#XkX@X+XkX'.+X`.`.+X+X+XkXcXpXfXfX                                                                                                                                                              ",
"                                                                                                                                                                          fXeXbXlXlXlXZXlX+X+X.X.XQ.G.H.H.S.m.A.A.e.p . 0.< , , s s l x N C N N N N N z z h < 1 : = 6 4.u + - - : ; : ; , , < < < < < 1 1 < < < < 1 < < > < < < < < 1 1 6 1 < , ; = = , , h 6 1 , = ; ; = = = h 1 < = + o 7 A.&.&.&.:.:.:.h.V.V.6X6X6X:X:XV.6X7X6X0X6X6X8X1X:XqX                                                                                                                                                                                                                                                                                                                            6XeXjXzX.XzX#X.XzX.X#X+X#X+X#X X!. XI.I.Y.Y.c.k.j.$.b v v v k u j z v j j k x v x x x x v v k k j j h j j j j j z x x x v x x x x v x j x j l l d d s 1 d h h 1 1 < < , < : : V s.P 6 < X + : ; 1 l x B <.D S N l d s s s h s 1 1 h F X o 7 t.A.Z.Z.H.G.G.G.Q. X#X~.#XkX@XkX'.'.'.'.lX'.@X@X+XlXlXjXpXdXBX                                                                                                                                                          ",
"                                                                                                                                                                        fXpXrXkXkXlXlXlXkXkX'.~.Q.Q.F.F.H.S.Z.l.A.t.+.O v C < d h h l N S S B N N x x x z h 1 1 1 + X C X < > ; ; ; ; ; , , , < 1 1 h h 1 < < < < 1 h 1 1 1 1 < 1 < < ; ; = , ; ; ; < j d , ; = ; < 1 < , ; = 1 s < - - + O a.:.*.X.X.X.X.>.V.C.                                                                                                                                                                                                                                                                                                                                                              wXvXzX#X#XXXXXXXzX#XxX$X+XOX#XOXT.Y.T.P.P.N.v.j.r.p p M v v 6 h 6 z z z j x x x x v v v v v k j j j k j j z x x x x x x x x x x x z z z x l l l s s < s h h 1 1 < < , : > 6 o.9.P u ; o ; 6 6 d z x B D S N l d h s s s s s ; ; B x o . +.A.Z.Z.Z.G.G.G.G.Q.Q. X!.#XlXkXlXlX'.].'.].@XZXlXkXlXkXlXcXtXeXwXbX                                                                                                                                                      ",
"                                                                                                                                                                    pXgXpXlX+X+X@XkXlXlXlXkX'.~.I.I.G.B.F.G.H.Z.l.t.e.4 . 4.1 1 h h l l z N l N N x x N x x h h j , X h 1 + ; ; ; ; ; , , , , < 1 h h h 1 , ; = ; ; , 1 1 < = X , h h x h 1 1 , < = = : < , : < < 1 1 < , ; ; < r r q # # # a *.a.                                                                                                                                                                                                                                                                                                                                                                            >XvXzXzXXX.XXXXX#X#X#X XOXOX$XY.+X!.P.P.I.P.f.g.z.L 5 b v v u < 6 j j z j j k z x v v v v x k k j j k z x z x z x j j j j z z z x x z x z d d d d s 1 s h d 1 < < , , ; ; j P y.k 6 + + 1 j j z z x C C N N N l h h s 1 , , ; , 2.B . 8 e.n.l.l.H.G.H.G.G.Q.Q.+X+XlX#XlX+X].'.].'.].'.lX@XkX'.kXkXlXlXlXvXdXfX                                                                                                                                                    ",
"                                                                                                                                                                  BXfXaXyXkX@X+X'.+X@XlXlXlXkX+X!..XQ.Q.Q.G.H.z.r.%.e.L . v j ; < < 1 l x x N N x C B C B N l j h < = < B ; ; = ; ; ; ; , : < < < 1 1 1 1 < > ; = X = < j j g < ; * = < < < ; ; < < < 1 1 < , , ; < < < < , ; r q e 0 9 a                                                                                                                                                                                                                                                                                                                                                                                     0XwXcXzX#XoXXXXXXX#X$X%X X#XOXOX X!.v.P.T.P.f.g.j.t.4 7 6 u v > 1 d j h j j z j z x x N z j j j j j z z x x x x x x x j j j h j j j h d l h h h d d s 1 1 < 1 1 < < : ; + ; o.6.u 1 + ; h j h h x C B N C C B h d d d 1 ; * , 1 4.+ . q.t.l.Z.H.H.G.G.G.oX.X.X#X#X+XkX+X~.'.@X@X'.].'.'.].].].].@X@XlXlXkXbXeXwXvX                                                                                                                                                ",
"                                                                                                                                                                gXpXcXlX@XlX@X'.'.+X+X'.+X+X+X+X!..X#XoXoXQ.G.Z.l.&.w.$.@ % m X ; , < d x N N N N C C C C x x l h , = = D = ; ; ; ; + = ; ; ; ; , < < , , , , , , < < ; + + ; 3 ; ; ; < s 1 < , ; ; < < < , < , , > 3 # 9 w e 0 $                                                                                                                                                                                                                                                                                                                                                                                               8XeXjXzXoXXX#XXX#X#XOX#X#XOXOXT.T.P.P.P.v.b.b.g.r.+.7 7 6 u h > 6 h j j h j j j x x x x z j z z j j z z z j x x z h h j z z h x j h l l h d l h h s 1 < 1 1 1 < < , ; o j 3.9.v < + ; 1 6 d j B C B N S N N z l d h < < < ; S B O 7 q.t.r.Z.S.H.oXXXXXXX#XQ.!.~.Q.W.~.`.`.'.@X@X'.].].@X].].].lX].].@XlXlXlXvXwXsXpX                                                                                                                                            ",
"                                                                                                                                                            vXfXpXkXlXCXuX].'.'.'.+X'.`.`.'.!.Q.I.~.Q.Q.Q.G.G.S.m.&.%.$.b . j x ; < 1 s l z x x N N C x N z C l 1 ; ; = z X = ; = = = + X X ; < < 1 1 1 < , , ; ; , : : < < , ; ; < ; : 6 1 ; ; , , < < < < < , 3 q 0 e 0 y                                                                                                                                                                                                                                                                                                                                                                                                       3XvXzXXXXXXXXXXXOX#X#X#X#X XOXY.N.P.P.N.b.v.k.j.T 4 : 7 6 v : 1 6 h h h h h h j z x x x h h h j x x z z x z z j x x j h h h h h x x N z h h d d d d 1 1 1 1 < < , 1 j 6 9.d.j + + ; , 1 h x C C C C N C N C x l h d h h s 4.. O +.q.r.l.H.G.oXoXoXQ..XQ.F.I.'.+X+X`.'.'.`.@X].lXlX].@XlX].].].lXCXlXlXxXlXcXrXeXdXeX                                                                                                                                          ",
"                                                                                                                                                          9XfXrXkX@X@XlX].].].'.'.'.+X'.'.'.'.~.~.~.+X!.Q.Q.G.H.M.j.r.t.U @ . A < ; 1 d h l j j x N C B N N N h < ; = X , h + ; = = ; : < < ; ; ; ; ; ; , ; ; ; ; , , , < < < , ; , , , < < : : < < < < , 3 q 0 w 9 c                                                                                                                                                                                                                                                                                                                                                                                                             0XdXjX.X.XXXXXXXXX#X#XOXOX XT.T.P.P.v.c.b.b.k.k.%.4 7 6 6 j 6 < 6 d d h d h h z j j h j j j j j z j j j j j h h j h j h h h j h d h l h h h h 6 1 1 1 1 < < : : : > 1 X 4.0.1 + ; ; ; d j x x l z z N N N N N l h h d , D V . 5 $.$.r.z.S.H.G.oXoX.X.X.XkX+X+X'.`.`.`.`.].@X].lXlX].].lXlX@XlXlXCXCXlXlXxXlX+X#XjXeX8X9X                                                                                                                                      ",
"                                                                                                                                                        fXpXbXkXlXlX@XlXlXkX].].'.'.'.`.`.'.+X+X+X+X!.!.Q.M.z.z.z.j.r.r.$.K O : P 1 d d d s d h l B D C C x h < ; ; = = ; h , 1 = * ; ; , < , , ; , ; , , , , , ; ; ; , < < > : < < , < < < < < < < ; > 2 0 w q                                                                                                                                                                                                                                                                                                                                                                                                                     0X8XqXoXXXXXXXXX#X#X.X.X X XT.T.Y.P.v.v.b.b.k.l.@ - 7 1 6 j < 1 6 d d d h j j j z h h h d h j z j j h j j h h h h j h h h h h 6 h h j h d d 1 < < < ; , ; , ; ; o ; u C x = = < d 1 h z x N x N x B N x x l h 1 < ; * B o O L $.r.r.z.S.S.S.S..X.X.X.X#X+X'.W.W.'.@X@X@X'.'.@X].'.].@X@X].lXCXCXAXAXZXlX@X@X+XkXrXtXeXdXvX                                                                                                                                  ",
"                                                                                                                                                    BXdXbXlXlXCXlX@X@X@X@X].].].'.'.'.'.~.~.~.+X+X'.~.!.~.Y.S.z.z.r.%.%.$.U @ . A j 1 < 1 < s h l N C B h < 1 1 1 < < ; X < 1 < 1 ; , , < < < < < , , , < : < , , : > : < < : : < < < > 2 2 q q q 0 0 0 # c                                                                                                                                                                                                                                                                                                                                                                                                                           qX<XwXwX0X0X0X0X0X0X7X7XV.V.C.V.V.m.m.M.M.k.l.4 @ > 6 6 j 1 : < d d d h h j h j h 1 6 6 h d j j j h h h d h h h h d d 1 1 6 6 6 h 6 6 1 1 1 < < , ; ; ; ; ; < h 1 + D 1 + < 1 h h z x x C x N N N N S h h , ; ; * x : . 7 +.%.r.x.k.z.z.c.F..X X!.+X'.'.`.W.`.lXkX@X'.'.'.'.].].].'.].lXCXlXAXAXAXAXCXlXlX@X@X+X'..XjXeX3XeX                                                                                                                              ",
"                                                                                                                                                jXwXeXvXcXlXZXlXlX].@X@X'.].'.'.'.].@XlX+X`.`.`.'.~.!.Y.Y.Y.I.S.S.z.j.%.$.U p O + V : < 1 s d h h d s s < 1 s d d d h 1 = X j 1 1 d h r r 2 2 > > < , < < 1 > : : > : , < , , < : : 3 q q w w e 0 9 t                                                                                                                                                                                                                                                                                                                                                                                                                                       hXhXvXvXhXhXqXqX6X<X:X:X;X-X-X>.:.h.&.x.p @ @ : d d < : : < 1 1 1 1 d j h g < < 1 1 d h j j h 1 1 1 1 1 d 1 1 1 < 1 1 6 d h 1 1 1 < 1 < ; ; = ; ; ; , , ; ; + P ; + , 1 h x z x C C N S N z z l l s 1 < ; ; F o O U $.%.%.%.k.M.G.I.Q.Q.!.Q.Q.~.`.`.@XlXlXlX@X'.'.].'.@X].'.'.@XCXCXZXAXCXCXAXZXlXCXCXZXCXlX@X~.^.qXwXwX                                                                                                                            ",
"                                                                                                                                              eXfXvXcXZXZXZXZXZXlXlX].].'.'.'.'.'.'.].CXlX+X'.`.`.W.W.U.U.I.Y.D.z.z.r.%.$.$.U O O < d ; < < < < X = s s s d d l h l l s < 3 # q 9 w 0 $ $ # # 9 0 0 0 w w w w 0 0 0 0 0 w 0 0 0 0 0 9 $ t                                                                                                                                                                                                                                                                                                                                                                                                                                                                                 m.*.*.X.;.#.# # # q n i 3 & > > > < 1 6 h h u 1 < : 6 1 h d d d 1 1 1 < 1 1 1 < < < 1 6 1 1 d d 6 < 1 1 < < , ; ; ; % 2 3 $ $ $ i o X ; , 6 j C z x C S S N N x h l h l d : P : @ 5 +.$.%.j.l.S.M.F.G.Q.Q.Q.!.!.~.W.`.`.lXlXlX@XlX@X'.].@X@X].@XlXCXCXCXZXCXZXAXZXZXCXAXZXZXCXlXlX+X+XjXqX8XwX                                                                                                                        ",
"                                                                                                                                            8XeXiXcXZXAXAXZXZXCXCXlX].].].].].].].].lXlXlX@X`.`.`.W.W.W.W.Q.Q.D.z.z.j.%.%.$.U L @ . v : ; ; - = = , s h l l l h h l d h r r w 0 q t                                 a t y q q t                                                                                                                                                                                                                                                                                                                                                                                                                                                                                                       y q 0 E e e 9 9 $ 2 3 2 2 1 u u h : X o X , 1 6 1 1 < < 1 6 6 1 1 6 < < < 1 1 1 1 h 1 < < < : : : ; ; ; 3 # # 0 w e 0 # 3 ; , ; ; 1 l x B S S N l s 1 s d 1 d k Z O O U U $.$.%.f.M.M.S.Q.Q.!.Q.W.W.Q.~.`.`.@XlX+X@XlX].].kX@X@X].@X].lXCXZXZXCXCXZXCXCXAXAXSXAXAXlXlXlXlX+XjXqX0X8XqX                                                                                                                    ",
"                                                                                                                                        eXdXaXlXZXCXZXZXZXZXZXCXZXlX].].].@X@X@X@X@XkXkX+X'.`.W.~.W.U.U.Y.W.Q.I.D.S.z.x.j.%.$.U b O . v + + = ; ; , 1 s d d h h g r y e w $                                                                                                                                                                                                                                                                                                                                                                                                                                                                                                                                                                     m k i q $ $ # # 0 w 0 0 0 9 # # q q t c r r > > > > 1 ; ; ; ; ; , , > 1 > 2 3 $ $ # # q 0 0 0 # $ r x     i # 0 w w q q 2 3 < s x x z l l s 1 , , 1 S o O L U $.%.r.j.x.S.S.G.Q.Q.I.Y.U.~.W.U.W.'.'.@X`.'.@X].'.'.'.].`.'.@XlXCXZXCXlXlXCXCXCXCXAXSXAXAXZXZXlXZXlX+X#X.XrX0X1XeX                                                                                                                ",
"                                                                                                                                    bXdXeXjXcXZXZXZXZXCXCXCXCXZXZXlX@X].].].].].].].].'.'.'.`.~.W.W.U.L.L.I.I.N.c.k.k.l.j.r.$.T Y b 4 . 6 + + ; = , 1 1 1 d h r q e q (                                                                                                                                                                                                                                                                                                                                                                                                                                                                                                                                                                                               a y q 9 w w w 0 0 9 9 # # $ $ $ $ $ 3 2 3 2 3 2 2 2 r q 0 w w 9 9 r                         e 0 e e q r 1 1 , ; , s s s 1 * j % o b +.T %.%.r.x.M.M.M.S.S.I.I.I.W.~.W.W.~.'.`.+X'.@X@X'.'.].'.].'.'.kXlXCXCXlXlXlXCXlXCXCXAXAXAXAXSXZXlXlXlXlXkX'.~.^.qX8X8X                                                                                                              ",
"                                                                                                                                  8XeXjXxXZXZXAXZXZXCXCXCXCXCXCXlX@X@X].].].'.'.].'.].'.'.'.`.~.~.~.W.W.L.P.N.N.M.c.z.z.j.r.%.$.U L b @ 7 j > X = ; X 3 $ q w 0 r                                                                                                                                                                                                                                                                                                                                                                                                                                                                                                                                                                                                                       S H 2 o o $ # # 9 # # # # $ # $ # $ $ G                                         G q e w e q $ $ * * ; * < j . . K Y T %.r.j.j.j.z.S.G.F.F.Y.U.U.~.W.~.'.'.'.@X+X@X@X].].CXCX].'.'.lXlXlXlX].].@XlXlX@X@XuXCXCXCXSXAXlXlXlXlXlXkX'.~.~.^.qX1XpX                                                                                                          ",
"                                                                                                                              vXdXeXjXcXlXAXAXZXZXCXCXCXCXlXCXCXlXlX@X].].].].].`.'.@X@X+X+X`.`.`.~.W.U.L.L.N.T.D.F.M.S.S.j.%.$.T Y Y K 4 O b 6 X 2 # 0 w q n                                                                                                                                                                                                                                                                                                                                                                                                                                                                                                                                                                                                                                                                                                                   q 9 0 # 2 * X X B . . p Y U $.%.j.z.z.S.S.F.F.F.D.I.I.Y.~.~.`.'.+X`.@XkX'.@X@X@XCX@X].'.].lX@XlXlX].lX@XlXlX@XlXlXlXCXlXZXSXZXlXuXkXlXlXlX'.'.~.rXqX8XeX                                                                                                        ",
"                                                                                                                            wX8XtXcXlXZXAXAXAXAXAXCXCXCXlXuXlXCXCXlX@X].].@XlX].].].@X@X+X+X+X'.`.~.W.W.U.L.v.N.N.D.M.k.z.j.%.%.T T T U L K 8 & q e q i                                                                                                                                                                                                                                                                                                                                                                                                                                                                                                                                                                                                                                                                                                                               $ # 0 w w # $ p U U T $.%.l.l.z.S.S.M.D.M.M.Q.Y.Q.!.~.'.'.`.'.'.'.`.'.@X@XlX@X].lXlXlXlXlXlX@X@X@X@X@X@XCXlXuX].lXlXCXAXkXyXyXkXZXlXkXlX+X~.!.^.6X1X                                                                                                      ",
"                                                                                                                          dXqXtXkXlXlXCXAXAXAXZXCX@X].lXlX@XkXlXCXuX].].].].uXuX].'.].].'.'.'.'.`.W.W.W.W.U.N.N.D.D.M.k.j.j.j.%.%.$.$.$.+.U U ( !                                                                                                                                                                                                                                                                                                                                                                                                                                                                                                                                                                                                                                                                                                                                               y Q #.+.$.$.%.%.j.j.j.z.M.F.I.Y.!..X!.~.Y.Q.W.~.`.`.'.'.'.`.].@XCXlXlXCXlX].'.lXlX].@X@X@X@XuXCXCX].'.].].].lXuX'.'.'.'.uX'.'.@X'.'.kX^.7X8XvX                                                                                                  ",
"                                                                                                                        8XeXjXcXlXlXZXAXAXZXCXCXCX].].@X@X@XlXlXlX].].].].].].].].'.'.'.`.`.`.`.W.W.W.W.~.~.~.Q.Q.Y.D.c.z.k.f.&.&.w.%.$.+.#.` a                                                                                                                                                                                                                                                                                                                                                                                                                                                                                                                                                                                                                                                                                                                                                     ~ #.*.$.&.&.j.x.z.M.D.I.Y.I.Y.!.!.!.W.~.W.~.`.`.`.'.'.'.@XkX].].].@X].].].CXlX].].@X].'.[.].].'.).].uXkXlXlXuX'.uX].uXuX`.]./.'.'.`.~.tX8XdX                                                                                                ",
"                                                                                                                      >XqXrXcXxXlX'.lXAXZXCX@XlXCX].].].lXlXlXlXuX].].uXkXlXkX].`.`.`.`.`.`.`.`.W.W.W.~.`.~.L.b.N.F.F.F.D.M.M.l.l.r.%.$.#./ ;.                                                                                                                                                                                                                                                                                                                                                                                                                                                                                                                                                                                                                                                                                                                                                        #./ #.&.l.z.S.S.F.F.I.F.I.Y.!.~.~.'.!.~.~.`.`.W.'.@X].].'.`.`.].lX@X].].@X].'.].].lX`./.[.[./.[.lXCXlXlXlX].uXuX].lXCXlX'.'.'.'.'.'.~.C.7XsXbX                                                                                            ",
"                                                                                                                  7X1XqXtXcXxXlXuX].lXZXCXlX].@XlXlX].lXlXCX@XlXlXuX].].].@X@X].'.`.`.`.`.`.`.`.W.`.`.~.~.`.`.U.T.F.N.D.S.M.z.x.r.&.*.#./                                                                                                                                                                                                                                                                                                                                                                                                                                                                                                                                                                                                                                                                                                                                                                 ,.X.>.t.m.M.c.M.N.Y.!.+X+X+X+X`.~.`.~.`.`.W.`.].'.].'.'.'.].lX'.`.].@X].'.'.].].`././.[.[.].CXCXuX].].'.).`.'.@XCX@X'.'.'.@X'.'.'.`.~.tX8XBX                                                                                          ",
"                                                                                                                qX,XpXrXyXyXlXuXuXuXlXlXCXuX'.'.].'.].kX@XlX].].uXuX].].].'.'.].'.'.'.'.`.`.`.W.~.`.`.'.'.`.!.Q.I.D.D.D.S.M.m.x.r.*.;.X.                                                                                                                                                                                                                                                                                                                                                                                                                                                                                                                                                                                                                                                                                                                                                                    a./ ;.m.B.G.Y.I.D.Y.Q.U.Y.~.+X'.~.'.'.`.`.~.'.'.'.`.`.'.@X@X`.'.@X@X'.'.].].'.`././.`./.`.`.).`.{./.W.).].].@XlX@X'.'.].].'.].].kX'.~.tXeXfX                                                                                        ",
"                                                                                                              8X8XtXrXyXyXyXuXlXlXlXlXCXCXuX'.`.'.'.'.].].].'.].].].`.'.uX].'.'.'.'.'.'.`.`.`.`.`.`.'.'.!.W.U.I.F.I.I.F.F.B.m.&.:.;.>.                                                                                                                                                                                                                                                                                                                                                                                                                                                                                                                                                                                                                                                                                                                                                                          :.;.>.B.Q.I.I.I.Y.U.U.W.+X~.+X~.'.`.'.'.'.'.'.`.W.`.@X].@X@X@X'.].'.'.'.'.`.W.W.`././.).'.)./.`./.].].].'.].lX@X].lX@X].].].'.+X'.+X~.qXsXpX                                                                                    ",
"                                                                                                            7X8XtXyX'.'.'.'.'.'.'.].'.lXCXuX'.`.`.`.`.].].].`.].lX].).).].'.`.`.'.'.'.'.`.`.'.`.`.`.`.'.L.L.I.I.I.F.F.G.F.B.m.:.;.6X                                                                                                                                                                                                                                                                                                                                                                                                                                                                                                                                                                                                                                                                                                                                                                                X.>.C.I.P.N.N.L.I.I.W.~.'.~.`.`.'.'.@X'.+X`.W.`.@X@X@X].'.'.'.`.`.`.`.W.L.U.`.'.`.'.'.'.'.W.'.].'.].@X'.].].].].`.'.].lX].kX].'.'.rXpX9XfX                                                                                  ",
"                                                                                                          :X9XrXyX].].].uXuX].'./.)././.].[.'.`.`.`.`.].].'.'.'.].].].'.'.'.`.`.'.'.'.'.`.`.'.`.`.`.W.W.U.N.I.I.I.Y.Q.I.D.m.:.;.0X                                                                                                                                                                                                                                                                                                                                                                                                                                                                                                                                                                                                                                                                                                                                                                                    >.>.V.^.Y.I.I.U.`.Q.!.`.~.~.`.@X@X@X@X@X'.`.`.@X@X@XW.L.W.W.W.W.`.`.L.U.`.'.].'.`.'.'.'.W.'.@X].lXCXlX[.].'.'.].'.].].].CX`.'.'.yX'.rXpXsXfX                                                                              ",
"                                                                                                        FX9XiXyX].'.[.].].uX].].'.`././.`.`.`.`.`.W.`.'.'.'.'.'.'.'.].].].].`.`.'.'.'.'.'.'.'.'.`.`.~.!.W.I.I.I.I.Y.Y.F.M.:.-XV.                                                                                                                                                                                                                                                                                                                                                                                                                                                                                                                                                                                                                                                                                                                                                                                        >.;.V.Q.I.P.I.I.Y.Q.U.W.`.@X@X@X@X'.'.].'.].'.'.W.W.U.W.'.'.'.'.'.`.'.].].'.W.`.'.`.`.`.`.].@X].].CX].]./.`.`.'.lX].lXlX'.'././.'.yXrXaXeXfX                                                                            ",
"                                                                                                      sXpXyXuX@X].].].].].].].].'.`./.'.'.`.'.'.`.W.W.`.'.`.`.`.`.`.'.].].].`.`.'.'.].].'.].@X'.`.W.U.U.I.I.Y.Q.Q.!.!.B.:.;XJ.                                                                                                                                                                                                                                                                                                                                                                                                                                                                                                                                                                                                                                                                                                                                                                                              >.V.J.!.Q.T.Y.Y.U.Q.~.@X@X+X@X@X].@X'.`.'.`.`.'.'.'.lXlX'.'.'.'.'.].].W.W.`.'.`.`.'.].].].'.].].]./.`.`.).].CXCX].].].'.].uXuXuXkXkXkXpXsXfX                                                                        ",
"                                                                                                    8XpXiXlX].'.).[.].'.].].].].).`.`.'.).).'.'.'.`.W.`.`.`.`.W.L.L.L.U.'.'.`.`.@X@X@X'.'.lX@X'.W.U.U.I.I.I.Q.!..XQ.B.:.;X                                                                                                                                                                                                                                                                                                                                                                                                                                                                                                                                                                                                                                                                                                                                                                                                    >.6X^.!.T. X!.!.W.Q.!.'.+X@X'.@X@X+X'.@X@X@X].lX'.'.].'.`.`.'.'.'.'.`.W.`.`.W.W.'.].).`.'.`.].'.].'.)./.].].].].].].).[.].lXlX].kXkXkXtXeXdX                                                                      ",
"                                                                                                pXsXtXlXlXlX].).'.'.].].].].].].'.`./.).`.`.`.'.].'.'.`.'.'.].].`.W./.`.'.'.'.'.@X`.`.W.'.@X+X`.!.!.U.Y.Q.!. X.X.XC.h.>.                                                                                                                                                                                                                                                                                                                                                                                                                                                                                                                                                                                                                                                                                                                                                                                                        >.:X7XrX.X.X!.I.Q.!.'.'.@X@X`.+X+X@XZXZXlX@X@X'.'.'.'.'.'.'.].'.`.`.`.`.W.W.W.'.].'.`.`.].].`.'.].].].].uXuXuX].].[.]./.].uX@XlXkXlXkXrXvXdXBX                                                                  ",
"                                                                                              pX8XtXyX].CXCX@X].[./.'.'.uXuX].].uX/.`.`.).`.W.`.].].].'.'.].@XlX].'.`.'.@X@X@X@X@X@X@X@X`.`.!.!.!.~.!.!. X+XOX!.F.V.;X                                                                                                                                                                                                                                                                                                                                                                                                                                                                                                                                                                                                                                                                                                                                                                                                            7X;X6XrX.XQ.Q.I.Q.!.`.'.'.'.'.].@X@X@XlXCX@X@X].'.'.'.'.'.'.`.`.`.'.'.`.`.`.].@X[.W./.lX].[.).].].].].].].VX].uX).).[.'.].].].].uX].yXyXtXeXdX                                                                ",
"                                                                                            gXeXtXuX].].CXlX].'.)./.'.].].].).[.].'././.`./.`.'.].].'.'.'.'.].].'.'.'.@XCXlXlX@X@X@X@X'.+X'.`.Q.U.Y.Q.~.+X+X~.C.:.:X                                                                                                                                                                                                                                                                                                                                                                                                                                                                                                                                                                                                                                                                                                                                                                                                                  >.<XqX^..X X X!.`.`.'.@X@X@X@X'.@XCXAXZXCXCX@X'.'.].].`.`.W.`.'.'.'.'.`.@X@X'./.`.'.`.).].uX].'.'.].].ZX[.].).].].).).].].].].].].'.'.kXeXsXNX                                                            ",
"                                                                                          8XeXiXyXuX].].lX@X@X].].'.'.'.].)././.uX'.W.{././.W.`.`.`.'.'.'.].].'.'.'.@XCXCX@X'.@X@X@X@X'.`.`.!.T.U.W.~.~.+X~.C.>.:X                                                                                                                                                                                                                                                                                                                                                                                                                                                                                                                                                                                                                                                                                                                                                                                                                      6X-X7XjX#X+X X!.!.T.I.L.U.U.W.`.'.lXZXZXCX].].'.].].].`.W.'.].].'.'.`.].'.`./.`.`.`.'.].].[./.]./.].VX].].).).].].].[.VX].)././.'.'.'.rXtXeXfX                                                          ",
"                                                                                      pXsXaXiX].].].].].@X@X].'.].].'.'.'.'./.`.uXuX`./.`.'.'.`.W.`.`.'.'.'.'.].lXCXZXZXZX@X'.'.@X`.`.`.!.W.!.`.'.+X'.~.~.C.:X7X                                                                                                                                                                                                                                                                                                                                                                                                                                                                                                                                                                                                                                                                                                                                                                                                                            >.:XjXjX.X!.!.+XOX+X@X'.'.@X@XlXZXZXCXlX@X'.'.'.].`.`.'.'.'.'.].`.`.'././.`.'./.'.].].]./././.].].].].].uX].].].].VX].[./.{.'.'.`.`.+XrXpXdXpX                                                      ",
"                                                                                    aXgXaXiXuX].].].].].].].].].].].'.'.'.).`./.].uX].'.].].'.W.W.W.`.'.@X].@X@XlXCXZXZXlX'.U.L.U.L.U.U.W.~.`.`.+X#X#X^.C.:XqX                                                                                                                                                                                                                                                                                                                                                                                                                                                                                                                                                                                                                                                                                                                                                                                                                                >.;XqX.X.X X+XOX+X+X+X+X@X@XlXCXZXZX@XlXlX'.'.'.'.'.'.'.'.`.lX`.`.[.'.'.'./.[.[./._.]././.VX_.*X]._.].].].].VXCX].].].].)._.].].].].'.yXtXeXfX                                                    ",
"                                                                                  gX9XiXuX].].].[.].].].lX].'.'.].].'.'.).'.W./.).'.).'.'.'.'.'.W.`.'.'.].lXlXCXZXCXZX@X@X].'.'.@X'.`.'.`.!.!.!.+XkX^.V.:X                                                                                                                                                                                                                                                                                                                                                                                                                                                                                                                                                                                                                                                                                                                                                                                                                                        ;X7XjX.X+X+X+X@X@X+X'.'.'.`.@X@X@X@XCXlX@X'.@X'.'.'.`.`.].`.`.@X].'.[.[.[./.[.[././.VX_.VXVX_.VX*X].].].].].VX*X].].*XVXCXCX].].].].@XkXqXsXbX                                                ",
"                                                                                8X9XiXuXuXuX].].[.[.].].].]./.[.[.].]././.).`./.`.)./.[.'.'.].].`.'.`.`.'.CX@XlXCXCXlX@X@X@X@X'.`.`.`.`.`.OX+X+X#X^.6X:X                                                                                                                                                                                                                                                                                                                                                                                                                                                                                                                                                                                                                                                                                                                                                                                                                                            :X6XtX#X#X#X@X@X+X@X@XlXCXCXZXlX@X@X@X'.'.'.'.`.`.`.`.@X'.'.'.'.'.'./.'.(.(._./._.].uX_._.].].VXVXVXuX].uXCX]._.].].].].uXuX].].'.@XkXcXtX9XNX                                              ",
"                                                                            aX,X7XiX]._.].uXVX].]._.].].].]././.[.].].`.).)./.`.'.'.).).`.`.`.'.'.'.`.'.].lXCX@X@X@X'.'.'.'.@X+X+X@X#X@X#X#X+X+X^.6X<X                                                                                                                                                                                                                                                                                                                                                                                                                                                                                                                                                                                                                                                                                                                                                                                                                                                6X:XtXjX+X+X@X'.].lXlX@X`.@X@XlXlX@X].].'.'.@X@X'.`.@X@X@X'.'.`.`.[.`.(.[././._.].VXuXVX].].VXSXVX].uXVX].].].].]./._.].uX].].@XlXCXlXlXrX9XgX                                            ",
"                                                                          pX8XaXiX_._.].].*XVXVX].].].VX].[.[./.[.[.[.'.[.).].'.].].'.].'.[.[.'.].].'.[.].lXCXZXCX@X@XlXlXlX@X+X@X#X+X#X+X+X'.^.7X1X                                                                                                                                                                                                                                                                                                                                                                                                                                                                                                                                                                                                                                                                                                                                                                                                                                                    qX>XqXkX+X+X`.'.@XlX@X@X@X@XlXCX].].@X@X@X'.'.'.].'.'.@X'.'.`.`././.[./././.].]._.(./._.VXVXCXVX].].]._.].]._._./.(.].].].].].CXCXlX@XuXyXaXgXbX                                        ",
"                                                                        eX8XaXuX].].].].].].VX].].VX].[.].].[.]./.[.[./.]._.'.[.].].[.'.'.`.[.[.].].].[.].@XlXCXlX@X@XlXlX@X+X+X+X'.+X@X@X~.^.6X:X                                                                                                                                                                                                                                                                                                                                                                                                                                                                                                                                                                                                                                                                                                                                                                                                                                                          :X7XrX+X+X@X'.'.@XCXZX@X@X@XCXCXZXlXCXlX'.`.`.W.`.'.@X@X`.`.[.]././._./._._._.{./.VXVXVXVXVX*X]._._._.]._.(._.].].].].*X*XVXuX].].].@XuXiX8XBX                                      ",
"                                                                      8X9XaXyXuX].].].].].].].VXVX].].].(.].]._.[./.]._.[.)./.'.).].].].'.'.`.'.'.].].].'.].@X@X].'.'.@XlX@X'.`.'.'.+X$X+X^.7X6X                                                                                                                                                                                                                                                                                                                                                                                                                                                                                                                                                                                                                                                                                                                                                                                                                                                              <X6XrX+X+X@X`.`.'.@X@X@X=X@X@X@X@X@X@XlX'.'.'.'.@X'.'./.`.(././.[._.].].[./.(._.*X*X].*X]._.(.].].*X*X_.*X_.*X].*XCXCXVXVXCXCX].].].uXlXtX9XeX                                    ",
"                                                                  pXgXaXiX].].].].].].]._.].].CXCX].[./.].].].]././././.)././.'.)./.].'.).'.`.'.'.].@X@X@X@X@X@X@XCXCX@X+X'.'.'.+X+X#X+X^.7X:X                                                                                                                                                                                                                                                                                                                                                                                                                                                                                                                                                                                                                                                                                                                                                                                                                                                                  V.8XtXkX+X@X@X'.@X@X@X=XCXlX@X@X@X@X@X@X'.'.@X@X`.'.[.[.[./.].[.].].[.]._.].VXVX*X*X*X_.*XVX*X*X*X*X].]._._.].VXCXCXCXCXCXCXVX].].].@X].yXeXsX                                  ",
"                                                                aX9XaXiXuX].].].].].].].].].*XVXCXCX*X(./.]._._._./././.)././.[.'.`.`.U.W./.).].'.].@X].].].@X@X@XZXlX].'.'.'.+X+X@X#X^.qX<X                                                                                                                                                                                                                                                                                                                                                                                                                                                                                                                                                                                                                                                                                                                                                                                                                                                                      qX>XqXkX$X@X@X'.@X@X@XlX@X'.'.'.`././.`.].'.'.[.].'.[./.`.[./.).].[.[.VXVXVX].VX*X(.(._.].].].].].].].*X*X].uXVXVXVXVXVXSXVX].].].[.].].yXtX8XbX                              ",
"                                                              gX9XiXCXCXVX*X].].].].].].].].*X*XVXVXVXVX{./._./.]././././././.).[.'.'.'.[.).'.].].@X].@X].].@X@X@XlXkX'.'.'.+X+X+X'.~.7X6X                                                                                                                                                                                                                                                                                                                                                                                                                                                                                                                                                                                                                                                                                                                                                                                                                                                                            ;X7XjX+X`.`.`.'.@X@X@X@X@X@X'.'.'.'.@X@X@X].].@X[.].[./.].).].[.].VX*X*X].*X_._._._.*X].].].].[.].].].].VXVX].].VX].*XVX*XVX].[./.[.].@XtX9XfX                            ",
"                                                          aX8XpXiXVXCXCXCX].].].].].].]._.].].].].*XVX*XVX/./.]./.].]./.`././.).[.].lX].].'.`.'.`.@X@X].].].@X@X@X'.@X'.'.+X+X'.+X~.7X:X                                                                                                                                                                                                                                                                                                                                                                                                                                                                                                                                                                                                                                                                                                                                                                                                                                                                                :X0XrX@X'.`.`.'.@X@X@X@X@XlXlX@X`./.`.].CX=X].].`.`.[.].[.[.].].*X]._.]._._.*X*X].].].].].].]._._._._.].].].].VX*X*X*X].].]._./.].=X=XlXcXeXgXbX                        ",
"                                                        9XgXaXuXCXCXCXVXVX*X].*X].].].*X].].]._.].].*XCXCXCX].[.[._.'.'.'.)././.].].].].'.)./.`./.'.@X].].].].].'.'.].'.+X+X+X'.~.7X:X                                                                                                                                                                                                                                                                                                                                                                                                                                                                                                                                                                                                                                                                                                                                                                                                                                                                                    6XwXtXkX`.].@X@XlX@X@X@X@X@X@X].'.].@XCXCX@X].[.'.].].].[.].].VX].VX]._.].*X].].].].].].].]._._._._.].].].].].*X].].]._.(.(._.].CXCX=XCXuXaXgXgX                      ",
"                                                      9XeXaXyX].CXCXCXVX*X*X*X*X*X*X].].].].].].].].*XVXVXCX].[.[.[.[._.).)./.].].].].].].'.`.[.[.'.].'.@X].@X'.`.`.'.'.@XkX+X~.7X:X                                                                                                                                                                                                                                                                                                                                                                                                                                                                                                                                                                                                                                                                                                                                                                                                                                                                                        7X>XtXkX@XlXlXCXlXlXCXCXZX@X'.'.@X@X@X@X].].].@X].].].].].].].].].].].].*X].].]._.].].].]._._._.].].].*X*X].].].*X]._.(.(.(.].].].=X=XuXlXiXpXgXvX                  ",
"                                                  9X8XaXyXuX].VXVXVXCXVXVX*X*X*X*X].].].].].].].].].].].].].].[._.[.[._.)./.).].].].].].'.'.[.@XCXCXlX@XCXlX@X@X'.`.`.@X'.~.rX7X:X                                                                                                                                                                                                                                                                                                                                                                                                                                                                                                                                                                                                                                                                                                                                                                                                                                                                                              >XeXrXkXkX@X@X@X@XlXlX@X=X@X@X@X@X@X@X@X].[.].].].].].].]._.].*X].VX*X].].].].].].].].].].]._._.].].].].].].*X*X(.(.(.*X*X].].VX*X].=X=XCXcXpXdXvX              ",
"                                                9XeXtX'.'.].*XVX*X*X*X*X*X].*X*X_.].].].]._._.].].].].].].].].].]._.[.[.[./.[.[.'.].].].[.[.[.@XCXCX@X].lXCX].].@X@X@X@X`.^.0X:X                                                                                                                                                                                                                                                                                                                                                                                                                                                                                                                                                                                                                                                                                                                                                                                                                                                                                                  >X0XrXkXxXZX@X'.'.@X@X=X@X'.@X=X=X=X=X@XCXSXSXCX].*X].]._.].VXCXCX].].].].].].].].].].].].(._._.].].].].].*X].(._.*X*X*X*X*XCXCX@X].].CXlXcXbXpXfXbX          ",
"                                            pXsXaXuX].[._.].*X*X*X*X*X*X*X].*X*X_._.].].].]._.].*X].].].].].].].].].].].].[.[.[.].].].].[.[.[.@XCXCXCX@XlX@X].].@X@X@X~.tX6Xa.                                                                                                                                                                                                                                                                                                                                                                                                                                                                                                                                                                                                                                                                                                                                                                                                                                                                                                      C.<XqXrXxXZX@X@X@X@X@X@X@X=XZXCX=X@X].].ZXZXCX*XVXVX].].*XVXCXVX].].].]._.(._.].].]._._._._.].].].].].].*X*X].(.*X*XVXCX*X*XCX].[.].@X@XCXCXlXiX9XfX        ",
"                                          eX9XaXyXuX].].]._.].*X*X*X*X].]._._._._._.].].].]._.].].CXVX*X].].].].].].*XCX].].].].*X].].].].].].=X=X@X].].lX@X].lX@X@X`.^.8XqX                                                                                                                                                                                                                                                                                                                                                                                                                                                                                                                                                                                                                                                                                                                                                                                                                                                                                                            :X7XjXxX@X'.'.@X@X@X[.[.@X=X@X@X[.`.@XCX].].VXVX*X*XCXVXCX*X].].]._.(.(._.].].].].].].].].].].].].].*X*X*X_._.*X*XCXCXCX*X].].].].].].lXCXcXiXpX9XpX    ",
"                                      pXgXpXkXlXCX*X].].].*X].*X*X*X*X]._._.*X]._._.].].].]._._.VXVXVXVX].].].].].].=XCXCXCX].].*X*X].].].].].=X].CXCX=XZXCXlX@X+X~.tX8XqX                                                                                                                                                                                                                                                                                                                                                                                                                                                                                                                                                                                                                                                                                                                                                                                                                                                                                                                6X8XpXcXkX@X`.'.@XCXCXZX=X@X@X@X'.=XCXCX].VX*XVXVXCXCXCX].].].].].(.(.(.].].].].].].]._.]._._.].].*X*X_._.*X*X*X*X*X*X*X*X].].].].].].].uXCXlXcXpXfXbX",
"                                    pXgXaXcXlXCXCX*X*X*X*X].].].].*X*X]._._._._._._._._.]._.].].].*XVXVX*X].].*X*X*X].CXCXVX].VX*X].].].].].@X=X@X].].].lXCXlX+X+XqX1XrX                                                                                                                                                                                                                                                                                                                                                                                                                                                                                                                                                                                                                                                                                                                                                                                                                                                                                                                      >X9XjX+X'.'.@X@X@XCXlX@X@X@X=XCXCXCXCXVXCXVXVXCXCX*X]._.].].].(.(._.].].].].*X*X_._._._._.].].*X].(.(.*XVXVXVXVX*X*X].].].].].].].].].uXlXlXcXaXpX",
"                                  sXeXbXlXlXCXCX=XCX*X].].].].].].].*X]._._.]._._._._._.]._.].].].*X].CXVXVX*XVX*XVXVXVX]./._.*X].].*X*X].].].].].'.'.'.].kX+XkXtX0X                                                                                                                                                                                                                                                                                                                                                                                                                                                                                                                                                                                                                                                                                                                                                                                                                                                                                                                            7X7XrXlX@X@X@X@XCX@X@XZXZXCXCXCXCXCXVXVXVX*X*XVX*X]._._.].(.(.(._.].].].].*X]._._.(.(._.].*X*X].(.(.*X*XVXVXCXCXVX].].].].].].].].].uXCXCXlXlXlX",
"                                sXpXiXlXlXCXCXCX=X=X*X].*XVX].].].].].].].].].].].].].].].].].].].].].*XCXCXCXCX*X].*XCX*X].].*X].*X*X=X=X].=X].`.[.'.@X].@X@XrX0X                                                                                                                                                                                                                                                                                                                                                                                                                                                                                                                                                                                                                                                                                                                                                                                                                                                                                                                                rXqXkX@X@X@X@XCX=X@X@X@XCXZXCX*X].VXVX]._.(.].].].].[._.(.(._._.].].].].*X]._.(.(._._.].].*X].(.(.*X*XVXVXCXCX=X].].].].].].].VXVXVXVXCXuXlXlX"
};
