/* XPM */
static char *c122fb02f1914e6db1a39d76327dc801fgYhTsiPqszvAGqA[] = {
/* columns rows colors chars-per-pixel */
"600 337 249 2 ",
"   c None",
".  c #0D0302",
"X  c #0D0B0C",
"o  c #090607",
"O  c #130503",
"+  c #120D0D",
"@  c #1A0A07",
"#  c #041B03",
"$  c #091608",
"%  c #13110E",
"&  c #17180C",
"*  c #120F11",
"=  c #1B0F12",
"-  c #151314",
";  c #1A1515",
":  c #1B1916",
">  c #171519",
",  c #191719",
"<  c #1C1B1C",
"1  c #151A15",
"2  c #0E1111",
"3  c #27130C",
"4  c #231513",
"5  c #211D1D",
"6  c #2A1917",
"7  c #351D18",
"8  c #290F0A",
"9  c #022402",
"0  c #012C01",
"q  c #0A270A",
"w  c #013301",
"e  c #023B01",
"r  c #0B380A",
"t  c #1A2818",
"y  c #183718",
"u  c #132C0B",
"i  c #23211F",
"p  c #29241A",
"a  c #36221C",
"s  c #25381A",
"d  c #1E1D21",
"f  c #211E21",
"g  c #291F21",
"h  c #1F2221",
"j  c #1F3420",
"k  c #242324",
"l  c #292525",
"z  c #2B2926",
"x  c #262429",
"c  c #292629",
"v  c #2D2A2B",
"b  c #252A24",
"n  c #312C2C",
"m  c #362826",
"M  c #293526",
"N  c #33312E",
"B  c #36392B",
"V  c #2E2C31",
"C  c #312E31",
"Z  c #392F30",
"A  c #343233",
"S  c #3A3534",
"D  c #3B3A35",
"F  c #363439",
"G  c #39363A",
"H  c #3C3A3B",
"J  c #353B33",
"K  c #2F3030",
"L  c #462B26",
"P  c #423D3C",
"I  c #483936",
"U  c #593B35",
"Y  c #50342C",
"T  c #633D35",
"R  c #074506",
"E  c #184616",
"W  c #1C5717",
"Q  c #0F500C",
"!  c #24591D",
"~  c #2A4918",
"^  c #1B6617",
"/  c #2D6419",
"(  c #284626",
")  c #34482B",
"_  c #2A5924",
"`  c #34562A",
"'  c #3C4736",
"]  c #3A5735",
"[  c #2B6626",
"{  c #326A2B",
"}  c #34762D",
"|  c #3B6735",
" . c #3B7635",
".. c #2B7227",
"X. c #506A1C",
"o. c #44423D",
"O. c #454A3B",
"+. c #43593B",
"@. c #564C31",
"#. c #684639",
"$. c #744B3C",
"%. c #774B3A",
"&. c #7A563C",
"*. c #695732",
"=. c #44673C",
"-. c #52742F",
";. c #777839",
":. c #6C6E31",
">. c #445C1E",
",. c #3E3C41",
"<. c #423F43",
"1. c #444243",
"2. c #4B4543",
"3. c #4B4947",
"4. c #544B48",
"5. c #4A5845",
"6. c #5A5654",
"7. c #54554C",
"8. c #684C44",
"9. c #754E43",
"0. c #6C544A",
"q. c #7C5344",
"w. c #785549",
"e. c #635C5A",
"r. c #7B5C51",
"t. c #4B6846",
"y. c #54684A",
"u. c #4A7545",
"i. c #576C4F",
"p. c #736C4B",
"a. c #6D6969",
"s. c #615E61",
"d. c #3F4040",
"f. c #834C39",
"g. c #87523D",
"h. c #83683C",
"j. c #845444",
"k. c #845B4B",
"l. c #8C5C4B",
"z. c #895745",
"x. c #945B4A",
"c. c #9B5D4C",
"v. c #955845",
"b. c #865D52",
"n. c #845346",
"m. c #8A6648",
"M. c #93624E",
"N. c #9C624E",
"B. c #9A6A4B",
"V. c #887947",
"C. c #8C6353",
"Z. c #886559",
"A. c #936453",
"S. c #9C6452",
"D. c #9C6A55",
"F. c #956B5A",
"G. c #9C6D5B",
"H. c #956857",
"J. c #9C7757",
"K. c #90794F",
"L. c #A56A4E",
"P. c #A26654",
"I. c #A36A55",
"U. c #AA6D54",
"Y. c #A46C5A",
"T. c #AA6D5B",
"R. c #AB6557",
"E. c #B3695A",
"W. c #AD7255",
"Q. c #A4725C",
"!. c #AC745B",
"~. c #AC7B5C",
"^. c #A57858",
"/. c #B37555",
"(. c #B97655",
"). c #B47857",
"_. c #BB7A56",
"`. c #B3765A",
"'. c #B57A5B",
"]. c #BB7C5C",
"[. c #B8775B",
"{. c #B0714E",
"}. c #977069",
"|. c #A66D63",
" X c #AD7562",
".X c #AD7A64",
"XX c #AE7B6A",
"oX c #A57663",
"OX c #B27563",
"+X c #B47B63",
"@X c #BB7E61",
"#X c #B47D6A",
"$X c #B97E6B",
"%X c #B17769",
"&X c #AE7B71",
"*X c #A05E4D",
"=X c #C17E5C",
"-X c #C07F62",
";X c #388133",
":X c #5B8631",
">X c #6D8736",
",X c #77883B",
"<X c #708F37",
"1X c #7A8843",
"2X c #7B9543",
"3X c #688842",
"4X c #6E9649",
"5X c #878748",
"6X c #95884D",
"7X c #889849",
"8X c #94974D",
"9X c #8D8A54",
"0X c #998756",
"qX c #8A9853",
"wX c #999956",
"eX c #A78859",
"rX c #B4835D",
"tX c #BC815E",
"yX c #B28A5B",
"uX c #A4955A",
"iX c #A0854F",
"pX c #87A54A",
"aX c #8BA552",
"sX c #96A558",
"dX c #92A24E",
"fX c #9C9462",
"gX c #AB8462",
"hX c #AA8865",
"jX c #B48363",
"kX c #BD8263",
"lX c #B48B63",
"zX c #B4816C",
"xX c #BA836C",
"cX c #B98A68",
"vX c #A99663",
"bX c #B29569",
"nX c #BB8572",
"mX c #B98672",
"MX c #B49371",
"NX c #A8A466",
"BX c #A1A25D",
"VX c #C2815E",
"CX c #C28364",
"ZX c #C28669",
"AX c #C5896A",
"SX c #C78A6A",
"DX c #C28A77",
"FX c #C39076",
"GX c #80933D",
/* pixels */
"                                                                                                                                                                                                                                                                                                                                                                                                                                                                                                                                                                                                                                                                                                                                                                                                                                                                                                                                                                                                                                                                                                                                                                                                                                                ",
"                                                                                                                                                                                                                                                                                                                                                                                                                                                                                                                                                                                                                                                                                                                                                                                                                                                                                                                                                                                                                                                                                                                                                                                                                                                ",
"                                                                                                                                                                                                                                                                                                                                                                                                                                                                                                                                                                                                                                                                                                                                                                                                                                                                                                                                                                                                                                                                                                                                                                                                                                                ",
"                                                                                                                                                                                                                                                                                                                                                                                                                                                                                                                                                                                                                                                                                                                                                                                                                                                                                                                                                                                                                                                                                                                                                                                                                                                ",
"                                                                                                                                                                                                                                                                                                                                                                                                                                                                                                                                                                                                                                                                                                                                                                                                                                                                                                                                                                                                                                                                                                                                                                                                                                                ",
"                                                                                                                                                                                                                                                                                                                                                                                                                                                                                                                                                                                                                                                                                                                                                                                                                                                                                                                                                                                                                                                                                                                                                                                                                                                ",
"                                                                                                                                                                                                                                                                                                                                                                                                                                                                                                                                                                                                                                                                                                                                                                                                                                                                                                                                                                                                                                                                                                                                                                                                                                                ",
"                                                                                                                                                                                                                                                                                                                                                                                                                                                                                                                                                                                                                                                                                                                                                                                                                                                                                                                                                                                                                                                                                                                                                                                                                                                ",
"                                                                                                                                                                                                                                                                                                                                                                                                                                                                                                                                                                                                                                                                                                                                                                                                                                                                                                                                                                                                                                                                                                                                                                                                                                                ",
"                                                                                                                                                                                                                                                                                                                                                                                                                                                                                                                                                                                                                                                                                                                                                                                                                                                                                                                                                                                                                                                                                                                                                                                                                                                ",
"                                                                                                                                                                                                                                                                                                                                                                                                                                                                                                                                                                                                                                                                                                                                                                                                                                                                                                                                                                                                                                                                                                                                                                                                                                                ",
"                                                                                                                                                                                                                                                                                                                                                                                                                                                                                                                                                                                                                                                                                                                                                                                                                                                                                                                                                                                                                                                                                                                                                                                                                                                ",
"                                                                                                                                                                                                                                                                                                                                                                                                                                                                                                                                                                                                                                                                                                                                                                                                                                                                                                                                                                                                                                                                                                                                                                                                                                                ",
"                                                                                                                                                                                                                                                                                                                                                                                                                                                                                                                                                                                                                                                                                                                                                                                                                                                                                                                                                                                                                                                                                                                                                                                                                                                ",
"                                                                                                                                                                                                                                                                                                                                                                                                                                                                                                                                                                                                                                                                                                                                                                                                                                                                                                                                                                                                                                                                                                                                                                                                                                                ",
"                                                                                                                                                                                                                                                                                                                                                                                                                                                                                                                                                                                                                                                                                                                                                                                                                                                                                                                                                                                                                                                                                                                                                                                                                                                ",
"                                                                                                                                                                                                                                                                                                                                                                                                                                                                                                                                                                                                                                                                                                                                                                                                                                                                                                                                                                                                                                                                                                                                                                                                                                                ",
"                                                                                                                                                                                                                                                                                                                                                                                                                                                                                                                                                                                                                                                                                                                                                                                                                                                                                                                                                                                                                                                                                                                                                                                                                                                ",
"                                                                                                                                                                                                                                                                                                                                                                                                                                                                                                                                                                                                                                                                                                                                                                                                                                                                                                                                                                                                                                                                                                                                                                                                                                                ",
"                                                                                                                                                                                                                                                                                                                                                                                                                                                                                                                                                                                                                                                                                                                                                                                                                                                                                                                                                                                                                                                                                                                                                                                                                                                ",
"                                                                                                                                                                                                                                                                                                                                                                                                                                                                                                                                                                                                                                                                                                                                                                                                                                                                                                                                                                                                                                                                                                                                                                                                                                                ",
"                                                                                                                                                                                                                                                                                                                                                                                                                                                                                                                                                                                                                                                                                                                                                                                                                                                                                                                                                                                                                                                                                                                                                                                                                                                ",
"                                                                                                                                                                                                                                                                                                                                                                                                                                                                                                                                                                                                                                                                                                                                                                                                                                                                                                                                                                                                                                                                                                                                                                                                                                                ",
"                                                                                                                                                                                                                                                                                                                                                                                                                                                                                                                                                                                                                                                                                                                                                                                                                                                                                                                                                                                                                                                                                                                                                                                                                                                ",
"                                                                                                                                                                                                                                                                                                                                                                                                                                                                                                                                                                                                                                                                                                                                                                                                                                                                                                                                                                                                                                                                                                                                                                                                                                                ",
"                                                                                                                                                                                                                                                                                                                                                                                                                                                                                                                                                                                                                                                                                                                                                                                                                                                                                                                                                                                                                                                                                                                                                                                                                                                ",
"                                                                                                                                                                                                                                                                                                                                                                                                                                                                                                                                                                                                                                                                                                                                                                                                                                                                                                                                                                                                                                                                                                                                                                                                                                                ",
"                                                                                                                                                                                                                                                                                                                                                                                                                                                                                                                                                                                                                                                                                                                                                                                                                                                                                                                                                                                                                                                                                                                                                                                                                                                ",
"                                                                                                                                                                                                                                                                                                                                                                                                                                                                                                                                                                                                                                                                                                                                                                                                                                                                                                                                                                                                                                                                                                                                                                                                                                                ",
"                                                                                                                                                                                                                                                                                                                                                                                                                                                                                                                                                                                                                                                                                                                                                                                                                                                                                                                                                                                                                                                                                                                                                                                                                                                ",
"                                                                                                                                                                                                                                                                                                                                                                                                                                                                                                                                                                                                                                                                                                                                                                                                                                                                                                                                                                                                                                                                                                                                                                                                                                                ",
"                                                                                                                                                                                                                                                                                                                                                                                                                                                                                                                                                                                                                                                                                                                                                                                                                                                                                                                                                                                                                                                                                                                                                                                                                                                ",
"                                                                                                                                                                                                                                                                                                                                                                                                                                                                                                                                                                                                                                                                                                                                                                                                                                                                                                                                                                                                                                                                                                                                                                                                                                                ",
"                                                                                                                                                                                                                                                                                                                                                                                                                                                                                                                                                                                                                                                                                                                                                                                                                                                                                                                                                                                                                                                                                                                                                                                                                                                ",
"                                                                                                                                                                                                                                                                                                                                                                                                                                                                                                                                                                                                                                                                                                                                                                                                                                                                                                                                                                                                                                                                                                                                                                                                                                                ",
"                                                                                                                                                                                                                                                                                                                                                                                                                                                                                                                                                                                                                                                                                                                                                                                                                                                                                                                                                                                                                                                                                                                                                                                                                                                ",
"                                                                                                                                                                                                                                                                                                                                                                                                                                                                                                                                                                                                                                                                                                                                                                                                                                                                                                                                                                                                                                                                                                                                                                                                                                                ",
"                                                                                                                                                                                                                                                                                                                                                                                                                                                                                                                                                                                                                                                                                                                                                                                                                                                                                                                                                                                                                                                                                                                                                                                                                                                ",
"                                                                                                                                                                                                                                                                                                                                                                                                                                                                                                                                                                                                                                                                                                                                                                                                                                                                                                                                                                                                                                                                                                                                                                                                                                                ",
"                                                                                                                                                                                                                                                                                                                                                                                                                                                                                                                                                                                                                                                                                                                                                                                                                                                                                                                                                                                                                                                                                                                                                                                                                                                ",
"                                                                                                                                                                                                                                                                                                                                                                                                                                                                                                                                                                                                                                                                                                                                                                                                                                                                                                                                                                                                                                                                                                                                                                                                                                                ",
"                                                                                                                                                                                                                                                                                                                                                                                                                                                                                                                                                                                                                                                                                                                                                                                                                                                                                                                                                                                                                                                                                                                                                                                                                                                ",
"                                                                                                                                                                                                                                                                                                                                                                                                                                                                                                                                                                                                                                                                                                                                                                                                                                                                                                                                                                                                                                                                                                                                                                                                                                                ",
"                                                                                                                                                                                                                                                                                                                                                                                                                                                                                                                                                                                                                                                                                                                                                                                                                                                                                                                                                                                                                                                                                                                                                                                                                                                ",
"                                                                                                                                                                                                                                                                                                                                                                                                                                                                                                                                                                                                                                                                                                                                                                                                                                                                                                                                                                                                                                                                                                                                                                                                                                                ",
"                                                                                                                                                                                                                                                                                                                                                                                                                                                                                                                                                                                                                                                                                                                                                                                                                                                                                                                                                                                                                                                                                                                                                                                                                                                ",
"                                                                                                                                                                                                                                                                                                                                                                                                                                                                                                                                                                                                                                                                                                                                                                                                                                                                                                                                                                                                                                                                                                                                                                                                                                                ",
"                                                                                                                                                                                                                                                                                                                                                                                                                                                                                                                                                                                                                                                                                                                                                                                                                                                                                                                                                                                                                                                                                                                                                                                                                                                ",
"                                                                                                                                                                                                                                                                                                                                                                                                                                                                                                                                                                                                                                                                                                                                                                                                                                                                                                                                                                                                                                                                                                                                                                                                                                                ",
"                                                                                                                                                                                                                                                                                                                                                                                                                                                                                                                                                                                                                                                                                                                                                                                                                                                                                                                                                                                                                                                                                                                                                                                                                                                ",
"                                                                                                                                                                                                                                                                                                                                                                                                                                                                                                                                                                                                                                                                                                                                                                                                                                                                                                                                                                                                                                                                                                                                                                                                                                                ",
"                                                                                                                                                                                                                                                                                                                                                                                                                                                                                                                                                                                                                                                                                                                                                                                                                                                                                                                                                                                                                                                                                                                                                                                                                                                ",
"                                                                                                                                                                                                                                                                                                                                                                                                                                                                                                                                                                                                                                                                                                                                                                                                                                                                                                                                                                                                                                                                                                                                                                                                                                                ",
"                                                                                                                                                                                                                                                                                                                                                                                                                                                                                                                                                                                                                                                                                                                                                                                                                                                                                                                                                                                                                                                                                                                                                                                                                                                ",
"                                                                                                                                                                                                                                                                                                                                                                                                                                                                                                                                                                                                                                                                                                                                                                                                                                                                                                                                                                                                                                                                                                                                                                                                                                                ",
"                                                                                                                                                                                                                                                                                                                                                                                                                                                                                                                                                                                                                                                                                                                                                                                                                                                                                                                                                                                                                                                                                                                                                                                                                                                ",
"                                                                                                                                                                                                                                                                                                                                                                                                                                                                                                                                                                                                                                                                                                                                                                                                                                                                                                                                                                                                                                                                                                                                                                                                                                                ",
"                                                                                                                                                                                                                                                                                                                                                                                                                                                                                                                                                                                                                                                                                                                                                                                                                                                                                                                                                                                                                                                                                                                                                                                                                                                ",
"                                                                                                                                                                                                                                                                                                                                                                                                                                                                                                                                                                                                                                                                                                                                                                                                                                                                                                                                                                                                                                                                                                                                                                                                                                                ",
"                                                                                                                                                                                                                                                                                                                                                                                                                                                                                                                                                                                                                                                                                                                                                                                                                                                                                                                                                                                                                                                                                                                                                                                                                                                ",
"                                                                                                                                                                                                                                                                                                                                                                                                                                                                                                                                                                                                                                                                                                                                                                                                                                                                                                                                                                                                                                                                                                                                                                                                                                                ",
"                                                                                                                                                                                                                                                                                                                                                                                                                                                                                                                                                                                                                                                                                                                                                                                                                                                                                                                                                                                                                                                                                                                                                                                                                                                ",
"                                                                                                                                                                                                                                                                                                                                                                                                                                                                                                                                                                                                                                                                                                                                                                                                                                                                                                                                                                                                                                                                                                                                                                                                                                                ",
"                                                                                                                                                                                                                                                                                                                                                                                                                                                                                                                                                                                                                                                                                                                                                                                                                                                                                                                                                                                                                                                                                                                                                                                                                                                ",
"                                                                                                                                                                                                                                                                                                                                                                                                                                                                                                                                                                                                                                                                                                                                                                                                                                                                                                                                                                                                                                                                                                                                                                                                                                                ",
"                                                                                                                                                                                                                                                                                                                                                                                                                                                                                                                                                                                                                                                                                                                                                                                                                                                                                                                                                                                                                                                                                                                                                                                                                                                ",
"                                                                                                                                                                                                                                                                                                                                                                                                                                                                                                                                                                                                                                                                                                                                                                                                                                                                                                                                                                                                                                                                                                                                                                                                                                                ",
"                                                                                                                                                                                                                                                                                                                                                                                                                                                                                                                                                                                                                                                                                                                                                                                                                                                                                                                                                                                                                                                                                                                                                                                                                                                ",
"                                                                                                                                                                                                                                                                                                                                                                                                                                                                                                                                                                                                                                                                                                                                                                                                                                                                                                                                                                                                                                                                                                                                                                                                                                                ",
"                                                                                                                                                                                                                                                                                                                                                                                                                                                                                                                                                                                                                                                                                                                                                                                                                                                                                                                                                                                                                                                                                                                                                                                                                                                ",
"                                                                                                                                                                                                                                                                                                                                                                                                                                                                                                                                                                                                                                                                                                                                                                                                                                                                                                                                                                                                                                                                                                                                                                                                                                                ",
"                                                                                                                                                                                                                                                                                                                                                                                                                                                                                                                                                                                                                                                                                                                                                                                                                                                                                                                                                                                                                                                                                                                                                                                                                                                ",
"                                                                                                                                                                                                                                                                                                                                                                                                                                                                                                                                                                                                                                                                                                                                                                                                                                                                                                                                                                                                                                                                                                                                                                                                                                                ",
"                                                                                                                                                                                                                                                                                                                                                                                                                                                                                                                                                                                                                                                                                                                                                                                                                                                                                                                                                                                                                                                                                                                                                                                                                                                ",
"                                                                                                                                                                                                                                                                                                                                                                                                                                                                                                                                                                                                                                                                                                                                                                                                                                                                                                                                                                                                                                                                                                                                                                                                                                                ",
"                                                                                                                                                                                                                                                                                                                                                                                                                                                                                                                                                                                                                                                                                                                                                                                                                                                                                                                                                                                                                                                                                                                                                                                                                                                ",
"                                                                                                                                                                                                                                                                                                                                                                                                                                                                                                                                                                                                                                                                                                                                                                                                                                                                                                                                                                                                                                                                                                                                                                                                                                                ",
"                                                                                                                                                                                                                                                                                                                                                                                                                                                                                                                                                                                                                                                                                                                                                                                                                                                                                                                                                                                                                                                                                                                                                                                                                                                ",
"                                                                                                                                                                                                                                                                                                                                                                                                                                                                                                                                                                                                                                                                                                                                                                                                                                                                                                                                                                                                                                                                                                                                                                                                                                                ",
"                                                                                                                                                                                                                                                                                                                                                                                                                                                                                                                                                                                                                                                                                                                                                                                                                                                                                                                                                                                                                                                                                                                                                                                                                                                ",
"                                                                                                                                                                                                                                                                                                                                                                                                                                                                                                                                                                                                                                                                                                                                                                                                                                                                                                                                                                                                                                                                                                                                                                                                                                                ",
"                                                                                                                                                                                                                                                                                                                                                                                                                                                                                                                                                                                                                                                                                                                                                                                                                                                                                                                                                                                                                                                                                                                                                                                                                                                ",
"                                                                                                                                                                                                                                                                                                                                                                                                                                                                                                                                                                                                                                                                                                                                                                                                                                                                                                                                                                                                                                                                                                                                                                                                                                                ",
"                                                                                                                                                                                                                                                                                                                                                                                                                                                                                                                                                                                                                                                                                                                                                                                                                                                                                                                                                                                                                                                                                                                                                                                                                                                ",
"                                                                                                                                                                                                                                                                                                                                                                                                                                                                                                                                                                                                                                                                                                                                                                                                                                                                                                                                                                                                                                                                                                                                                                                                                                                ",
"                                                                                                                                                                                                                                                                                                                                                                                                                                                                                                                                                                                                                                                                                                                                                                                                                                                                                                                                                                                                                                                                                                                                                                                                                                                ",
"                                                                                                                                                                                                                                                                                                                                                                                                                                                                                                                                                                                                                                                                                                                                                                                                                                                                                                                                                                                                                                                                                                                                                                                                                                                ",
"                                                                                                                                                                                                                                                                                                                                                                                                                                                                                                                                                                                                                                                                                                                                                                                                                                                                                                                                                                                                                                                                                                                                                                                                                                                ",
"                                                                                                                                                                                                                                                                                                                                                                                                                                                                                                                                                                                                                                                                                                                                                                                                                                                                                                                                                                                                                                                                                                                                                                                                                                                ",
"                                                                                                                                                                                                                                                                                                                                                                                                                                                                                                                                                                                                                                                                                                                                                                                                                                                                                                                                                                                                                                                                                                                                                                                                                                                ",
"                                                                                                                                                                                                                                                                                                                                                                                                                                                                                                                                                                                                                                                                                                                                                                                                                                                                                                                                                                                                                                                                                                                                                                                                                                                ",
"                                                                                                                                                                                                                                                                                                                                                                                                                                                                                                                                                                                                                                                                                                                                                                                                                                                                                                                                                                                                                                                                                                                                                                                                                                                ",
"                                                                                                                                                                                                                                                                                                                                                                                                                                                                                                                                                                                                                                                                                                                                                                                                                                                                                                                                                                                                                                                                                                                                                                                                                                                ",
"                                                                                                                                                                                                                                                                                                                                                                                                                                                                                                                                                                                                                                                                                                                                                                                                                                                                                                                                                                                                                                                                                                                                                                                                                                                ",
"                                                                                                                                                                                                                                                                                                                                                                                                                                                                                                                                                                                                                                                                                                                                                                                                                                                                                                                                                                                                                                                                                                                                                                                                                                                ",
"                                                                                                                                                                                                                                                                                                                                                                                                                                                                                                                                                                                                                                                                                                                                                                                                                                                                                                                                                                                                                                                                                                                                                                                                                                                ",
"                                                                                                                                                                                                                                                                                                                                                                                                                                                                                                                                                                                                                                                                                                                                                                                                                                                                                                                                                                                                                                                                                                                                                                                                                                                ",
"                                                                                                                                                                                                                                                                                                                                                                                                                                                                                                                                                                                                                                                                                                                                                                                                                                                                                                                                                                                                                                                                                                                                                                                                                                                ",
"                                                                                                                                                                                                                                                                                                                                                                                                                                                                                                                                                                                                                                                                                                                                                                                                                                                                                                                                                                                                                                                                                                                                                                                                                                                ",
"                                                                                                                                                                                                                                                                                                                                                                                                                                                                                                                                                                                                                                                                                                                                                                                                                                                                                                                                                                                                                                                                                                                                                                                                                                                ",
"                                                                                                                                                                                                                                                                                                                                                                                                                                                                                                                                                                                                                                                                                                                                                                                                                                                                                                                                                                                                                                                                                                                                                                                                                                                ",
"                                                                                                                                                                                                                                                                                                                                                                                                                                                                                                                                                                                                                                                                                                                                                                                                                                                                                                                                                                                                                                                                                                                                                                                                                                                ",
"                                                                                                                                                                                                                                                                                                                                                                                                                                                                                                                                                                                                                                                                                                                                                                                                                                                                                                                                                                                                                                                                                                                                                                                                                                                ",
"                                                                                                                                                                                                                                                                                                                                                                                                                                                                                                                                                                                                                                                                                                                                                                                                                                                                                                                                                                                                                                                                                                                                                                                                                                                ",
"                                                                                                                                                                                                                                                                                                                                                                                                                                                                                                                                                                                                                                                                                                                                                                                                                                                                                                                                                                                                                                                                                                                                                                                                                                                ",
"                                                                                                                                                                                                                                                                                                                                                                                                                                                                                                                                                                                                                                                                                                                                                                                                                                                                                                                                                                                                                                                                                                                                                                                                                                                ",
"                                                                                                                                                                                                                                                                                                                                                                                                                                                                                                                                                                                                                                                                                                                                                                                                                                                                                                                                                                                                                                                                                                                                                                                                                                                ",
"                                                                                                                                                                                                                                                                                                                                                                                                                                                                                                                                                                                                                                                                                                                                                                                                                                                                                                                                                                                                                                                                                                                                                                                                                                                ",
"                                                                                                                                                                                                                                                                                                                                                                                                                                                                                                                                                                                                                                                                                                                                                                                                                                                                                                                                                                                                                                                                                                                                                                                                                                                ",
"                                                                                                                                                                                                                                                                                                                                                                                                                                                                                                                                                                                                                                                                                                                                                                                                                                                                                                                                                                                                                                                                                                                                                                                                                                                ",
"                                                                                                                                                                                                                                                                                                                                                                                                                                                                                                                                                                                                                                                                                                                                                                                                                                                                                                                                                                                                                                                                                                                                                                                                                                                ",
"                                                                                                                                                                                                                                                                                                                                                                                                                                                                                                                                                                                                                                                                                                                                                                                                                                                                                                                                                                                                                                                                                                                                                                                                                                                ",
"                                                                                                                                                                                                                                                                                                                                                                                                                                                                                                                                                                                                                                                                                                                                                                                                                                                                                                                                                                                                                                                                                                                                                                                                                                                ",
"                                                                                                                                                                                                                                                                                                                                                                                                                                                                                                                                                                                                                                                                                                                                                                                                                                                                                                                                                                                                                                                                                                                                                                                                                                                ",
"                                                                                                                                                                                                                                                                                                                                                                                                                                                                                                                                                                                                                                                                                                                                                                                                                                                                                                                                                                                                                                                                                                                                                                                                                                                ",
"                                                                                                                                                                                                                                                                                                                                                                                                                                                                                                                                                                                                                                                                                                                                                                                                                                                                                                                                                                                                                                                                                                                                                                                                                                                ",
"                                                                                                                                                                                                                                                                                                                                                                                                                                                                                                                                                                                                                                                                                                                                                                                                                                                                                                                                                                                                                                                                                                                                                                                                                                                ",
"                                                                                                                                                                                                                                                                                                                                                                                                                                                                                                                                                                                                                                                                                                                                                                                                                                                                                                                                                                                                                                                                                                                                                                                                                                                ",
"                                                                                                                                                                                                                                                                                                                                                                                                                                                                                                                                                                                                                                                                                                                                                                                                                                                                                                                                                                                                                                                                                                                                                                                                                                                ",
"                                                                                                                                                                                                                                                                                                                                                                                                                                                                                                                                                                                                                                                                                                                                                                                                                                                                                                                                                                                                                                                                                                                                                                                                                                                ",
"                                                                                                                                                                                                                                                                                                                                                                                                                                                                                                                                                                                                                                                                                                                                                                                                                                                                                                                                                                                                                                                                                                                                                                                                                                                ",
"                                                                                                                                                                                                                                                                                                                                                                                                                                                                                                                                                                                                                                                                                                                                                                                                                                                                                                                                                                                                                                                                                                                                                                                                                                                ",
"                                                                                                                                                                                                                                                                                                                                                                                                                                                                                                                                                                                                                                                                                                                                                                                                                                                                                                                                                                                                                                                                                                                                                                                                                                                ",
"                                                                                                                                                                                                                                                                                                                                                                                                                                                                                                                                                                                                                                                                                                                                                                                                                                                                                                                                                                                                                                                                                                                                                                                                                                                ",
"                                                                                                                                                                                                                                                                                                                                                                                                                                                                                                                                                                                                                                                                                                                                                                                                                                                                                                                                                                                                                                                                                                                                                                                                                                                ",
"                                                                                                                                                                                                                                                                                                                                                                                                                                                                                                                                                                                                                                                                                                                                                                                                                                                                                                                                                                                                                                                                                                                                                                                                                                                ",
"                                                                                                                                                                                                                                                                                                                                                                                                                                                                                                                                                                                                                                                                                                                                                                                                                                                                                                                                                                                                                                                                                                                                                                                                                                                ",
"                                                                                                                                                                                                                                                                                                                                                                                                                                                                                                                                                                                                                                                                                                                                                                                                                                                                                                                                                                                                                                                                                                                                                                                                                                                ",
"                                                                                                                                                                                                                                                                                                                                                                                                                                                                                                                                                                                                                                                                                                                                                                                                                                                                                                                                                                                                                                                                                                                                                                                                                                                ",
"                                                                                                                                                                                                                                                                                                                                                                                                                                                                                                                                                                                                                                                                                                                                                                                                                                                                                                                                                                                                                                                                                                                                                                                                                                                ",
"                                                                                                                                                                                                                                                                                                                                                                                                                                                                                                                                                                                                                                                                                                                                                                                                                                                                                                                                                                                                                                                                                                                                                                                                                                                ",
"                                                                                                                                                                                                                                                                                                                                                                                                                                                                                                                                                                                                                                                                                                                                                                                                                                                                                                                                                                                                                                                                                                                                                                                                                                                ",
"                                                                                                                                                                                                                                                                                                                                                                                                                                                                                                                                                                                                                                                                                                                                                                                                                                                                                                                                                                                                                                                                                                                                                                                                                                                ",
"                                                                                                                                                                                                                                                                                                                                                                                                                                                                                                                                                                                                                                                                                                                                                                                                                                                                                                                                                                                                                                                                                                                                                                                                                                                ",
"                                                                                                                                                                                                                                                                                                                                                                                                                                                                                                                                                                                                                                                                                                                                                                                                                                                                                                                                                                                                                                                                                                                                                                                                                                                ",
"                                                                                                                                                                                                                                                                                                                                                                                                                                                                                                                                                                                                                                                                                                                                                                                                                                                                                                                                                                                                                                                                                                                                                                                                                                                ",
"                                                                                                                                                                                                                                                                                                                                                                                                                                                                                                                                                                                                                                                                                                                                                                                                                                                                                                                                                                                                                                                                                                                                                                                                                                                ",
"                                                                                                                                                                                                                                                                                                                                                                                                                                                                                                                                                                                                                                                                                                                                                                                                                                                                                                                                                                                                                                                                                                                                                                                                                                                ",
"                                                                                                                                                                                                                                                                                                                                                                                                                                                                                                                                                                                                                                                                                                                                                                                                                                                                                                                                                                                                                                                                                                                                                                                                                                                ",
"                                                                                                                                                                                                                                                                                                                                                                                                                                                                                                                                                                                                                                                                                                                                                                                                                                                                                                                                                                                                                                                                                                                                                                                                                                                ",
"                                                                                                                                                                                                                                                                                                                                                                                                                                                                                                                                                                                                                                                                                                                                                                                                                                                                                                                                                                                                                                                                                                                                                                                                                                                ",
"                                                                                                                                                                                                                                                                                                                                                                                                                                                                                                                                                                                                                                                                                                                                                                                                                                                                                                                                                                                                                                                                                                                                                                                                                                                ",
"                                                                                                                                                                                                                                                                                                                                                                                                                                                                                                                                                                                                                                                                                                                                                                                                                                                                                                                                                                                                                                                                                                                                                                                                                                                ",
"                                                                                                                                                                                                                                                                                                                                                                                                                                                                                                                                                                                                                                                                                                                                                                                                                                                                                                                                                                                                                                                                                                                                                                                                                                                ",
"                                                                                                                                                                                                                                                                                                                                                                                                                                                                                                                                                                                                                                                                                                                                                                                                                                                                                                                                                                                                                                                                                                                                                                                                                                                ",
"                                                                                                                                                                                                                                                                                                                                                                                                                                                                                                                                                                                                                                                                                                                                                                                                                                                                                                                                                                                                                                                                                                                                                                                                                                                ",
"                                                                                                                                                                                                                                                                                                                                                                                                                                                                                                                                                                                                                                                                                                                                                                                                                                                                                                                                                                                                                                                                                                                                                                                                                                                ",
"                                                                                                                                                                                                                                                                                                                                                                                                                                                                                                                                                                                                                                                                                                                                                                                                                                                                                                                                                                                                                                                                                                                                                                                                                                                ",
"                                                                                                                                                                                                                                                                                                                                                                                                                                                                                                                                                                                                                                                                                                                                                                                                                                                                                                                                                                                                                                                                                                                                                                                                                                                ",
"                                                                                                                                                                                                                                                                                                                                                                                                                                                                                                                                                                                                                                                                                                                                                                                                                                                                                                                                                                                                                                                                                                                                                                                                                                                ",
"                                                                                                                                                                                                                                                                                                                                                                                                                                                                                                                                                                                                                                                                                                                                                                                                                                                                                                                                                                                                                                                                                                                                                                                                                                                ",
"                                                                                                                                                                                                                                                                                                                                                                                                                                                                                                                                                                                                                                                                                                                                                                                                                                                                                                                                                                                                                                                                                                                                                                                                                                                ",
"                                                                                                                                                                                                                                                                                                                                                                                                                                                                                                                                                                                                                                                                                                                                                                                                                                                                                                                                                                                                                                                                                                                                                                                                                                                ",
"                                                                                                                                                                                                                                                                                                                                                                                                                                                                                                                                                                                                                                                                                                                                                                                                                                                                                                                                                                                                                                                                                                                                                                                                                                                ",
"                                                                                                                                                                                                                                                                                                                                                                                                                                                                                                                                                                                                                                                                                                                                                                                                                                                                                                                                                                                                                                                                                                                                                                                                                                                ",
"                                                                                                                                                                                                                                                                                                                                                                                                                                                                                                                                                                                                                                                                                                                                                                                                                                                                                                                                                                                                                                                                                                                                                                                                                                                ",
"                                                                                                                                                                                                                                                                                                                                                                                                                                                                                                                                                                                                                                                                                                                                                                                                                                                                                                                                                                                                                                                                                                                                                                                                                                                ",
"                                                                                                                                                                                                                                                                                                                                                                                                                                                                                                                                                                                                                                                                                                                                                                                                                                                                                                                                                                                                                                                                                                                                                                                                                                                ",
"                                                                                                                                                                                                                                                                                                                                                                                                                                                                                                                                                                                                                                                                                                                                                                                                                                                                                                                                                                                                                                                                                                                                                                                                                                                ",
"                                                                                                                                                                                                                                                                                                                                                                                                                                                                                                                                                                                                                                                                                                                                                                                                                                                                                                                                                                                                                                                                                                                                                                                                                                                ",
"                                                                                                                                                                                                                                                                                                                                                                                                                                                                                                                                                                                                                                                                                                                                                                                                                                                                                                                                                                                                                                                                                                                                                                                                                                                ",
"                                                                                                                                                                                                                                                                                                                                                                                                                                                                                                                                                                                                                                                                                                                                                                                                                                                                                                                                                                                                                                                                                                                                                                                                                                                ",
"                                                                                                                                                                                                                                                                                                                                                                                                                                                                                                                                                                                                                                                                                                                                                                                                                                                                                                                                                                                                                                                                                                                                                                                                                                                ",
"                                                                                                                                                                                                                                                                                                                                                                                                                                                                                                                                                                                                                                                                                                                                                                                                                                                                                                                                                                                                                                                                                                                                                                                                                                                ",
"                                                                                                                                                                                                                                                                                                                                                                                                                                                                                                                                                                                                                                                                                                                                                                                                                                                                                                                                                                                                                                                                                                                                                                                                                                                ",
"                                                                                                                                                                                                                                                                                                                                                                                                                                                                                                                                                                                                                                                                                                                                                                                                                                                                                                                                                                                                                                                                                                                                                                                                                                                ",
"                                                                                                                                                                                                                                                                                                                                                                                                                                                                                                                                                                                                                                                                                                                                                                                                                                                                                                                                                                                                                                                                                                                                                                                                                                                ",
"                                                                                                                                                                                                                                                                                                                                                                                                                                                                                                                                                                                                                                                                                                                                                                                                                                                                                                                                                                                                                                                                                                                                                                                                                                                ",
"                                                                                                                                                                                                                                                                                                                                                                                                                                                                                                                                                                                                                                                                                                                                                                                                                                                                                                                                                                                                                                                                                                                                                                                                                                                ",
"                                                                                                                                                                                                                                                                                                                                                                                                                                                                                                                                                                                                                                                                                                                                                                                                                                                                                                                                                                                                                                                                                                                                                                                                                                                ",
"                                                                                                                                                                                                                                                                                                                                                                                                                                                                                                                                                                                                                                                                                                                                                                                                                                                                                                                                                                                                                                                                                                                                                                                                                                                ",
"                                                                                                                                                                                                                                                                                                                                                                                                                                                                                                                                                                                                                                                                                                                                                                                                                                                                                                                                                                                                                                                                                                                                                                                                                                                ",
"                                                                                                                                                                                                                                                                                                                                                                                                                                                                                                                                                                                                                                                                                                                                                                                                                                                                                                                                                                                                                                                                                                                                                                                                                                                ",
"                                                                                                                                                                                                                                                                                                                                                                                                                                                                                                                                                                                                                                                                                                                                                                                                                                                                                                                                                                                                                                                                                                                                                                                                                                                ",
"                                                                                                                                                                                                                                                                                                                                                                                                                                                                                                                                                                                                                                                                                                                                                                                                                                                                                                                                                                                                                                                                                                                                                                                                                                                ",
"                                                                                                                                                                                                                                                                                                                                                                                                                                                                                                                                                                                                                                                                                                                                                                                                                                                                                                                                                                                                                                                                                                                                                                                                                                                ",
"                                                                                                                                                                                                                                                                                                                                                                                                                                                                                                                                                                                                                                                                                                                                                                                                                                                                                                                                                                                                                                                                                                                                                                                                                                                ",
"                                                                                                                                                                                                                                                                                                                                                                                                                                                                                                                                                                                                                                                                                                                                                                                                                                                                                                                                                                                                                                                                                                                                                                                                                                                ",
"                                                                                                                                                                                                                                                                                                                                                                                                                                                                                                                                                                                                                                                                                                                                                                                                                                                                                                                                                                                                                                                                                                                                                                                                                                                ",
"                                                                                                                                                                                                                                                                                                                                                                                                                                                                                                                                                                                                                                                                                                                                                                                                                                                                                                                                                                                                                                                                                                                                                                                                                                                ",
"                                                                                                                                                                                                                                                                                                                                                                                                                                                                                                                                                                                                                                                                                                                                                                                                                                                                                                                                                                                                                                                                                                                                                                                                                                                ",
"                                                                                                                                                                                                                                                                                                                                                                                                                                                                                                                                                                                                                                                                                                                                                                                                                                                                                                                                                                                                                                                                                                                                                                                                                                                ",
"                                                                                                                                                                                                                                                                                                                                                                                                                                                                                                                                                                                                                                                                                                                                                                                                                                                                                                                                                                                                                                                                                                                                                                                                                                                ",
"                                                                                                                                                                                                                                                                                                                                                                                                                                                                                                                                                                                                                                                                                                                                                                                                                                                                                                                                                                                                                                                                                                                                                                                                                                                ",
"                                                                                                                                                                                                                                                                                                                                                                                                                                                                                                                                                                                                                                                                                                                                                                                                                                                                                                                                                                                                                                                                                                                                                                                                                                                ",
"                                                                                                                                                                                                                                                                                                                                                                                                                                                                                                                                                                                                                                                                                                                                                                                                                                                                                                                                                                                                                                                                                                                                                                                                                                                ",
"                                                                                                                                                                                                                                                                                                                                                                                                                                                                                                                                                                                                                                                                                                                                                                                                                                                                                                                                                                                                                                                                                                                                                                                                                                                ",
"                                                                                                                                                                                                                                                                                                                                                                                                                                                                                                                                                                                                                                                                                                                                                                                                                                                                                                                                                                                                                                                                                                                                                                                                                                                ",
"                                                                                                                                                                                                                                                                                                                                                                                                                                                                                                                                                                                                                                                                                                                                                                                                                                                                                                                                                                                                                                                                                                                                                                                                                                                ",
"                                                                                                                                                                                                                                                                                                                                                                                                                                                                                                                                                                                                                                                                                                                                                                                                                                                                                                                                                                                                                                                                                                                                                                                                                                                ",
"                                                                                                                                                                                                                                                                                                                                                                                                                                                                                                                                                                                                                                                                                                                                                                                                                                                                                                                                                                                                                                                                                                                                                                                                                                                ",
"                                                                                                                                                                                                                                                                                                                                                                                                                                                                                                                                                                                                                                                                                                                                                                                                                                                                                                                                                                                                                                                                                                                                                                                                                                                ",
"                                                                                                                                                                                                                                                                                                                                                                                                                                                                                                                                                                                                                                                                                                                                                                                                                                                                                                                                                                                                                                                                                                                                                                                                                                                ",
"                                                                                                                                                                                                                                                                                                                                                                                                                                                                                                                                                                                                                                                                                                                                                                                                                                                                                                                                                                                                                                                                                                                                                                                                                                                ",
"                                                                                                                                                                                                                                                                                                                                                                                                                                                                                                                                                                                                                                                                                                                                                                                                                                                                                                                                                                                                                                                                                                                                                                                                                                                ",
"                                                                                                                                                                                                                                                                                                                                                                                                                                                                                                                                                                                                                                                                                                                                                                                                                                                                                                                                                                                                                                                                                                                                                                                                                                                ",
"                                                                                                                                                                                                                                                                                                                                                                                                                                                                                                                                                                                                                                                                                                                                                                                                                                                                                                                                                                                                                                                                                                                                                                                                                                                ",
"                                                                                                                                                                                                                                                                                                                                                                                                                                                                                                                                                                                                                                                                                                                                                                                                                                                                                                                                                                                                                                                                                                                                                                                                                                                ",
"                                                                                                                                                                                                                                                                                                                                                                                                                                                                                                                                                                                                                                                                                                                                                                                                                                                                                                                                                                                                                                                                                                                                                                                                                                                ",
"                                                                                                                                                                                                                                                                                                                                                                                                                                                                                                                                                                                                                                                                                                                                                                                                                                                                                                                                                                                                                                                                                                                                                                                                                                                ",
"                                                                                                                                                                                                                                                                                                                                                                                                                                                                                                                                                                                                                                                                                                                                                                                                                                                                                                                                                                                                                                                                                                                                                                                                                                                ",
"                                                                                                                                                                                                                                                                                                                                                                                                                                                                                                                                                                                                                                                                                                                                                                                                                                                                                                                                                                                                                                                                                                                                                                                                                                                ",
"                                                                                                                                                                                                                                                                                                                                                                                                                                                                                                                                                                                                                                                                                                                                                                                                                                                                                                                                                                                                                                                                                                                                                                                                                                                ",
"                                                                                                                                                                                                                                                                                                                                                                                                                                                                                                                                                                                                                                                                                                                                                                                                                                                                                                                                                                                                                                                                                                                                                                                                                                                ",
"                                                                                                                                                                                                                                                                                                                                                                                                                                                                                                                                                                                                                                                                                                                                                                                                                                                                                                                                                                                                                                                                                                                                                                                                                                                ",
"                                                                                                                                                                                                                                                                                                                                                                                                                                                                                                                                                                                                                                                                                                                                                                                                                                                                                                                                                                                                                                                                                                                                                                                                                                                ",
"                                                                                                                                                                                                                                                                                                                                                                                                                                                                                                                                                                                                                                                                                                                                                                                                                                                                                                                                                                                                                                                                                                                                                                                                                                                ",
"                                                                                                                                                                                                                                                                                                                                                                                                                                                                                                                                                                                                                                                                                                                                                                                                                                                                                                                                                                                                                                                                                                                                                                                                                                                ",
"                                                                                                                                                                                                                                                                                                                                                                                                                                                                                                                                                                                                                                                                                                                                                                                                                                                                                                                                                                                                                                                                                                                                                                                                                                                ",
"                                                                                                                                                                                                                                                                                                                                                                                                                                                                                                                                                                                                                                                                                                                                                                                                                                                                                                                                                                                                                                                                                                                                                                                                                                                ",
"                                                                                                                                                                                                                                                                                                                                                                                                                                                                                                                                                                                                                                                                                                                                                                                                                                                                                                                                                                                                                                                                                                                                                                                                                                                ",
"                                                                                                                                                                                                                                                                                                                                                                                                                                                                                                                                                                                                                                                                                                                                                                                                                                                                                                                                                                                                                                                                                                                                                                                                                                                ",
"                                                                                                                                                                                                                                                                                                                                                                                                                                                                                                                                                                                                                                                                                                                                                                                                                                                                                                                                                                                                                                                                                                                                                                                                                                                ",
"                                                                                                                                                                                                                                                                                                                                                                                                                                                                                                                                                                                                                                                                                                                                                                                                                                                                                                                                                                                                                                                                                                                                                                                                                                                ",
"                                                                                                                                                                                                                                                                                                                                                                                                                                                                                                                                                                                                                                                                                                                                                                                                                                                                                                                                                                                                                                                                                                                                                                                                                                                ",
"                                                                                                                                                                                                                                                                                                                                                                                                                                                                                                                                                                                                                                                                                                                                                                                                                                                                                                                                                                                                                                                                                                                                                                                                                                                ",
"                                                                                                                                                                                                                                                                                                                                                                                                                                                                                                                                                                                                                                                                                                                                                                                                                                                                                                                                                                                                                                                                                                                                                                                                                                                ",
"                                                                                                                                                                                                                                                                                                                                                                                                        ] _ r R ^ ^ Q R r E                                                                                                                                                                                                                                                                                                                                                                                                                                                                                                                                                                                                                                                                                                                                                                                                                     ",
"                                                                                                                                                                                                                                                                                                                                                                                                  +._ ! y y r y u u y y ( r R '                                                                                                                                                                                                                                                                                                                                                                                       ( E E E Q W ! ` +.                                                                                                                                                                                                                                                                                                                                                                                                        ",
"                                                                                                                                                                                                                                                                                                                                                                                              | ^ _ O.o.2.6.7.1.F v k x v K y e ]                                                                                                                                                                                                                                                                                                                                                                                   e E M j t b b t y r R R E                                                                                                                                                                                                                                                                                                                                                                                                   ",
"                                                                                                                                                                                                                                                                                                                                                                                          t.W [ +.5.3.D n i k S A d.3.s.1.K v y R )                                                                                                                                                                                                                                                                                                                                                                             ( R q M b k t < < k t t t y E W ` 5.                                                                                                                                                                                                                                                                                                                                                                                            ",
"                                                                                                                                                                                                                                                                                                                                                                                        Q [ +.O.o.S z z v - - k h 1.S K A 1.F v M e ]                                                                                                                                                                                                                                                                                                                                                                         y R t b l 5 - ; f k f d < d f k b ) [ ..t.                                                                                                                                                                                                                                                                                                                                                                                        ",
"                                                                                                                                                                                                                                                                                                                                                                                    _ [ | +.O.D S N S n z b - < v V S A v V G F x y W                                                                                                                                                                                                                                                                                                                                                                       r R t b v < : - - < f f d f x k x x v M ] u. .y.                                                                                                                                                                                                                                                                                                                                                                                    ",
"                                                                                                                                                                                                                                                                                                                                                                                ! Q ` 5.o.N S A v v v n S N k , , x k v v v H 1.V h y E                                                                                                                                                                                                                                                                                                                                                                   y R t k k k f < < < k f k k k k k x x c C C N ' i.:X .y.                                                                                                                                                                                                                                                                                                                                                                              ",
"                                                                                                                                                                                                                                                                                                                                                                            E [ ` +.5.3.B 5 l l k z v D H A < k - + k k x k D H 1.h h E ]                                                                                                                                                                                                                                                                                                                                                                 R y b x F V k k k v n D o.H A l k k x c c c v K O.7.i.u.[ +.                                                                                                                                                                                                                                                                                                                                                                          ",
"                                                                                                                                                                                                                                                                                                                                                                        Q ^ ) o.4.6.4.D N k 5 l v z i : - ; - - % X , x k k C v v D i y R                                                                                                                                                                                                                                                                                                                                                               E r t c <.3.s.a.s.7.3.D 2.3.H v z c c c c k l n z S S o.6.y.u...{                                                                                                                                                                                                                                                                                                                                                                       ",
"                                                                                                                                                                                                                                                                                                                                                                    _ / _ ) O.3.4.2.P S i l k 5 ; ; k k k : - + + X - < k k A v f v k t E +.                                                                                                                                                                                                                                                                                                                                                            e t k 1.6.1.H D k v l : k 5 z A A v c k k k v A v v n A S ' 5.y.t.} |                                                                                                                                                                                                                                                                                                                                                                   ",
"                                                                                                                                                                                                                                                                                                                                                                _ ^ ` ' o.o.2.4.I S S D i 5 : - : S H z z l k ; - X X - k d S k k k A t t e                                                                                                                                                                                                                                                                                                                                                           R y < 3.C A A H A C k X X X - - < l l k x z f C v v c c v v v n P 7.y.t.} |                                                                                                                                                                                                                                                                                                                                                               ",
"                                                                                                                                                                                                                                                                                                                                                            +.[ { ] O.O.o.2.2.D N n N n 5 + + 5 H 1.k v z D k < ; < < - - , v d k k n z : r (                                                                                                                                                                                                                                                                                                                                                         Q t P F V V A 1.V f x * f k f c c c c f f c k C v v k k k k k c z N H 5.t.=.{ y.                                                                                                                                                                                                                                                                                                                                                          ",
"                                                                                                                                                                                                                                                                                                                                                          Q  .5.5.3.2.P D P S z n Z l : % % l n k < v v n o.: % k A C f - < < k k k z n 5 u e                                                                                                                                                                                                                                                                                                                                                       e q J <.V v C G V V A * > v v V V V v f , f k v A C v v k k k k k k l v n G 4.y.u...t.                                                                                                                                                                                                                                                                                                                                                      ",
"                                                                                                                                                                                                                                                                                                                                                      E { =.5.3.o.o.P D S S S N n k < : : l n l 5 < k A z D < i v S v f < - k k k k l z l t ! '                                                                                                                                                                                                                                                                                                                                                   ( e M K S V x v x c x > x V C V F V c x f : k k S H G C k k k f f f k k k c c v S 5.y.u.{ i.                                                                                                                                                                                                                                                                                                                                                  ",
"                                                                                                                                                                                                                                                                                                                                                  { ..=.7.4.<.P H D S D H D A l : ; : 5 < < 5 5 k < k z z n 5 l v n c f < * f , < f i i i t j y                                                                                                                                                                                                                                                                                                                                                   r 0 H x S v v x d < 2 x v V G F k f f f < 5 l c H H D v c k k f < 5 f k k x c l c z S 7.i.=.} i.                                                                                                                                                                                                                                                                                                                                              ",
"                                                                                                                                                                                                                                                                                                                                                / =.t.O.o.P S S S S A S A v k < l z z 5 : < < k c f k k D 5 5 l z c k f < : X < , , i t k b t R                                                                                                                                                                                                                                                                                                                                                   R ( x k F x x k f * > < f D H F v v k k f 5 l f v A v c k k f f f f f k l k k c c c v n ' 7.y.=.=.                                                                                                                                                                                                                                                                                                                                            ",
"                                                                                                                                                                                                                                                                                                                                            ! } t.3.o.D S S A A A A A v k k k A A A k < : - - 5 c G l , P : 5 f k k k f 5 i - - , < k k i v % w                                                                                                                                                                                                                                                                                                                                                   R M k c A f f x > 2 * - < f < k v V c f f k c l v l z C v k k k k f f k k k c c v c v z z n P 6.i. .u.                                                                                                                                                                                                                                                                                                                                        ",
"                                                                                                                                                                                                                                                                                                                                        ) } =.+.D S D S S H F v c v f < 5 l v z N S v < : : : < < n n 5 c , f k f f < < 5 5 < - < k k k z z Z =.=.                                                                                                                                                                                                                                                                                                                                              ( E t k , C k x < * X X X * > , * * < 5 f l v < z v l l z l k k k k k k k k k c v v v v v v v z N ' t.u. .t.                                                                                                                                                                                                                                                                                                                                    ",
"                                                                                                                                                                                                                                                                                                                                    =.} =.5.P D S S H S S n c x f - < k l i k k z v k < < < 5 : 5 l N : < , k v k < < < < < < , < k k c z n Z p.{                                                                                                                                                                                                                                                                                                                                               r y b k k f < 2 * * * > < f k c c < - - < l , n G n i 5 z l k k k k k k k k k k v v v v V v n n n z S 1.y.u.}                                                                                                                                                                                                                                                                                                                                   ",
"                                                                                                                                                                                                                                                                                                                                  _ =.+.' B S H H o.G S v d f > f n c < < ; : , i v l k k i < : , 5 k < - : z A k < < < < < < < < k c c v l m O.3X0.                                                                                                                                                                                                                                                                                                                                            R t < f < , - - < < * > c v V V H <.v - - - - v S A z k k l l l k k k k k k k k c k v v v C C v A v v v J ' u.=.=.                                                                                                                                                                                                                                                                                                                              ",
"                                                                                                                                                                                                                                                                                                                              | } u.O.D S A S S D N f < * X - C A c f f : - ; : i k 5 , k k k < , : : 5 + ; < k k < < 5 5 f f k 5 , f k k l l m p.-.                                                                                                                                                                                                                                                                                                                                          r u k d f < < - d V V d > v G V v k 1.P < : + % k k n z v v z C v k k k k k k k k k k k c v v v v A A A C n n S 5.u.;Xu.                                                                                                                                                                                                                                                                                                                          ",
"                                                                                                                                                                                                                                                                                                                            { =.5.' S A S H S z ; , - * > k C V x f d , ; - - ; 5 k 5 < 5 k k k 5 < : : - % : k k x k f f k k v k , ; : < l l a #.1XV.                                                                                                                                                                                                                                                                                                                                      s R t v f , k * > f v G c * c G C c x k f v v ; + : i z A A S A C A k k k k k v k k k k k k k k v v C G S S S A v N ' y.u. .                                                                                                                                                                                                                                                                                                                        ",
"                                                                                                                                                                                                                                                                                                                        ! ;X=.O.N A S A C n z : - - , f f d k v k d < > - - : < i i : : , < i k < < 5 - k - < f k V k 5 k k C v v 5 ; : 4 6 L 8.$.5X1X                                                                                                                                                                                                                                                                                                                                      R y b k f d - - < k v G V f v C v c k < k f C k < < 5 5 5 k v S D S v k k k k k k k k k k k k k k k z C S S S S S n A H 3.t. .=.                                                                                                                                                                                                                                                                                                                    ",
"                                                                                                                                                                                                                                                                                                                    +.} | ] J N v S A v f < - + , k k < < < , , , , , , - - - < < < , , , - ; ; , , , X f - 5 k 5 x f k x < V x v 5 ; @ O w.w.F.H.J.qX                                                                                                                                                                                                                                                                                                                                    r E b k f , , - < c k v v A f k v v c f < f k : - : 5 k 5 ; ; k n n v c v k k v v x x k k k k < < < k k k v S S A A A n N N J +.=. .y.                                                                                                                                                                                                                                                                                                                ",
"                                                                                                                                                                                                                                                                                                                  ^ | 5.' N v v A v k k : - < v v f < < , , , , < , , , , - , < < , , > - - - - - - - - k - : , < - x x k c k x z 5 = O w.$.l.G.|.J.0X9X                                                                                                                                                                                                                                                                                                                                M R M x x < < - , f f k k c x k > v F k < k k < : : : i k n n z k , < c v v v k k k x x k k k k < < k < k k k v A S v A S n n n N O.t.| {                                                                                                                                                                                                                                                                                                               ",
"                                                                                                                                                                                                                                                                                                              ( } ] ' n k z z n N v 5 , ; k v C v , , - - - , , < , , , , , , < , - - - - - * * + + X * c : , , , , d k x x x f 5 @ #.#.k.M.Q.Y.Y.Q.oX1X                                                                                                                                                                                                                                                                                                                                w t v c x x , < < < < d f k k f > k C k v C l < : : 5 k z A S v l k < - , k k v l k k v v v v v k k < < f k f k c C N v A D z z l z J 5.t.{ =.                                                                                                                                                                                                                                                                                                          ",
"                                                                                                                                                                                                                                                                                                          | ^ | 5.J k i k z n v z i - < l z n v k , , - - - - , < < < < < < d < , - - - - - * * + X X : C k - - - - , < k d , ; . 0.q.l.D.Q. X#X.X.X.X9X2X                                                                                                                                                                                                                                                                                                                            >.s p l k k < f f i 5 < d < x c x d - v f G v i < : : : k A A A v k k k , - - - < k k k v v k A A k k i 5 < < < , k k z A n A A z l l l z 2.5.u...u.                                                                                                                                                                                                                                                                                                      ",
"                                                                                                                                                                                                                                                                                                        ! | t.) z 5 5 5 < k z i - - k l k < f x x d , - - - - , , < < < < < < , - - - - - - * * + + X A 1.A , - - * = : ; ; = 6 9.C.oX.X#XzXzX#XzX#X+X0X>X                                                                                                                                                                                                                                                                                                                            :Xp.6 5 5 , < k k k < f f f d c F k - k k A f < < : < 5 l n n l l f , , , < k k - - < , < k k v v k k k k f < , , < < k v S A A v k l l l k N 5.+.=. .y.                                                                                                                                                                                                                                                                                                  ",
"                                                                                                                                                                                                                                                                                                    W  .+.3.S z k : ; 5 i k : - < k k f < , 5 f k k < , , - , , , < < < < < , , - - - - - * * * * X * S 3.G n ; O 3 7 O O O #.8.A.Q..X#XzXmXxX#X#XOXOX~.5XeX                                                                                                                                                                                                                                                                                                                        2XV.r.U 4 ; ; k v V x k < f f v x f d - - < k < , < k 5 5 l n l < - - ; , k k x v v - X - - - , < < f f k k k k < , < < < k n S n l k k k z l l l N 3.y. . .                                                                                                                                                                                                                                                                                                ",
"                                                                                                                                                                                                                                                                                                (  .] ' B N N l : - ; 5 < - , v k k , - - - , k k k < , , - : , , < < < < < , , - - - - - - * * * + * S G 1.k m 8.9.$.$.F.$.k.A.G.#XXXzXzXmXzXzX#X+XOX~.K.6X                                                                                                                                                                                                                                                                                                                      1X5XJ.A.#.8 @ : l A x v c d f V x k d < - * : < < < f l l 5 5 l l , ; - - , k k k l k k , - X - - , , , f k k k k k < , , < k v v v k i k k l z l l l l B +.=.} =.                                                                                                                                                                                                                                                                                            ",
"                                                                                                                                                                                                                                                                                            _ } ] ' N n n v z 5 - - ; - f v v k k , - - - - , < d < < , , - : : < < f f < < < , , - - - - - * * * * : S v c 5 m 9.j.j.g.f.g.D.Q.+X#XzXzXmXmXxXzX#X#XOX!.J.1X                                                                                                                                                                                                                                                                                                                      <X0X XD.j.#.O 4 z v V c x k d x c k d , - + + < k k v z i 5 i k k : , - - ; : f k l k < < f < , - - - - , f k k k k k < < < < , f < < : k k l v v z z z z z B O.=.} =.                                                                                                                                                                                                                                                                                        ",
"                                                                                                                                                                                                                                                                                        +.} ` ] B B S n z k f , - , f c A v k k < : - - - - - < < f < , - - - , < k f d < < , , , > > > - - - - X + 5 v f i 5 4 r.k.z.z.x.M.Q..X#X#XzXxXmXxXmXxXzX#X#X XD.1X                                                                                                                                                                                                                                                                                                                    ;.0XgX#X XG.z.9.O 5 l v c V x d f < < < , + m @ ; k k k h h < < k k f , - - - , < i k k k h < < < , , - X - < < k k k k k < < < < , - - - i k k z v v v v z v z n B ] |  .y.                                                                                                                                                                                                                                                                                    ",
"                                                                                                                                                                                                                                                                                      ^ _ ) D D S N n z k k , - , k v v v k k < - - - - - - , < < < < , - - - , < f < < < < , , , , , , - - - - X - f l k 5 f p L Z.l.M.D.D.Q.+X#X#X#XzXxXmXxXxXzX#X#XOXY.5X                                                                                                                                                                                                                                                                                                                  p.7X.X#X$X$XXXoXl.Z.O 6 5 l k k k < , - - ; a e.4 + - - - - - ; - < < < , , - , , , , , , , , , , < k k k d - , < < k c v v k k d , - % X - < < k k k k z z v v v n N S D O.=...t.                                                                                                                                                                                                                                                                                ",
"                                                                                                                                                                                                                                                                                  ` _ ( B J D S n v l k f < - - f v v k d , , , - - - - - - , , , < < , , - , < < k d < < < < , , , , , , - - X X - d d f f k l 7 Z.H.I.S.I.!. X X+X#X#XxXnXnXxXxX#X#X+XY.5XV.                                                                                                                                                                                                                                                                                                                <X0X.XXX#XzX#XXXXXF.b.O @ 5 5 : ; - ; ; ; 3 }.}.Y @ + 2 2 - - - - , < , , , , , , , , , , - - , d < < v v v x , < < f k v v v k , - + X - , - < < < k k k k l v A A S H D N ' +.=. .=.y.                                                                                                                                                                                                                                                                          ",
"                                                                                                                                                                                                                                                                              ! { ] N v S S A n z k k - - - - f k k < , - - > > - - - - - - , , , , , , , , , < f k k d < < < < < < < , , ; - X + ; g 5 f f k z m Y }.Y.Y.Y.Y.!.OX+X+X#X#XxXnXxXxX$X#X+XN.5XV.                                                                                                                                                                                                                                                                                                              ;.9X.X#X#XzX#XnXmXXXoXH.9.8 @ 4 4 4 4 = = 3 Z.}.}.}.O + X 2 - - - - > , , , , , , , , , , > - - - , : k v v k x , - - , < f f k f , - + X X - - < , , < < < k k d k c v v P 2.N D o.3.+.| [ _ =.                                                                                                                                                                                                                                                                    ",
"                                                                                                                                                                                                                                                                        +.W  .` ' b S A A N n z k : - + % : f k k < , - - - - , , - - - - - , , , , < < , < , < f k k k < < < < < < < < , , - + @ I }.7 6 l f l z a }.oX XY.Y.Y.T. XOX+X#X#X$XxX#X+X+XOXT.V.K.                                                                                                                                                                                                                                                                                                              ;.0X.X#XxXxXzXzXmXmXXXG.A.$.#.#.w.w.8.Y Y 9.C.F.oX}.7 @ + * - 2 - - - - < < , , , , , , , , > - > , < k x F k k f < - * X - , f k < - X X - - , - , - , , , , < < < - , f v S 2.e.S N D ' ] t.=.` _ { | y.y.y.6.                                                                                                                                                                                                                                                    ",
"                                                                                                                                                                                                                                                                  =.{ ..! ) o.S 4.S n n n z z i ; + - ; 5 k k k k < - - - - , , , > - - - , , , , , < < < < < < f k k k f k < < < < d < < : ; 4 U }.F.oXL 7 5 k t u 3 l.Y.Y.I.I.T.!. X+X+X#X#X#X+XOXOX X!.5X0X                                                                                                                                                                                                                                                                                                              ;.~.#XxXxXmXnXmXzXxXzX#XI.x.n.%.%.n.n.n.z.l.l.l.M.F.w.@ + * 2 2 - - - , k k < , , , < < , , - - , , f k x f < d < , , , - X * - < < - X X * * - - - - - - , , , , < , , , ; k % l 3.n n H N P 4.P P D D ' ' ] ] | } { t.                                                                                                                                                                                                                                            ",
"                                                                                                                                                                                                                                                          ' =. ._ ` t.+.M B P 6.l l N N k l 5 - - < < i 5 5 k k k , - - - - , , , , > , , , < < < < < < < d d < k k k x k f < < k k k k < : : 4 }.|.|.|.|.w.6 t u 7.a G. XI.I.I.P.Y.Y. X+X#X+X+XOXOXT.!.Y.;.                                                                                                                                                                                                                                                                                                                ,X~.zXzXmXmXmXmXmXzXzX#X XI.x.l.l.l.l.z.l.l.M.l.A.G.Z.8 + + - - - - - , f f < < < : , < , - - , > < f k f < < , , < ; - , < - - * - - X - - - - , > - - - - - : , , , - ; , ; N i k n v A l v 1.P S S A S J ' ' ' ' ] _ { 5.                                                                                                                                                                                                                                        ",
"                                                                                                                                                                                                                                                  | }  . .` ) o.P 2.3.H n n P n i n l 5 k i : ; i i < : < : < : , - - - - - - , , , - , , , < < < < < < f k k k < k k v c k < < k k k k k 5 : 4 }.|.R.E.R.|.0.3     p.G.D.Y.I.S.P.P.P.T. XOXOXOXOXOXOXOXD.1X                                                                                                                                                                                                                                                                                                              ;.5X'.#X#XnXmXnXmXxXzX#X.X!.!.P.N.N.N.x.x.x.l.G.l.A.|.G.Y @ + - - - - - , , , < < < < < < , - - , > < f k k < , - , , - - - < k d - * X X - - - - , , - - - - - ; , , , - - ; ; % i 2.k k l 5 < o.1.v n C A N A A S D P o.] | }                                                                                                                                                                                                                                       ",
"                                                                                                                                                                                                                                              5.} u.=.M 5.O.D n S 2.3.n 5 l 4 5 S p ; l : - < l l 5 : ; - - : - - - - - - > , , , , , , , < < f < < < k k k f k k k k v v l k k k k x v l k 5 4 L F.T.E.E.T.^.zX    :.D.D.I.P.S.P.I.P.Y. X XOXOXOXT.OXOXD.5X                                                                                                                                                                                                                                                                                                              X.5X+X#XxXnXxX$X$X#X#X+X X!.!.T.I.P.P.D.I.D.S.l.XXl.H.XXF.@ + - - * - - - - , < < < < < , , , - , < d k f d , - - - - - - < k k k < - X X - - X - , > - - - - - , : : , , - ; , k : < 5 i k : i S z k k v c C A A S S D H o.O.] { |                                                                                                                                                                                                                                   ",
"                                                                                                                                                                                                                                          =.}  .( 3.e.D S N N l n P P m : m Z S l l : : : 5 n l 5 : ; - - - - - - - - - - , , , , , , , , < f < < d d k k k k k k k k c k k k k h k x v l l k z m w.Y.R.R.R.U.V.G.m.p.B.D.I.S.S.P.I.T.T. X XOXOXOXT.$X.Xm.5X                                                                                                                                                                                                                                                                                                              :.5X!.+X#X#X#X#X#X+XOX X!.!.Y.Y.I.T.Y.Y.I.I.G.H.H.G.Y.|.&XO @ * - - ; , , , < , < < < , , , , > , < d f f < , - - - - - - < k < k f < - X X X X - , > - - - , , , < < < , ; , - * : N 5 5 i ; v o.k 5 k k f k c v A G H H P o.2.o.+.{ {                                                                                                                                                                                                                               ",
"                                                                                                                                                                                                                                        |  .( 5.7.S D D v l l l n D 2.S : l Z l + + ; 5 l l k k < , - - - - - : - - - - , , < , , - , , < f k k k k f k k k k k k c c v v v v l k k c v z v v n m L |.T.R.U.U.B.V.V.D.I.P.P.P.Y.T.!. X XOXOXOX`.T.OX$XB.;.^.                                                                                                                                                                                                                                                                                                              ;.6X!.OX#X#X#X#X#X X!.Y.I.Y.I.I.S.I.Y.T.I.Q.I.D.x.%XT.|.|.7 O * - , , , , : < < < < < < , , - > - < < d d < , - - - - - - , < f k f < , - * X X * - - - - , < i k f f f < , , , ; - ; : : : % S 4.b , f f f 5 k k c z C S P o.2.o.o.O.` W y.                                                                                                                                                                                                                          ",
"                                                                                                                                                                                                                                    ` ..` 3.3.1.3.1.A v l i i 5 z D 4.n 5 5 5 ; + p 5 i l l 5 < , , : - - - - : , - - , , , , < , , < < f k k k k k k k k k k k c v v v v A C V v c v v n A A n n m #.|.T.T.R.I.Y.P.Y.Y.I.I.P.T. XOX XOX XOX`.T.Y.+X+Xh.>X                                                                                                                                                                                                                                                                                                                V.7X^.!.OX+X+X+XOX!.Y.I.P.S.S.N.x.x.S.I.!.T.I.D.S.x.T.T.|.r.@ * > < < , : : < < < < < < , , , , , , < < < , , - - - - - - - , , , , - - - - * X X X X X - : f k k k f k < < , - : z k i ; - - N D i : < f f k l k k k k l n S P 1.2.P P ) W `                                                                                                                                                                                                                         ",
"                                                                                                                                                                                                                                +. .| 5.7.2.1.<.H A v k i < < ; k D 4.P : l * : n P n l k 5 5 < : , , - > > : - , - - , , , < < < < 5 f k k k k k k k k l l l z v v v v v v v v z z z N A S S n n m m 8.oXT.T.U.Y.Y.Y.Y.Y.Y.!. X X+X+X#X+XOXE.T.!.xXL.X.V.                                                                                                                                                                                                                                                                                                                  ,XeX+XOXOXOXOXT.Y.S.S.S.P.P.S.N.N.S.Y. X!.I.I.S.OXE.R.T.}.8 ; < 5 , < , < d d k k k d < , , - , < < < , , , - - - - - , - - - - - - , , , - X X X X X + - , f f l l l 5 5 5 ; 5 S n : % o z 2.A ; ; , , < k v A F F V c c v C S P 2.D z s [ +.                                                                                                                                                                                                                      ",
"                                                                                                                                                                                                                              W { 5.6.3.1.H A G A v l k < : : % < A 2.D l z D 3.N A z i 5 5 5 f , , , , , , , , , , , , , < < < < < f k k k k c v c v z v v n v v v v v n v v z z v n N S S H n z z m m w.G.|.Y.Y.Y.Y.!.!. X X+X#X#XzX#X#X$X+XOX@XrX:.;.                                                                                                                                                                                                                                                                                                                    X.uX^.OXOXOXOXT.T.Y.I.P.S.I.Y.S.N.S.Y. XT.T.T.E.R.R.R.T.}.8 4 f < < < f < < < k f k < < < < - , < < < , - - - - - - > < , - - - - - , f < , , - - X X X X * ; < 5 f 5 : 5 : : 5 : : % % o i P n , , , - : i l v C G H G C c z z n S D n Z ' R                                                                                                                                                                                                                       ",
"                                                                                                                                                                                                                            _ [ 5.' 2.P C A v z v c k , - - - % : A P P : z z l 5 : : 5 < 5 5 < , : , , , , , , , , , < < < k k f k l k k k l v v v z z v N n A A n v n n v v z z z v A A S n z k A o.2.@.8.r.G.G.Y.T.!..X.X#X#X#X#X#XzX#X#X+XOX+X:.5X                                                                                                                                                                                                                                                                                                                      h.aXJ.T.OXOXOXOX!.!.Y.S.S.I.Y.P.P.N.S.T.OXOXOXR.R.R.R.T.}.6 6 f < , , < < < < k k f f k < , , , < , , , > - , - - - - , > > > - - > > d k k k , - - * * X X + : z 5 k : : : : : + + + X ; l z i - , k < 5 k k k v v C A F S C c z z n n n O._ ]                                                                                                                                                                                                                     ",
"                                                                                                                                                                                                                          { [ ' n 2.A A C v v c C x < < , - - % < n o.3.% + f k : 5 : 5 5 < < < < : : , , , < < < < < < k k k k l v v v k f k v v v z v z n n n n v z v v v z z z v z n n v l n P H A S P Y Y A.G.!. X#X#X#X#XzXXX#XzXmXxX$X$XxX^.h.                                                                                                                                                                                                                                                                                                                          :.6XU.OXOXOXOX+X!.Y.D.S.S.P.P.P.P.P.N.T.T.E.R.R.E.E.Y.T 6 g f f f f < < k f k k f < < < < < < < , , < < , - - - - - > > > > - - > > < d f k , , - - - - * + + + * N 5 : ; 5 : + z k + 5 A v k - < k < < k c c z V V V n v n D A v l l l P ' E                                                                                                                                                                                                                     ",
"                                                                                                                                                                                                                        ` [ ) H D v n v C v v v V k < , - - - - < N 6.e.5 S l f , : 5 5 5 5 5 < < , , , < < < < < < < k k k k c z v C v k k k c v v v v v z v v n v v v v v v v z l v v z z n 4.n z n l 7 a #.k.l.S.I.Q. X#XzXmXmXmXnXDXnXnXDXFXJ.DX                                                                                                                                                                                                                                                                                                                            GX6X~.OXOX+X.X XQ.Y.Y.P.P.P.Y.Y.P.P.R.R.E.E.E.E.R.|.7 5 l k k k f f < k x c k k < < < < < < < , , < < < , - > > > > > > - - - - - - , < < , - - - , , ; ; - % + . + 5 5 5 l l 5 : - n P v , - , : f c c v A A C C A C v l k v S v k 6 S 2.~ `                                                                                                                                                                                                                   ",
"                                                                                                                                                                                                                      ` [ ) J A v c z C v c v v v < , , , < X % < S 6.6.: 5 k z n n f f f f f f < < d < < < < < < d k k k k v v c v v v v c c c l z v v z v v v v v v v v z z z z v n n l 5 n P z n m 6 7 r.q.j.A.S.I.I.Y.Q..XXXzXzXzXzXxXnXDXmXbXNXbX                                                                                                                                                                                                                                                                                                                            ,X0XjXzX#X+X.X X XT.Y.Y.Y.Y.Y.T.T.R.E.E.E.E.E.T.U 7 i k x x k k f < k c k k < i i i i k < < , < < < < , - > > , > > > - - - - - - > > - - - - - , < k k : - + + + o + + : 5 : - 5 1.1.l - * , - : k v A A A A A A A n n v k f c k , z P ) R                                                                                                                                                                                                                   ",
"                                                                                                                                                                                                                      W ( n N z c c v v c v V C v < < , , : X - < A 6.6.: H D <.n k f f f k i i k f k k k k f < k k k k c v v v z z v v v v v v v v v v v z v v v v v z v v v v v v v z i n 1., l p 6 7 b.9.z.l.N.N.S.P.I.Q..XzXzXzX#XzXzX#X$XxXzXhXuXwX                                                                                                                                                                                                                                                                                                                            ,XeXlXzX#X#X#X#XOX!.T.T.T.T.T.R.R.E.E.E.E.T.b.a l x k k c k f f < k C k k < < i k k < < < < k k < , , - > > > > > > - - - - > > - > - - - - - - : k l l : % + + + + + - X . - N 1.P k + * - , < k k x v v V C v v V v v V k k k : C D B ~ +.                                                                                                                                                                                                                ",
"                                                                                                                                                                                                                    W ` b A v c x c v c c V A F v x x f , f - - < A e.4.: S 2.l 5 : f f f k i i f k k k k k k k k k v v c v v v z z z v v v v v v v v v v v v v v v v v z z z z z k k k 5 1.A A m 6 8 Z.q.z.x.x.c.N.P.Y.!. X.X.X#X.X#X#XzX#X+X+X#X+XrXuXpX                                                                                                                                                                                                                                                                                                                            8XvXzX#X.X#XzX#X#X XT.T.T.T.R.R.E.E.R.R.|.U m z x x v v k k k k k v k k i k k k k k < < < k k < , , , > > , < , > - - - - - - - - - - - - - - : f < 5 5 5 : % % + X X 5 k : S o.D , X X X - - < x v c V c v v V v c c c v k , 5 P P n B r i.                                                                                                                                                                                                              ",
"                                                                                                                                                                                                                  / ` s.- C v c v C V V V A G <.A A v x < v - o , G 6.3.: z : : 5 5 l k k k k k k k k k k k c c z v v v v v v v z z v v z v v z v v v v v C v v z z z z z z v z l l 5 : 1.k n z 6 7 F.j.z.x.N.S.N.P.Y.T. X+X+X.X.X.X.X.X.X.X+X+X+X.XzXcXfXaX                                                                                                                                                                                                                                                                                                                            0XhXgX#XxXmXxX#X XT.T.T.P.*XR.R.R.R.|.9.a z z v v v c k k k l v c z l k i k k 5 < f < < k k f < < , > > , , < , - > > > - , - - - - - - - > < < , , : : : ; ; 5 k k : i : D H C : X X X X X - d x x x x v c c c c k k k k : - n D n l p i.-.                                                                                                                                                                                                            ",
"                                                                                                                                                                                                              y.:X~ B 4., k v k c C A C A A ,.G A A v c f x f X < v 6.P : ; 5 : : 5 f k k k k k k k k k k c c v v v v v v v v z z z z v c c z z v v v v v C v v z z z z v z z z l k < l l S Z m 6 Z.q.z.x.S.P.P.T.T.T.OX!.#X#X+X#X.X.X#X.X.X#X#X#XzXnXmXzXwXsX                                                                                                                                                                                                                                                                                                                          hXhXzXzXmXxX#X#X+X!.!.T.Y.v.R.R.R.Y.b.7 l z v A A v c k k v v v v v z z l k k k 5 i k k k k k k d < , , < < < , > > > > - - , - - - - > > , < < , : ; ; : ; : 5 l n S ; n 1.H c : X * , X - > f v V v c c x c k k f k k l i ; A C z l p r.p.:X;.                                                                                                                                                                                                        ",
"                                                                                                                                                                                                            p.3X+.B z S : 5 c k c n F A A G G F A A V k k < - X 5 k S 7.z z k 5 5 5 f k k k k f k k k k v v v v v v v v v v v z z z c k c l c v v v v v v v v v v v z z l z l k l l 5 S z z z m Y w.z.x.N.Y.P.P.Y.T. XOX XOXxX#X.X#X#X#XoX.X#X.X#X#XnXmXnXvXpX                                                                                                                                                                                                                                                                                                                    hXNXNXMXmXzX#XmXDXzX#X.X X X!.x.P.R.P.Y.F.7 m k v A D S S v c v v n A v z n v z l z k k l k k k k k k f < d < < < < < < > > > > , , - , , , - , < < < < , ; ; ; ; 5 5 5 : + + P 3.S l - X 2 - - > > d x v v k k k f k d < < k k < k 1.S z 5 6 8.0.p.1X3X9X                                                                                                                                                                                                    ",
"                                                                                                                                                                                                          3Xp.0.m m l P : k l z v V V F ,.,.,.G A A V x k , - X < k 2.7.+ N 5 : : 5 k k k i f f k k k v v v v v v v v v v v v v c c c c c l l c c v v n v v v v v v z c l k k k 5 ; z N n n m 7 r.q.z.c.P.I.Y.T.!.Y.+X X#X X+X#X X#XzX#XoXXXzXXX#X#XmXmX%XbXaX                                                                                                                                                                                                                                                                                                                  5XsXMXmXDXmXxXnXnXnXnXxX#X+X XT.N.N.S.H.w.L 7 g k v H D A A n v v A n n n z z k z z N z k k i k k k k k k k < < < < < < < < < , < , , , , , , , , < < < < : , : ; ; : 5 : : m p e.s.P l - X X - > < > d c x V v c k k k f f , , < 5 k 6.S z 5 @ 8.0.r.Z.K.1X<X0X                                                                                                                                                                                                ",
"                                                                                                                                                                                                        1Xp.p.0.a l 5 4.; l c v x V F F 1.1.<.V V V V v k k i X , v 7.a.- z - ; : 5 f k k 5 f 5 k k k x v v v v v v v v v v c c c c c c k k k c c c z z v v v z v c c l k k i 5 : 5 v k z p 3 #.k.g.f.x.S.N.P.I.!.+XT.$X X+X!.#X#X#X#X#X#X.XXX#XgXXXmXzXXXhXsX                                                                                                                                                                                                                                                                                                                  7XMXmXDXnXzX#X!.zXnXDXnX#X#X+XI.N.D.H.Y a I Z 5 k v C H H C n n n N A A v v n A A n n n z z v l k l k f k k f d d f < < 5 : , , < < , < , , , < < < 5 < < < < : , : : 5 5 l m + 6.e.P 5 - o * < - > d f V V A c x k k k k f , , , - k H k k 5 4 8.0.w.r.Z.K.9XqXqX                                                                                                                                                                                              ",
"                                                                                                                                                                                                    9X2XV.m.w.0.6 l 6 3.: l c c F x V V D 1.,.F F A v V k k k - , v 1.a.X - : ; ; 5 5 f k 5 5 5 d k k k v v v v v v v v v v c k c c c k k k c k l c c v v v z v c c l c l k 5 : , z < 5 i = 3 r.j.f.f.v.P.Y.N.I.!.OXT.$X#X!. XzX X#XzXXX#XXX#XXXzX#XmX&XXXhXsX                                                                                                                                                                                                                                                                                                                9XwXDXDXDXmXxXmXnXnXDXDXnXzX.X!.Y.S.A.Z.L Z n N S < v n A S S S n z n z z v n n n n n n z l z v z z z k k c c c c k k f f < 5 : , < < < < , , , < < 5 f f 5 5 < , , : : 5 5 5 % z e.6.D 5 - o * < < d x x V F D A v x v v k d < d < - k S f 5 ; 4 8.8.9.w.k.C.G.J.0X2XsX                                                                                                                                                                                          ",
"                                                                                                                                                                                                  9X2XV.m.k.r.0.4 6 5 H : < x v V v V c C F <.,.A A x x < - X o + k H s.: - 5 : ; : < < 5 < < 5 k k k k k v c v k k v v v v v c c c c c l l l k c c c c v v z c l c k k l 5 : ; i < < 5 : 4 #.$.f.g.z.v.P.P.P.P.T.+XOX$X#X X.X#X X#XXXXXXXoXzXzX#XzXmXzXoXgXqXzX                                                                                                                                                                                                                                                                                                              9XfXDXDXDXnXzXmXnXmXxXzX.X XQ.I.D.N.j.T 7 5 v v H H 5 z z N N n z z v z n A C n A n n n z z z n C c k k l v C c c l k f f f k : , < d < < > > , < < f f f f f < : , , : 5 l S 5 i 6.6.n : X X , < < k V V S H F A V A A S k f k k < - D A - ; + 6 8.8.r.k.k.l.H.G.oXfXwXaXvX                                                                                                                                                                                      ",
"                                                                                                                                                                                                wX7XK.A.M.C.w.8.6 ; 5 H , f k k k V V V V F ,.G v c x k d - X X + k H a.n 5 5 - ; : 5 < 5 < < 5 k k k f k x c k k k k v v v v c c c c c c c l l l c c c v c k l k k k l k 5 : - z < < < : & 0.k.g.g.v.v.c.P.P.c.Y.+XT.$XOX X#X.X.X#XXXoXXXoXXXzXzXmXmX#X X^.qX                                                                                                                                                                                                                                                                                                                9XwXnXDXDXnXmXxXmX#X#X#X XY.D.D.N.x.g.L 6 6 k z k P n l v n z z z z N n n n n z n C n z z n n n n z c l k C A C c c c l c k k < < f d < , < < d d < < d k k k 5 < : , : 5 S n : N e.7.z - X - k k c x V F F H F A A S A C A v k k f - 1.N + ; + 4.0.b.b.C.C.H.A.H.G.oXgXhXqXaXvX                                                                                                                                                                                  ",
"                                                                                                                                                                                              qX9XK.A.A.C.l.w.8.m ; : P , f k k k x f f C G <.F F V v k d , - X X k S e.n 5 : ; ; : 5 < < < d d f k k k k k x x k k k k c k c v z v c c c c l l k k k c c c c k k f f f 5 5 ; - k 5 < : ; & 7 k.g.v.x.x.N.P.P.P.I.#X!.$X X+XzX X.X XoXoXXXoXXXzXzXzXzXXX XJ.,X                                                                                                                                                                                                                                                                                                                9XwXnXxXnXnXzX#X#X#X#X X!.!.I.I.S.x.z.q.8 4 5 z l 1.S k n z N z k z n n m n n n n n n z z n z z z l l z z v v v x c c k k f f f f f 5 < < d d d f f f f f k k d < : : 5 : 5 5 % D e.P l - X , k f c A F F F H ,.H S V V A k x c k < - 6.n + + @ 0.r.b.b.l.l.C.A.A.D.Q..XgXhXuXsXwX                                                                                                                                                                                ",
"                                                                                                                                                                                          wXaX0XJ.D.D.A.l.k.r.0.8.@ % P < k f c d d d d V V ,.H G A V k k < , - + < H 6.S , * ; ; , 5 < < < < d k k k c v k x x k k k k k k l c c c c k c c l k k k l l c c c k k f f f 5 ; - : f 5 : : - @ #.k.f.z.v.v.x.c.P.P.T.!. XOX X X#X.X X X.XoXXX.XXXzXzXmXmX.X XV.-.                                                                                                                                                                                                                                                                                                                7XuX$X#X$X#X#X#X#X#X#X X XY.I.S.N.N.x.n.b.3 4 z l z H k 5 n n A z v n z z z l n n z l z n n N n n c l c l c k v v c c l k v c k f f 5 < d k f f f f f f f k k k < : , 5 : ; + : S 7.n z , + * < > f v F C F H <.1.,.A V v v x x k < , 3.< + + m 8.r.k.k.C.A.G.G.Q.Y.Q.Q. XxXxXcXuXpXvX                                                                                                                                                                            ",
"                                                                                                                                                                                        BXsX0X^.J.D.H.l.l.k.r.0.8.. + H k < < f f < k k x x x F G F V v x k k - + : m 6.z + + - ; : < < < < < f < k k k k k k k k k k k k k k k l c l c l c l k k k k k k l k k f f f < < - - < 5 5 < : % O r.k.f.g.v.v.v.c.P.P.T.T.T. X X X+X+X#X.XXX.XXX.XXXXXzXzXmX.XD.V.<X                                                                                                                                                                                                                                                                                                                7XeX#X#X#X#X#X#X$X#X#X#X+X XI.P.S.S.x.z.j.r.6 5 l 5 1.H 5 l n z z l z z z m n n n n z n n n z z n n n n A C v c c v c c z c c n z k k f f f k k k f f f k k k k < < < : 5 5 S Z o.P l g : + - , < k V v F A H ,.,.V V v V C v k d , < 6.; X . 0.0.k.k.l.l.A.A.A.D.Y.Q.Q.Q. X+XxXlXuX8XwX                                                                                                                                                                          ",
"                                                                                                                                                                                      aXuXhX.X X XQ.D.A.C.k.w.0.#.@ . z v , < < d < d k x v x V F F V V v k k , - ; k 7.z X + - ; : , < < < < < < f k k k k k k k k k k k k k k k k k k k k k f f f k k l c k f f f 5 < , + + < i i 5 : % O r.k.z.v.N.x.c.S.P.P.T.T.T.T. X X+XOX#X X XXXXX.XXXXX#XgXhX0X:.X.                                                                                                                                                                                                                                                                                                                  8XhX#X#X+X.X+X+X#X+X+X+XOX!.!.I.S.N.x.v.j.q.#.6 5 l v 2.k l l v z z z z n m z n n n n n n n z n n n n n v v v c c c z c z l z v c c l k k k k k k f f f f k k k < < : , : l 5 5 a.4.l g * X < d x V C F C F H H F v V V v v k k < - A 1.X . O 0.0.w.k.l.A.F.G.oX X X.X.X.X~.+X+XjXxXlXwXpXuX                                                                                                                                                                      ",
"                                                                                                                                                                                  vXaXvXhX.X.X X!.Q.J.G.H.l.q.9.#.Y . - 1.> > , d d d d k k C V A V A V k f k < - - l s.1.5 5 - : , , , , < < < < k k k k < < < d d k f < < < < f f f k k k < 5 5 f f k k k f < < < f < < - - : k k < X + @ 8.%.g.g.x.v.c.N.P.T.T.T.T.T. X X X X X.XXXXXXX.X.X#XXXgX0X>X>X                                                                                                                                                                                                                                                                                                                  eX8XbX#XnX#X X X+X+X#X+X+X X#X!.Y.T.S.x.x.z.j.b.7 6 N H H A z l l z n z n n n n n n n n n n n n n z n n z c z z v v v c z v v v v z v v l k x c x k f f k k k k h < < , - - l 5 P a.<.l 4 + k z k v c v F G 1.<.F V V v C c d k k x - H A . . L 0.w.r.k.C.Q.G.J.Q.Q.Q.Q..XzXjX+X+X+XxXkXlXvXBXsX                                                                                                                                                                    ",
"                                                                                                                                                                                wXsXbXxX+X+X!.!. XQ.J.G.F.A.C.C.r.#.O + 1.- - - > < d f c V A A A F A F k < f , * * f a.o.n : ; : ; ; , : , : < < < d k k < < < < < < < < < < < 5 f f k k k < < < < < < k k f < , < , , * - - i A H C < % O w.k.f.g.v.v.c.P.R.U.Y.T.T.T.!.!. X X X.XXXXXXX.X.XgX0X7X1X                                                                                                                                                                                                                                                                                                                      eXwXMX#XnX#X X#X+X#X+X+X+X+X#X!.Y.S.S.Y.I.x.z.j.Z.6 p z 5 7.l l z n l z z z z n n n A C n n n z n n z n n l l z n l v v v c v v v v v v v k k x f f d d f f k k h < , , ; + + + P a.C z * X - - : k c v V V ,.,.,.V k x x f k c k k < 1.d o O 4.8.9.k.C.H.G.G.G.Q.Q.Q.~.jXxXjXAX+X+X+XjXxX'.jXeXpXsX                                                                                                                                                                ",
"                                                                                                                                                                              wXBXbXcXkXjX+X!.!.!.Q.G.G.H.F.C.H.Z.0.a O 4.f - X - < d f c V V A v V A A c f < - * * < a.1.- : ; - - - - , > , , , , < < < , , , , , < < < < < < < < f k f k < < , , < 5 k k < ; - , c z k - - - , < - X X O 0.k.%.g.v.x.x.c.P.P.T.T.T.!.!.!.^.~.gXgXgX.X.X^.^.wX2X0X                                                                                                                                                                                                                                                                                                                          qXMXzX#XnXnX#X.XzX+X X+X$X.X.X!.T.T.S.P.I.N.j.9.#.a N P z z l l z l z l z z n z z n n n n n n z n n l c l l l c n C v v V v v v n C V l z c x f f d f f f k k < : < , - - + ; 6.e.z l + + + + , k c V C <.,.,.V c d < < < k < < , V c X + 4 8.w.k.Z.C.F.F.D.G..X.X.X#XjXjXjXkX+X@X`.'.+XjX+XcXvXwXaXvX                                                                                                                                                            ",
"                                                                                                                                                                            sXuXlXkXkXZXxX+X+X+X.XQ.Q.D.H.F.Z.C.Z.r.4.O n A - > - < k x V A V V v v V V c x d , , - * 1.1.: + - - - - - - > , : , , < , < , , , , < < < < < , , , , < < < < ; ; - - - - * < f < > * + - - X X , 5 , - + + O 8.&.%.&.g.h.;.h.;.V.5X5X1X1X,X5X5X5X5X5X5X5X5X7X2X9X                                                                                                                                                                                                                                                                                                                              2XvXzX#X#X#X#X#X#X#X X#X$X+X+X!.OXY.Y.Y.T.M.g.z.k.a m n l n 5 m l n l l z z n n l z z n n n z z l z l k l l z c z v v C C c v n n C c c c k c f f d d d f k < , , , ; - , ; 5 6.a.i g + X - - , f c V F H G C v f f d d d < d , - <.c . + 4.r.Z.Z.H.F.G.G.G.Q..X.X.X+XjXjXkX'.'.@X+X+X+X@X'.kXxXlXhXwXaX                                                                                                                                                          ",
"                                                                                                                                                                        uXsXuXlXjX@XkXkXkXjX+X~.Q.Q.Q.D.A.A.C.C.k.r.8.3 O 3.X f k k k v C A A V v v V v c c f , < - X k n - 5 - - - - - - - - > , , < k k < , , , , < < < , , < < < < , : - - X * - , k < - - - % ; , , , - * - d d , * + O a r.*.*.X.-.X.-.;.V.                                                                                                                                                                                                                                                                                                                                                              <XvXzXzX#X#XoXXX#XzXxX#X#X XOX#X XI.!.Y.I.N.S.z.j.#.a m S n l 5 5 l z z v l z n n v v n C n z z l l z z k c v z v v v v v v c v v c c l v c k k d < < d k k f , , , ; - : 5 z 7.7.z : + X , 5 f c c v F F V x f k f d d d k < - , H : o 6 r.Z.Z.C.H.F.G.G.Q.Q..X!.!.jXjXjXkXkX'.].`.'.kXkXkXkXjXkXjXhXwX7XuX                                                                                                                                                      ",
"                                                                                                                                                                      aXsXlXkX@X].].@XkXkXjX+X!.U.I.D.G.G.G.F.H.C.r.w.U . S z < < k k x V v v v v V x C v v k f f : X - D o - - - - - - - ; > > , < f k k < - - X % - , , - - X X , , k C k f 5 , - * - , - - , , : < , , - - - < t 1 # 9 9 # @.*.m.                                                                                                                                                                                                                                                                                                                                                                          ;.BXzXzX#XXXXXXX#X#X XxX XOX#XOXOXOX!.P.I.P.x.f.j.b.3 6 n p S : , f l c c l z z z z z C C n z n l l l c v v c c v c k l l k c c z v z c v k f f f f f < k f f , , ; - - - : S 6.2.5 ; X - 5 k c v c C A C v v c x f k d < - - * k 7.o . 8.w.k.k.C.F.F.H.D.G.Y. X#X+XzX+XjX'.+X@X'.'.'.].kX'.].kXkXkXkXkXlXwXaX                                                                                                                                                    ",
"                                                                                                                                                                  bXaXuXyXkXkX@X].'.+X@XjXkX+X+X~.~..XQ.G.G.G.C.k.q.w.8.@ % H - > > < k v v V V V C V A C A v k k < - * S + - - * - - - - - , , , , < f f < , - - X - , k z k < , X X - , - - ; - - ; : < ; - ; ; ; , , , > - - t q e 9 q                                                                                                                                                                                                                                                                                                                                                                                       7XhXzX#XXXXX&X#X#X X#X#XOX#X X$X!.I.N.U.Y.v.f.j.k.8 4 5 i 5 l , 5 f k k k k c c z v z k l l c c l l c z v v c v C n v l c k k k c k k f k x k d f 5 < < < < < , , , ; + % n 6.n 5 + X < k k k k C A V A A A v f d k < - * * * <.C + = 0.w.C.H.G.F.G.G.Q..X.X.XzX+XxXjX'.`.'.@X].'.'.'.].].].].@X@XkXkXjXlXuXaXwX                                                                                                                                                ",
"                                                                                                                                                                wXaXuXkXkXkX@X@X'.'.+X'.'.@X+X+X~.~..X.XoXoXG.F.Z.q.$.#.7 + 5 , X > > d c v v V C C A A A C x v k < - X f - , - - - * - - - - - - f < , , - - - - - ; - + X * - - X * ; < < , - - - - , , - - ; ; , 1 $ 9 9 0 e # M                                                                                                                                                                                                                                                                                                                                                                                             9XwXhXzX#XoX&X#XXX+XnX#XOXOX#X X!.Y.P.P.N.v.v.f.j.k.@ 4 5 5 n ; 5 f k k c c k l c c z v l l c c l l c z v c c v n l k k l c k c v c k k k x k x k f < < < < < , , ; ; X - n e.D 5 + * , d d k v A A V V A V V k f k < , , , > 1.o O 4.0.q.k.H.F.oXoX.X.X#X.X!..X.X!.!.!.`.'.].@X'.].@X@X].].kXkXkX@XkX@XjXjXlXuX2XwX                                                                                                                                            ",
"                                                                                                                                                              wXwXvXlXkXkXkX+X'.'.'.'.`.`.'.`.^.U.U.!.Q.Q.G.G.F.C.q.%.8.U O . H + ; , > k v v v v v C V V v S v f - - X > < * - - * * * X X X - - < < < < , - - - - - , , , , - - , - - < < , - - - - - ; , , , - & 9 w 0 0 M                                                                                                                                                                                                                                                                                                                                                                                                     2XvXzX#XoX&XXX X#X%X#X%X%X#X XOXP.P.Y.P.v.v.z.j.q.7 4 4 5 5 5 , , f k k k k k k z z v v l k k l c c c c l z v v l v l k k k k k v v v v x k f f f f < < < d , , ; , 5 v k a.3.: X - - - < k C A A A V A V C C x k d k k * <.C o 6 8.9.q.C.F.G.oXoXoXQ.!.I.I.Q.+X+X'.`.'.`.`.@X].].].@XkX].@X].@XCXCXkXkXkXjXgXuXwXaXvX                                                                                                                                        ",
"                                                                                                                                                          uXpXuXrXjX@X@XkX@X+X'.'.].'.'.`.'.'.'.!.!.~.!.!.Q.J.H.M.k.q.q.#.7 O 5 A - < d f x k k c v F A V V A v , - * * X v - * + - - - , f > - - - - - - - - - - - - , , , , , - - - - ; , , ; - ; ; , ; 1 1 9 0 0 9                                                                                                                                                                                                                                                                                                                                                                                                               2XfXgX.XXXXXXX#XXX#X#X X%X XT.Y.P.P.c.v.v.v.g.C.8 3 4 5 5 n - , 5 f k k k k k l l k k k k k l c l c l k k k k c l k k k k k f f f l x k k f f < < < , < < , , , ; < - , e.z - - - - , k k c k x c V V V v v v k x k < , 1.+ O Y #.9.k.A.H.H.Q.oX.X.X.X#X+X+X'.`.`.`.`.+X@X].@XkXkX].kXkX@XkX@XkXZXkXkXZXkXjX+XlXeX8XpX                                                                                                                                      ",
"                                                                                                                                                        wXdXvXlXkXkX@X@XkX@X@X].].'.`.`.'.'.+XjX+X'.'.+X!.D.M.l.l.k.j.q.$.U O . P f 5 5 f k k f k v F F A A k d - - * * - d k , - * - - - , - - - - - - - - - - - - ; ; ; ; : ; ; ; - - , , , ; , , , , 1 # w 9 s                                                                                                                                                                                                                                                                                                                                                                                                                   0XpX0XoXoXXXXXXX%X#X%X%X X X|.T.R.P.c.c.v.v.f.z.L @ ; 6 5 z - : < f f k f f k k c k k f f k k l c k l k l c k k k k k k k k k 5 f k k k k f d < < , ; - - - - - - X i + 2., X - < < < k v v V v v C v v x k k < < , X k ; O 3 U 9.q.z.l.H.H.A.Y..X.X.X+X+X+X`.W.!.'.@X@X@X'.'.].'.].kXkX@X@XkXCXCXZXCXkXkXkX+XjXjXeXwXaXwX                                                                                                                                  ",
"                                                                                                                                                      pXuXlXxXkXCX@X@X@X@XkX@X].].'.'.'.`.!.!.+X+X'.`.!.+X!.D.M.l.j.%.$.#.#.a O 4 2.< : : , < f c v A F v < , < , < > > * X k < 5 - - - , , , , , , , - , : , - - : ; - 1 1 : ; ; ; - 1 - 1 1 q q 9 0 0 0 $                                                                                                                                                                                                                                                                                                                                                                                                                             1X7XqX9X9X9X9X9X9X9X5X5XK.K.V.V.m.m.x.N.z.j.9.8 = 5 5 5 l ; , 5 f f f 5 k k l k d f < 5 < k k k k k l k f f i k k k f < < 5 f k k 5 < < < < , , - - - - - - k c - X z X - , f x k v v C V v A C v A x k , - - - , C o . U 8.9.j.z.z.M.M.S.!.+X X~.!.+X'.`.W.@XkX@X@X`.'.'.].].].].].kXkXkXCXSXSXSXSXkXkXkX@X+X+X'.hXuX7XwX                                                                                                                              ",
"                                                                                                                                                  wXaXvXlXxXxXZXkX@X@X@X].].].'.].].@XkX+X`.!.`.`.!.!.W.W.U.Q.D.A.M.k.q.$.#.Y O . z k ; , < 5 5 c k f < < < < f f f x f > X > k < < k h h 1 < < < , , , , , : ; - - ; - 1 1 : ; , : 1 & q 0 0 w w 9 q M                                                                                                                                                                                                                                                                                                                                                                                                                                     fX0XfXfXfXfX0X9X5X1X,X,X<X:X:X:.;.m.g.%.w.8 @ = f l k : - , 5 < , , < k k k < , < < f f k l k f f < < < < f f f : , < < 5 f f < < , , , , - - - - - > - - * - : 5 X % 1 k c v k S C V A V V x x x d , : ; + C , . 6 8.#.$.%.j.A.A.G.Y.Y.!.!.!.!.!.!.'.kXkXkXkX].'.].'.'.kX].'.].kXCXCXSXSXAXSXZXkXkXCXCXkXjX@X'.^.eXwX7XvX                                                                                                                          ",
"                                                                                                                                                aXwXlXxXAXAXZXZXkX@X@X].'.'.].'.].`.'.kXkXkX'.`.!.W.!.U.W.U.Q.D.M.l.k.%.$.#.Y L O + z ; - , , , - o < < d d f k k f x x d , 2 # q r 0 9 $ # # 9 0 0 0 w w w 0 0 0 w 0 0 0 0 0 0 w w 9 # # b                                                                                                                                                                                                                                                                                                                                                                                                                                                                               K.*.*.X.X.-.# # # # M M & % - - - , , < < k i < , : < : f 5 f f f f < : : , : < < , : < < < 5 f f , : , , , - - - - - - % $ $ $ & $ X 2 - < k C v v C A A C V v x k k f k : l H + . Y U $.q.j.l.H.H.G.Q.!.T.!.W.!.!.!.'.@XkXkXkX].kX].].].kX@X].kXCXZXCXCXCXCXSXZXZXCXZXCXZXZXCXjX+X+X+XeXqX2XvX                                                                                                                      ",
"                                                                                                                                            6X8XuXlXxXZXZXZXZXZXCXkX].].].].'.].].].@XkXkX+X'.`.`.`.!.!.!.!.Q.I.M.l.j.q.%.$.#.#.6 O 4 l X % - - * * , x k k k k k k x k h t r e 9 q                               M y q q q q $                                                                                                                                                                                                                                                                                                                                                                                                                                                                                                       s q 9 e w e 9 # $ & 1 1 1 1 i 5 i ; + X o - , < < d < , , : 5 f < : : < < , < < < f k 5 , : ; , - - - - % $ # 9 0 w E # $ % - - - - k v V F G C x k < < d d , : 2.X O m U #.#.%.j.z.l.M.D.!.!.!.!.W.!.`.!.`.+XkXjX].kXkX].].@X].].].].].CXZXZXSXZXCXZXCXAXSXSXSXSXZXkXxXxX+X.XeX0X7X5X                                                                                                                    ",
"                                                                                                                                        uXaXuXlXkXxXCXZXZXZXZXZXSXkXkX].].].].@XkX@XkXkXkX@X`.!.!.W.U.U.U.W.!.Y.D.H.A.z.z.9.#.T Y 8 . : k X * * - - , d f f f k t t y r r 9 j                                                                                                                                                                                                                                                                                                                                                                                                                                                                                                                                                                   N z t $ o $ # # 0 w 0 0 0 9 # # 9 q t b t t < : : ; , - - - * - - > , < : : 1 1 $ # # 9 0 0 0 9 # $ b     z $ 9 w w 0 q q 1 - < x v v k k k < , > < z k . m U T $.&.q.k.A.A.D.Q.Q.U.I.U.U.!.U.U.!.'.@X+X'.].@X].'.'.].]./.].kXCXCXZXCXCXkXCXZXCXCXSXSXSXSXZXZXZXZXxX+X.X.X0X7XqX                                                                                                                ",
"                                                                                                                                      wXsXuXlXcXZXCXCXCXCXCXCXCXkXkXkX].].].].].].].@X@X'.'.`.!.W.W.U.U.L.L.P.P.S.x.j.z.j.q.%.#.U L 6 . 4 ; + * * - , > > d k t u w w r                                                                                                                                                                                                                                                                                                                                                                                                                                                                                                                                                                                               s r q 9 w e w 0 9 9 9 # # $ $ 2 2 2 2 - 2 - 2 1 1 1 t t 9 0 0 0 # q y                       r 0 e e q t < < , - - < d < < > - v o O Y T #.%.q.j.l.l.l.A.N.D.I.P.U.!.!.!.!.`.'.`.+X].@X].'.'.'.'.'.'.@XkXCXCXCXkXkXkXCXCXCXCXZXSXSXSXSXAXkXkXkXjX+X~.~.0X6X2XvX                                                                                                            ",
"                                                                                                                                  0XaXuXlXxXZXZXSXCXCXCXCXCXCXCXkXkX@X].].].].].'.'.'.'.'.'.`.!.W.W.W.W.U.L.N.N.S.x.l.z.z.j.%.#.U Y L 4 O 7 5 o X - - X $ q 0 e # J                                                                                                                                                                                                                                                                                                                                                                                                                                                                                                                                                                                                                   G S K $ o o $ # 0 0 0 9 9 9 # # $ # $ $ t                                           q 0 e w q $ $ 2 X 2 - - k + O @ Y T T %.q.k.j.z.M.D.Y.I.I.Y.T.!.!.!.!.+X'.'.@X@X@X].].kXCXkX].'.kXkXkXCXCXkX@XkXkXkX].].CXCXSXSXSXZXkXkXkXjXkXjX'.!.~.iX7X8X                                                                                                          ",
"                                                                                                                                wXwXuXlXxXZXSXSXZXZXCXkXCXCXCXZXZXCX@X@X].'.].].'.'.'.@X@X+X'.'.`.!.W.W.U.L.L.P.P.N.D.A.A.l.j.%.#.U Y Y 7 O = Z + % $ # w 0 q                                                                                                                                                                                                                                                                                                                                                                                                                                                                                                                                                                                                                                                                                                                   r 0 0 9 $ 2 X X , : o = Y U #.$.&.k.l.A.H.H.D.D.S.D.Y.I.!.!.!.'.+X'.'.jX].].].@XCXkXkX'.'.kXkXkXkXkX].@XkXkXkXtXkXkXkXkXkXCXAXAXkXkXrXkXxXkX'.~.~.eX6X7X                                                                                                        ",
"                                                                                                                            eXpXwXlXkXkXZXSXSXSXSXZXkXkXkXkXkXkXCXkX].@X].].kX@X].].'.@X+X+X+X'.`.!.W.W.W.L.N.N.N.N.S.l.z.z.g.%.#.T U U U L m = & u w q N                                                                                                                                                                                                                                                                                                                                                                                                                                                                                                                                                                                                                                                                                                                             $ # 9 0 9 y # p Y U U #.$.q.z.z.l.A.A.M.N.M.S.!.!.!.!.`.'.'.'.'.jX'.'.].].@X@X'.kXkXkXkXkXkXkX].kXkX@XtX].CXkX].].kXCXAXAXkX'.'.kXZXkXkXjX'.!.~.6X<X8X                                                                                                    ",
"                                                                                                                          wX7X0XhXxXkXkXSXSXSXSXZXCX@XkXkX@XkXkXCXkXtX].'.'.kXkX].].].].'.'.'.'.`.W./.W.W.U.L.N.N.S.S.l.j.j.j.%.$.$.#.#.#.U U B _ ~                                                                                                                                                                                                                                                                                                                                                                                                                                                                                                                                                                                                                                                                                                                                           ( ` e ` @.U #.#.$.&.j.j.j.l.S.I.I.!.!.+X!.W.W.!.^.'.'.`.`.'.'.'.@XkXCXkXkXCX@X].kXkXkX@XkX@X@X].kXkXtX'.'.].].kXkXtX'.'.'.].tX'.rX+X'.'.~.0X8X7X                                                                                                  ",
"                                                                                                                        qXqXeXjXxXxXkXZXSXZXCXCXCXkX].].@X].kXkXkXkXtX].].].].].].].)./.`.'.`.`.`.W.W.W.W.!.!.!.!.Y.I.S.M.l.j.&.%.%.%.$.#.@.@.~ @.                                                                                                                                                                                                                                                                                                                                                                                                                                                                                                                                                                                                                                                                                                                                                  ~ / >.*.$.%.q.j.z.M.M.D.Y.Y.I.!.!.!.W.W.!.W.!.`.W.`.'.'.@X@XkX].'.kX].].].kXkX].].].@X@X'.].tX].`.].tX].tXkXkX'.].tXtX].'.kX'.!.'.'.!.^.0X7XuX                                                                                              ",
"                                                                                                                      ,X7XeXgXcXxXrX@XAXSXCXkXkXCXkX].].@XkXkXkXkX@X].tXkXtXkXkX'././.`././.`.`.W.W.!.!.!.!.W.N.N.D.I.D.H.A.M.l.k.j.q.#.#.>./                                                                                                                                                                                                                                                                                                                                                                                                                                                                                                                                                                                                                                                                                                                                                           / >.*.q.l.M.M.S.D.Q.S.S.I.!.!.!.'.!.~.!.!.`./.`.].].].].`.'.`.kXkX].].@X@X`.].].@X]././.[.'.'.].kXCXkXkXkXtXkX].].kXkXkX'.'.@X'.'.'.~.0X8XwX                                                                                            ",
"                                                                                                                    2X7XeXlXxXkXkXtXkXCXCXkX].].kXkX].@XkXkXkXkXkXkX].].].].@X@X].'.`./././././.W.!.!.`.!.!.'.W.U.Q.S.M.A.A.M.z.k.q.$.@.>.>.                                                                                                                                                                                                                                                                                                                                                                                                                                                                                                                                                                                                                                                                                                                                                              *./ :.&.m.M.M.M.N.P.Q. X+X+X'.+X~.'.'.'.~././.].'.'.'.'.].].kX].'.'.].].'.'.'.].]././.[.].@XkXCXCX@X].).).).'.].kXkX'.'.`.].].'.@X'.~.~.8XpX                                                                                          ",
"                                                                                                                  <X8XeXrXrXkXkX'.kXkXkXkXkX].'.'.].'.kXtXtX@X].].].].].].].'.].].'.'.'.'./.`.`.`.`.'.'.+X'.!.!.U.D.S.S.S.N.M.m.q.&.*.X.:.                                                                                                                                                                                                                                                                                                                                                                                                                                                                                                                                                                                                                                                                                                                                                                    X.X.:.m.G.Y.I.P.P.!.!.U.W.+X'.'.~.+X'./.`.`.`.'.'.'.'.].].'.'.].@X].'.'.].].]./././.`././.'./.W.W././.'.].].kX@X@X'.].].].].'.kX+X~.eX0XaXvX                                                                                      ",
"                                                                                                                pX0XeXrXrX'.tXkXkXkXkXkXCXCX]./.`.'.`.'.].].].'.].].'.'.].].'.'.'.'.'.'./.`.`.`.`.`.'.'.'.W.I.I.P.D.D.D.D.D.A.m.&.:.X.                                                                                                                                                                                                                                                                                                                                                                                                                                                                                                                                                                                                                                                                                                                                                                            -.:.p.J.I.I.I.I.U.U.L.'.!.~.'.'.`./.`.`.`.'.'.W.`.'.'.].@XkX@X].'.'.).'.'.W.W././.W.).].'./././.'.].].].].@XkX].kX].tX].].@X'.+X'.~.iX7XdX                                                                                    ",
"                                                                                                            uX<XwXeX).'.tX'.].].].'.].tXZXCX].).`.`.`.].].].'.'.tX]./.).'.'.'.'.'.'.`.`.'.`.`.`.`.`.`.'.W.L.L.P.I.D.D.Y.D.D.M.&.:.-.                                                                                                                                                                                                                                                                                                                                                                                                                                                                                                                                                                                                                                                                                                                                                                                :.-.V.^.I.N.N.N.L.U.W.!.!.`.`.`.`.'.'.'.'.].W.W.`.@X].].].'.'./.`./.`./.U.W.W.`.'.'.'.'.'./.`.].].].].].].CX].kX'.'.].].kX'.kX'.'.rXeXwXaXbX                                                                                ",
"                                                                                                          8X2XeXrX'.'.].kXkX].).'.'.)./.].].].).'././.].].].'.'.'.'.].'.'.'.'.`.`.'.`.'.'.'.'.`.`.`.`.W.W.L.N.D.D.D.I.Q.D.A.&.:.>X                                                                                                                                                                                                                                                                                                                                                                                                                                                                                                                                                                                                                                                                                                                                                                                      X.h.J.U.I.P.U.W.!.!.!.!.`.`.'.@X@XkXkXkX'.`.'.@X@X`.U.L.W.W.W.W./.W.U./.'.'.]./.'.'.].'./.].@X@X@XkX].@X].'.].'.tX].].CXkXW.).'.'.rXeX8XaX                                                                              ",
"                                                                                                        8X7XuXrXrX].[.].].tX].].'.'./././.).`.`.`.W.W.`.].'.'.'.'.'.].].].].'././.'.].'.'.].'.'.`.!.!.!.!.U.P.I.I.Y.Q.Q.D.m.:.:.                                                                                                                                                                                                                                                                                                                                                                                                                                                                                                                                                                                                                                                                                                                                                                                          X.;.J.Y.I.P.I.U.P.W.U.!.@XkX@X@X@X'.'.@X'.'.@X`.W.W.U./.'.`.'.'././.].].'././.`././.'./.].kX].@X@XCX@X]./.).).].tXkXkXtX'.'.).`.'.rXyXuXaXvX                                                                          ",
"                                                                                                      8X7XyXtX].].].].].].].].tX]././.].].'.`./.`.W.U./.`.'.`././././.'.].kX'.`.`.'.'.].'.'.@X@X`.W.W.U.I.P.I.Y.Q.Q.!.J.m.;.,X                                                                                                                                                                                                                                                                                                                                                                                                                                                                                                                                                                                                                                                                                                                                                                                              ;.:.0X^.Q.!.I.I.I.U.!.+X+X@X@X@X'.@X@X'.'.`.`.'.].'.'.kX].'.`.'.'.].].'.W.W.].`./.`.].].kX].@X@X@X@X/.]./.].tXkXtXkXtX).'.].tX'.kXjXjXeXqXaX                                                                        ",
"                                                                                                    8X8XeXkXtX].).].].].].].].'.'././.'.'.'.'.'.'.`.W./.`././.W.W.L.L.U.`.'.`.`.].].@X].'.@XjX+XW.W.I.I.P.I.I.Q.!.!.Q.m.;.,X                                                                                                                                                                                                                                                                                                                                                                                                                                                                                                                                                                                                                                                                                                                                                                                                  V.>XK.^.!.!.!.!.!.!.!.`.'.'.'.'.@X@X'.'.@X@X].@X].'.@X'.'.'./.'.'.].'.W.W./.W.W./.'.'.`.`.'.'.].].].]././.].].].].].].).].].CX].].@XjXeXwXaXNX                                                                    ",
"                                                                                                  pX8XrXkXkX@X[.).).'.].].].].].]./././.).).`.`.`.`.'.'.'.'.'.'.'.W././.`.`.'.].].'.`.W.`.@X@X`.!.!.W.U.U.Q.!..X~.^.K.;.;.                                                                                                                                                                                                                                                                                                                                                                                                                                                                                                                                                                                                                                                                                                                                                                                                      K.-.5XJ..X+X!.!.!.!.!.'.'.@X'.'.+X'.kXZXCXkX@X].'.'.'.'.'.'.'.`.'.`./.W./.W.W.W.].'.`.`.].].].].].].].].].tX].].tXtX).(./.].].].@XkXkXjXhXwXaX                                                                  ",
"                                                                                                pX8XeXtXkXCX@X@X].`.'.].].kX].].].]./.W.)./.W.W.'.].].'.`.'.@XkX'.'.`.].@X@X@X@X@X@X@X@X@X'.!.`.'.!.!.!.!.!.+X!.Q.K.,X5X                                                                                                                                                                                                                                                                                                                                                                                                                                                                                                                                                                                                                                                                                                                                                                                                            >X,XJ.zXoXQ.Y.I.!.!.'.'.'.'.@X'.'.].@XkX@X].].'.'.'.'.'.'./././.`.'./.'.W.'.kX]././.].CX@X@X].tX].].(.].].VXtXtX/.(.].].].].].].@X+XjXeXwXpXvX                                                              ",
"                                                                                            uXpXuXrXtX].kXkX@X].'.`.`.].kX].].'.].]./.W./././.`.'.].].'.'.'.].].'.'.].].-XkX@X@X@X@X].'.'.'.`.!.I.U.W.!.!..X.X^.V.>X5X                                                                                                                                                                                                                                                                                                                                                                                                                                                                                                                                                                                                                                                                                                                                                                                                                5X>X9XJ.Q. X!.!.`.`.'.'.'.].@X`.].kXZXZXZXCXkX].].].@X'.`.W.W.W.'.'.].`.].tX]././.'.].`.'.kXCX].(.].].VXVX].].(.].(.].(.].].].].].].'.rXeXqXaX                                                            ",
"                                                                                          8X8XuXrXtX].].@XkX@X@X].'.].].'.'./.W.'.]./.W.W./.W.W./.`.'.'.'.'.@X'.`.`.@XkX@X@X@X].@X@X@X'.'.`.`.!.W.W.!.!.!.~.^.V.:X0X                                                                                                                                                                                                                                                                                                                                                                                                                                                                                                                                                                                                                                                                                                                                                                                                                      :X,XeX.X#X+X~.!.!.U.I.L.U.U.`.'.@XZXZXCXkX].].].].].`.W./.`.].'.]./.'.].'././.'.].`.].].CX(.(.].[.=X].].].).].].].(.tX].].[./.'.'.'.~.eXwXaXvX                                                        ",
"                                                                                        dX8XeX].tX].[.].].@X].].].].].'.'.'././.].].]././.'.`./.W./.`.'.'.'.'.@X@XkXCXZXZXkX@X'.'.`.`.!.!.W.!.!.`.'.+X~.~.J.V.,X                                                                                                                                                                                                                                                                                                                                                                                                                                                                                                                                                                                                                                                                                                                                                                                                                            ;.>X6XhX~.!.!.!.+X'.@X@X'.@X@X@XZXZXZXCXkX].'.'.@X'./.'.'.].'.'.'.`.].)././.`.`.`.].].].(.(./.(.].].].].].].].].].].].].(.(.(.[.`.`.'.rXeXsXsX                                                      ",
"                                                                                      8X8XeXtX].].].].].].].].].].].].'.'.'././.].kX].'.'.].].`.W.W.`.'.].].@X@XkXCXCXCXCX].W.U.U.L.U.W.I.!.!.!.'.+X+X.X^.5X,X                                                                                                                                                                                                                                                                                                                                                                                                                                                                                                                                                                                                                                                                                                                                                                                                                                  :X5XhX.X X X+X+X+X+X@X@X@X@XCXZXZXkX@XCX].].'.'.`.'.'.'.`.].'./.`.'.'.'.'./.[.[./.].].{.].].(.VX_.(.].].].].CXVXVX].].(.(.[.].].].].rXyXwXaXbX                                                  ",
"                                                                                  uX7XiXyXtX].].].].].].].].[.].[.].].'.'.'./././.].'.).'.].'.'././.'.'.].kXCXZXZXZXCXCX@X].`.'.@X+X'.'.'.!.!.!.'.+X~.K.,X5X                                                                                                                                                                                                                                                                                                                                                                                                                                                                                                                                                                                                                                                                                                                                                                                                                                      ;.1X0XgX#X+X+X+X+X@X@X+X'.`.].@X@X@XkXCXkX@X'.].`.'.`.`.'.'.W.].].'.@X'.].]./.].]./.(.tX].VX].(.VX].].].].].VXVX].].].].CXCXCX].].].kXjXeX7XsX                                                ",
"                                                                                uXdXeXrXtX].].].].].].].tX].[.[.[.].].]./.)./././.).).'.'.'.].].'.`.`.`.].@X@X@XCXCXCX@X@X@X@X@X`.`.+X`.`.!.`.+X+X~.K.,X9X                                                                                                                                                                                                                                                                                                                                                                                                                                                                                                                                                                                                                                                                                                                                                                                                                                          5X<X0X.X#X#X$X$X$X+X@XkXkXCXCXCX@X@X@X@X'.'.'.`.`.`.W.'.@X`.].[.`.].[.].[.(.(.(./.].].tX]._.=X=XVXVXtXtX].].].[.].].].].].].].].].].+XjXeX8XsX                                              ",
"                                                                              wX7XiX).].].VXVX].].[.].].].]././.(.(.].].).).'.'./.'.).'.'.`./.].'.'.'.'.].kXCX@X@X@X@X'.'.'.@X@X@X@X+X$X$X+X+X+X~.K.,X0X                                                                                                                                                                                                                                                                                                                                                                                                                                                                                                                                                                                                                                                                                                                                                                                                                                                >X9XhXjX+X+X+X+X+XkXkX].'.].kXkXkX].].].'.].@X].`.'.@X@X].'.`./.].]./.].(.(.(.[.CXVXCX=X_.].SXCX].].VXtX].(.].]./.(.].].].].].].@XkXjXrXiX7XvX                                          ",
"                                                                            8X8XeX).).].].].tXtX].].].].VX].].).(.]./.].].).[.[.].].[.'.].[.`.'.].].].].].@XCXZXZX@X@XkXkX@X+X+X+X@X+X+X+X+X+X~.J.1X0X                                                                                                                                                                                                                                                                                                                                                                                                                                                                                                                                                                                                                                                                                                                                                                                                                                                    2X5XhX+X`.'.'.].kX@X@X@X'.@XCX@X].@X@X@X@X@X@X'.'.+X@X@X`.'./././.(.(./.[.].].].(.]./.VXVXCXVX].].].(.].].].].(.(.(.].].].].].kXCXkXkXrXeX8XuX                                        ",
"                                                                          7XuXrXtX].].].tX].tXtX].tX].].].].].].[./.@X/.].[.'.'.[.].[.'.[.[.[.[.].].].].].].kXkXkX@X@X@XCXkX+X+X+X+X+X+X+X'.~.K.,X0X                                                                                                                                                                                                                                                                                                                                                                                                                                                                                                                                                                                                                                                                                                                                                                                                                                                        V.7XeXjX+X+X'.'.@X@XZXkX@X@XCXCXZXkXCXCX].`.`.W.U.`.`.].@X`./.[.(./././.].[.(.(.{.].CXVX=XVXVX].].(._._._.(.(._.].=X].].=X=XtXCXkX].tXtXcX8XaX                                      ",
"                                                                      iXpXiXyXtX].].].].].tX].].].].].].[.(.].[.].(./.[./.[./.'.'.'.].].).'.'.'.].].].].].].@X@X@X@X'.].@X@X+X'.'.+X+XxX+X~.J.5X0X                                                                                                                                                                                                                                                                                                                                                                                                                                                                                                                                                                                                                                                                                                                                                                                                                                                            6X<XeXjX+X@X`.`.'.@XkX@X@X@X@XkXkX-X@X@X@X'.`.'.`.@X@X].`.[.[././.[.[.[.(.(.{.].=X].VX=X=X_.(._.]._._.]._.].].].=XVXVXVXVX].CXCX].tXtXkXrX0X7X                                    ",
"                                                                    uX8XeX'.].tX].].].].].(.].CXCXCX]./.(.].].].).(./././././.).).).].].'.].'.'.].].].@X@XkXkX@X@XZXZX@X].'.`.'.+X+X+X+X+XJ.1XeX                                                                                                                                                                                                                                                                                                                                                                                                                                                                                                                                                                                                                                                                                                                                                                                                                                                                  ,X6XhX+X+X@X@X@X@X@X@X@XkX@X@X@X@X@X@X@X].].@X@X`.@X/.[.{.[.-X(.].(.].(._.VX=XVX].VX_._.=XVX=X_.=X].=X].].].].VXVXCXCXVXCXCX].].].].].tXeX7XNX                                ",
"                                                                  8XwXeXtX].].tX].(.].].].].].VXCXCXVX].(.].].(.[.(./././.)././.].'.`./.{.{./.'.].].].].@X@X@X@X@XkXCX@X'.'.'.+X+X+X+X~.^.7X0X                                                                                                                                                                                                                                                                                                                                                                                                                                                                                                                                                                                                                                                                                                                                                                                                                                                                      ,X5XeX+X@X@X'.'.@XkX@X@X@X@X@X].`././.[.@X@X].[.[.].[.{.].].{.].].(.[.CXVXVX=XVX(.(._.=X=X].=XtX].].=X].].].=XtXCXCXVXVXCXVX].].].].].rXeX8XwX                              ",
"                                                              uXpXuXtXCXVXVXVX].].].].=X].].].=XVXCXVXVX]./.(./.[.].(.(././././.[.].].'.[.'.).[.].@X].@X].].@X@X@XkX@X].'.'.+XkX+X+X~.0X7XhX                                                                                                                                                                                                                                                                                                                                                                                                                                                                                                                                                                                                                                                                                                                                                                                                                                                                          V.2XeXgX'.`.'.'.@X@X@X@X].@X@X`.`.[.].kX].].].@X]./.@X`./.(.[.[.].].=XVX].VX_.(._.].=X].].].].].].].].].].].tX].VXVX=XVXVXVXVX[.).(.[.@XrXwXaX                            ",
"                                                            8X8XuXrXCXCXCXVX=X].].].].=X].].(.].=X=X=XVXCX]./.tX(.(.].].(././.'./.].].tX].'.`.`.`.].@X@X].].@X@X@X@X@X@X'.+X+X+X+X~.^.qX6X                                                                                                                                                                                                                                                                                                                                                                                                                                                                                                                                                                                                                                                                                                                                                                                                                                                                              6X<X0X+X'.`.`.'.@X@X@X@X@X@X@X@X'./.`.`.-X=X].].].@X/.].].[.].].].].(.=X].(._.].=X].].].].].].]._._.(._.].].(.].VXVX=X=X].].(.(.[.].@XkXlXuX8XNX                        ",
"                                                          pXwXrXtXVXCXCXVXVXVX].=X=X=X=X].].(.(.].].=X=XCXCXCX].[.[.(.(././.).).].].].].].'.`././.`.].].].].@X@X@X'.].].'.+X+X~.~.0X7X0X                                                                                                                                                                                                                                                                                                                                                                                                                                                                                                                                                                                                                                                                                                                                                                                                                                                                                    <X6XeX'.'.@X@X@X@X@X@X@X@X@X@X].`.@X].].@X].[.`.].].].[.].].=X].=X]._.].=X].].].].].].].]._.].(.(.].].].].].VXVX=X].(.(.(.(.[.=XCXCX-XkXyXuXpXuX                    ",
"                                                      uX7XuXrXtXtXCXVXVXVX=X=X=X=X=X=X=X=X=X=X].].].].].VXCXVX].[.[.].(.[.(./.[.].].].].].]./.`.[.].].].].].@X@X'.`.`.].+XjX+X~.^.5X6X                                                                                                                                                                                                                                                                                                                                                                                                                                                                                                                                                                                                                                                                                                                                                                                                                                                                                        >X6XgXjX@XkXkXkXkXkXCXCXCX@X[.].].].].-X@X].].@X].].].].=X].].].].].VX=X].].].].].].].].].(.(._.].].].]._.].].].].].(.(._.(.=X].=X=X].tXcXuXwXsX                  ",
"                                                    8X8XeX].].].VXVXVXVX=X=X=X].].=X=X].=X].].].].].].].].].].].[.(.].[.(././.[.].].].].].'.[.].CXCXCX@XCXkX@X@X].`.`.].+X'.rX0X7X0X                                                                                                                                                                                                                                                                                                                                                                                                                                                                                                                                                                                                                                                                                                                                                                                                                                                                                            5X7XeXrXkX@X@X@X@X@XCX@X@X@X@X@X-X].-X].].[.].].].].].].].].].].].VXVX=X].].]._.].].].].].]._.(.].].].].].].=X].].(.=X=X_._._.=XVX=X=X-XCXkXvX8XwX              ",
"                                                uX7X8XeXrX].=X=XVXVXVXVXVX=X].]._._.].].]._.].].].=X].].].].].].].].[.].[././.[.[.].].].].[.].].CXCXCX@XkXCX@X].@X].@X+X'.~.0X7XuX                                                                                                                                                                                                                                                                                                                                                                                                                                                                                                                                                                                                                                                                                                                                                                                                                                                                                                0X2X0XlXxXxX@X@X@X@X@X@XCX@X].].CX@X-X-X].CXZXZX].=X].(.].].-XVXCXVX].].].]._.].]._._._._.(.(.(._.].].].].=X=X].(.].=X=X=X=XCXCX=X].].CXCXkXlXuXsXuX          ",
"                                              8X8XeXrX].[.].=X=X=X=X=X=X=X].]._._.]._._.].].].].].].=X].].].].].].(.[.].].].[.[.].].].].].[.].].-XCXCX@X@X].].@X@X@X+X`.^.6X1XhX                                                                                                                                                                                                                                                                                                                                                                                                                                                                                                                                                                                                                                                                                                                                                                                                                                                                                                      5X5XiXjXxXxX@X@X@X-X@X@X-X@XZX@X-X-X].CXSXZX=X=X=X].].=XCXCXCX].].].(.(.(.(._._._._.(.(._.]._.].].].].].=X].(.].=XVXVXVX=XCX].[.[.].-XCXCXkXyXuXaXNX      ",
"                                            8XwXyXtX].]._.].].=X=X=X=X].]._._._._._._.].].]._.(.].VXVXVX].].].].].].].=XVXVX].].].].=X].].].].@X@X@X].@XkX@X].kX@X+X+X^.6X7X                                                                                                                                                                                                                                                                                                                                                                                                                                                                                                                                                                                                                                                                                                                                                                                                                                                                                                            6X<XeXjX+X'.].@X@X@X@X].].-X-X@X].`.[.CX].=XCXVXVX].=XVXCXCX].].]._.(./.(.].]._._._.].].=X].].].].].].=X]._.(.].=XCXCXVXVX].].].].].].@XkXkXlXuXwXdXcX  ",
"                                        uXaXuXkXkX=X].].].].=X=X=X=X=X=X_._._._.=X_.].].].]._.(.].VXVXVX].].].].].].].VXCXVXCX].].].].].].].].@X].CX-X].CXZXkX@X+X~.eX9X6X                                                                                                                                                                                                                                                                                                                                                                                                                                                                                                                                                                                                                                                                                                                                                                                                                                                                                                                  5X8XvXjX@X`.`.`.@XCXCXCX@X@X@X[.].CXCXCXCXVX=XVXVXVXCXCX].].=X].(.(.(.(.].].].].].].].].[.].].].=X=X].(._.=X=X=XVX=X=X=X].].].].].].].].kXkXkXyXsXbX",
"                                      wX8XyXkXCXCX=X=X=X].].].].].].].]._._._._._._._.].].].].].].=XVXCXCX=X].].].=X=XCXCXCXVX].].=X=X=X].].].-X-X].].].kXCXkXjX+XJ.5X0X                                                                                                                                                                                                                                                                                                                                                                                                                                                                                                                                                                                                                                                                                                                                                                                                                                                                                                                      5X,XeXjX@X'.].@X@X@XCX-X@X@X@X-XCXCXCXCXVXVXVXCXCXVX=X].].]._.(.(.(.].].].].].=X]._.].(.(.].=X=X=X_.(.=X=X=XVXVXVXVX=X(.].].].].].].].].tXCXcXlXbX",
"                                  BXpXuXlXkXCXCXCXCX=X=X].].].].].].].]._._._.]._._.=X].].].].].].=X=X=XCXVXVXVXVXCX=XCX].(./.].].].=X=X].].].].].].].].].kX@XkXgX9XhX                                                                                                                                                                                                                                                                                                                                                                                                                                                                                                                                                                                                                                                                                                                                                                                                                                                                                                                            5XeXjX@X@XkX@XCXCXCX@X@XCXZXZXCXCXCXVXVXVXVXCX].].(.(._._.(.(.(.].].].].=X].]._._.(.(.].].=X]._.(.=X=XVXVXVXCXCX].].].].].].].].].].tXCXkXCXkX",
"                                sXaXuXlXkXCXCXCX-X-X=X=X=X=X].].].].].].]._.].=X_._.].].].].].].].=X].=XVXCXCXCXVX].VX=XCX].].].].=X=X-X@X@X-X@X`.`.].].kXkX@XrX0XxX                                                                                                                                                                                                                                                                                                                                                                                                                                                                                                                                                                                                                                                                                                                                                                                                                                                                                                                                ^.eX+X@X@X@X@XCXCX-XCXCXCXCXCXCXCXVXVX=X].(.].].]._._._./.(.(.].].].].=X=X].(.(.(.(.].=X=X]._.(.=X=XVXVXCXCXCX].[.].].].].].=XVXVXCXVXtXtXtX"
};
