/* XPM */
static char *bd0e6efa65164c94db0ba4edae7634c2CyTtrg2iQtQjKbcN[] = {
/* columns rows colors chars-per-pixel */
"250 250 209 2 ",
"   c None",
".  c #050405",
"X  c #060608",
"o  c #080708",
"O  c #0B0B0C",
"+  c #090808",
"@  c #100F0B",
"#  c #12110E",
"$  c #1A140F",
"%  c #0D0E11",
"&  c #0E1114",
"*  c #0F1419",
"=  c #151512",
"-  c #191612",
";  c #171814",
":  c #1A1A15",
">  c #131619",
",  c #15191D",
"<  c #1C1D1A",
"1  c #0F100D",
"2  c #211E1A",
"3  c #251D17",
"4  c #1F201C",
"5  c #22221D",
"6  c #2A241D",
"7  c #37261D",
"8  c #161C21",
"9  c #1A1E22",
"0  c #1D2125",
"q  c #1D2429",
"w  c #242522",
"e  c #292721",
"r  c #262923",
"t  c #2B2B25",
"y  c #232629",
"u  c #25292C",
"i  c #2C2E2A",
"p  c #2E272B",
"a  c #312D26",
"s  c #3C2B23",
"d  c #302F28",
"f  c #362924",
"g  c #2E312A",
"h  c #2F3027",
"j  c #33332C",
"k  c #39362E",
"l  c #39382F",
"z  c #37372E",
"x  c #252B31",
"c  c #2B2E31",
"v  c #2D3134",
"b  c #2F3438",
"n  c #343632",
"m  c #383730",
"M  c #363932",
"N  c #3B3C34",
"B  c #333639",
"V  c #36393C",
"C  c #3B3D3A",
"Z  c #382F34",
"A  c #432D23",
"S  c #412A2F",
"D  c #473026",
"F  c #493126",
"G  c #4C3429",
"H  c #46352C",
"J  c #50372B",
"K  c #53392E",
"L  c #583C2F",
"P  c #413E35",
"I  c #4C3B33",
"U  c #413F38",
"Y  c #543D32",
"T  c #5A3E32",
"R  c #4C2D33",
"E  c #3D4037",
"W  c #3E413A",
"Q  c #404037",
"!  c #42443C",
"~  c #4A453D",
"^  c #45483F",
"/  c #4A493F",
"(  c #5D4134",
")  c #5B453B",
"_  c #5E493E",
"`  c #564238",
"'  c #634639",
"]  c #63493D",
"[  c #6B4C3E",
"{  c #624537",
"}  c #71503F",
"|  c #3B3E41",
" . c #363C42",
".. c #3E4145",
"X. c #3E444A",
"o. c #424543",
"O. c #454941",
"+. c #4A4C44",
"@. c #424649",
"#. c #454A4D",
"$. c #494D4D",
"%. c #524E44",
"&. c #5B4D43",
"*. c #4D5047",
"=. c #4E5149",
"-. c #535145",
";. c #52544B",
":. c #58574E",
">. c #4A4E52",
",. c #454C51",
"<. c #4D5155",
"1. c #4E545A",
"2. c #4A545A",
"3. c #515456",
"4. c #51565A",
"5. c #54595D",
"6. c #585B59",
"7. c #644D42",
"8. c #6B4E41",
"9. c #714F42",
"0. c #6A5246",
"q. c #6D5449",
"w. c #685246",
"e. c #745243",
"r. c #7A5646",
"t. c #7B5847",
"y. c #745A4D",
"u. c #7D5B4A",
"i. c #745749",
"p. c #795E51",
"a. c #7D6154",
"s. c #79665A",
"d. c #6D6053",
"f. c #555C62",
"g. c #5A5E61",
"h. c #525F68",
"j. c #5C6265",
"k. c #5B6469",
"l. c #5E6B73",
"z. c #62676B",
"x. c #646D73",
"c. c #696E72",
"v. c #616E78",
"b. c #6C7176",
"n. c #6E747A",
"m. c #64727C",
"M. c #71777B",
"N. c #73797D",
"B. c #7B7F7F",
"V. c #825D4C",
"C. c #85614E",
"Z. c #856353",
"A. c #8A6552",
"S. c #8D6955",
"D. c #85695B",
"F. c #8C6B5B",
"G. c #826659",
"H. c #916A56",
"J. c #946C5A",
"K. c #996E5D",
"L. c #94705E",
"P. c #9B715E",
"I. c #8F705F",
"U. c #8C6E60",
"Y. c #8E7161",
"T. c #877464",
"R. c #947463",
"E. c #9C7462",
"W. c #9D7966",
"Q. c #9C7B6B",
"!. c #977869",
"~. c #906F60",
"^. c #A17663",
"/. c #A37A66",
"(. c #A47D6A",
"). c #AA7E6B",
"_. c #A5816D",
"`. c #AB826E",
"'. c #B1856F",
"]. c #A58372",
"[. c #AC8572",
"{. c #AD8976",
"}. c #AE8B78",
"|. c #B28671",
" X c #B48A75",
".X c #B38D7A",
"XX c #BA8E7A",
"oX c #B6917D",
"OX c #BC927D",
"+X c #C1947E",
"@X c #C2987F",
"#X c #757C82",
"$X c #777F8B",
"%X c #6A7A85",
"&X c #7A838A",
"*X c #7A8995",
"=X c #868E95",
"-X c #BC9581",
";X c #BF9883",
":X c #8A94A1",
">X c #C19581",
",X c #C49A85",
"<X c #CB9C86",
"1X c #C69E88",
"2X c #CD9E88",
"3X c #D09F87",
"4X c #CFA088",
"5X c #CFA087",
"6X c #D0A189",
/* pixels */
"                                                                                                                                                                                                                                                                                                                                                                                                                                                                                                                    ",
"                                                                                                                                                                                                                                                                                                                                                                                                                                                                                                                    ",
"                                                                                                                                                                                                                                                                                                                                                                                                                                                                                                                    ",
"                                                                                                                                                                                                                                                                                                                                                                                                                                                                                                                    ",
"                                                                                                                                                                                                                                                                                                                                                                                                                                                                                                                    ",
"                                                                                                                                                                                                                                                                                                                                                                                                                                                                                                                    ",
"                                                                                                                                                                                                                                                                                                                                                                                                                                                                                                                    ",
"                                                                                                                                                                                                                                                                                                                                                                                                                                                                                                                    ",
"                                                                                                                                                                                                                                                                                                                                                                                                                                                                                                                    ",
"                                                                                                                                                                                                                                                                                                                                                                                                                                                                                                                    ",
"                                                                                                                                                                                                                                                                                                                                                                                                                                                                                                                    ",
"                                                                                                                                                                                                                                                                                                                                                                                                                                                                                                                    ",
"                                                                                                                                                                                                                                                                                                                                                                                                                                                                                                                    ",
"                                                                                                                                                                                                                                                                                                                                                                                                                                                                                                                    ",
"                                                                                                                                                                                                                                                                                                                                                                                                                                                                                                                    ",
"                                                                                                                                                                                                                                                                                                                                                                                                                                                                                                                    ",
"                                                                                                                                                                                                                                                                                                                                                                                                                                                                                                                    ",
"                                                                                                                                                                                                                                                                                                                                                                                                                                                                                                                    ",
"                                                                                                                                                                                                                                                                                                                                                                                                                                                                                                                    ",
"                                                                                                                                                                                                                                                                                                                                                                                                                                                                                                                    ",
"                                                                                                                                                                                                                                                                                                                                                                                                                                                                                                                    ",
"                                                                                                                                                                                                                                                                                                                                                                                                                                                                                                                    ",
"                                                                                                                                                                                                                                                                                                                                                                                                                                                                                                                    ",
"                                                                                                                                                                                                                                                                                                                                                                                                                                                                                                                    ",
"                                                                                                                                                                                                                                                                                                                                                                                                                                                                                                                    ",
"                                                                                                                                                                                                                                                                                                                                                                                                                                                                                                                    ",
"                                                                                                                                                                                                                                                                                                                                                                                                                                                                                                                    ",
"                                                                                                                                                                                                                                                                                                                                                                                                                                                                                                                    ",
"                                                                                                                                                                                                                                                                                                                                                                                                                                                                                                                    ",
"                                                                                                                                                                                                                                                                                                                                                                                                                                                                                                                    ",
"                                                                                                                                                                                                                                                                                                                                                                                                                                                                                                                    ",
"                                                                                                                                                                                                                                                                                                                                                                                                                                                                                                                    ",
"                                                                                                                                                                                                                                                                                                                                                                                                                                                                                                                    ",
"                                                                                                                                                                                                                                                                                                                                                                                                                                                                                                                    ",
"                                                                                                                                                                                                                                                                                                                                                                                                                                                                                                                    ",
"                                                                                                                                                                                                                                                                                                                                                                                                                                                                                                                    ",
"                                                                                                                                                                                                                                                                                                                                                                                                                                                                                                                    ",
"                                                                                                                                                                                                                                                                                                                                                                                                                                                                                                                    ",
"                                                                                                                                                                                                                                                                                                                                                                                                                                                                                                                    ",
"                                                                                                                                                                                                                                                                                                                                                                                                                                                                                                                    ",
"                                                                                                                                                                                                                                                                                                                                                                                                                                                                                                                    ",
"                                                                                                                                                                                                                                                                                                                                                                                                                                                                                                                    ",
"                                                                                                                                                                                                                                                                                                                                                                                                                                                                                                                    ",
"                                                                                                                                                                                                                                                                                                                                                                                                                                                                                                                    ",
"                                                                                                                                                                                                                                                                                                                                                                                                                                                                                                                    ",
"                                                                                                                                                                                                                                                                                                                                                                                                                                                                                                                    ",
"                                                                                                                                                                                                                                                                                                                                                                                                                                                                                                                    ",
"                                                                                                                                                                                                                                                                                                                                                                                                                                                                                                                    ",
"                                                                                                                                                                                                                                                                                                                                                                                                                                                                                                                    ",
"                                                                                                                                                                                                                                                                                                                                                                                                                                                                                                                    ",
"                                                                                                                                                                                                                                                                                                                                                                                                                                                                                                                    ",
"                                                                                                                                                                                                                                                                                                                                                                                                                                                                                                                    ",
"                                                                                                                                                                                                                                                                      | B.$.                                                                                                                                                                                                                                        ",
"                                                                                                                                                                                                                                                                      y ..c                                                                                                                                                                                                                                         ",
"                                                                                                                                                                                                                                                                      , > ,                                                                                                                                                                                                                                         ",
"                                                                                                                                                                                                                                                                      > = >                                                                                                                                                                                                                                         ",
"                                                                                                                                                                                                                                                                    V , = >                                                                                                                                                                                                                                         ",
"                                                                                                                                                                                                                                                                >.1.#.i 9 < u v                                                                                                                                                                                                                                     ",
"                                                                                                                                                                                                                                                              v @...X...| v w w w B                                                                                                                                                                                                                                 ",
"                                                                                                                                                                                                                                                              B .. .V V V n u y y B z.c.                                                                                                                                                                                                                            ",
"                                                                                                                                                                                                                                                  #.5.b.N.M.b.j.5.1.<.>.$.$.>.>.<.4.c.b.n.N.#X                                                                                                                                                                                                                      ",
"                                                                                                                                                                                                                                                >.$.$.3.c.#XN.M.n.b.z.j.j.j.z.c.b.b.M.M.N.N.#X#XN.              j.5.#.X.V         B | #.X.@...                                                                                                                                                                      ",
"                                                                                                                                                                                                                                                <.3.4.3.4.c.#X#XN.N.b.c.c.c.b.M.N.M.M.N.N.N.N.N.M.N.N.          C < w j.C ,       C u c z.C , w                                                                                                                                                                     ",
"                                                                                                                                                                                                                                              <.>.<.4.4.5.g.z.N.#XM.n.b.b.b.n.M.N.N.N.N.N.M.N.M.n.M.M.M.n.M.    V > w $.M 0       @.v c $.! > <                                                                                                                                                                     ",
"                                                                                                                                                                                                                                              #.>.>.>.4.5.g.j.z.n.=X#Xc.c.c.c.c.b.c.c.c.c.c.c.c.b.c.b.b.b.b.n.4.B > > > , y 3.    >.V , > = = :                                                                                                                                                                     ",
"                                                                                                                                                                                                                                              @.@.$.>.<.4.g.g.k.j.j.@.y q q 0 0 0 w y y y u u u u u u u c | j.<.n > > > , w >.5.5.<..., = = = ,                                                                                                                                                                     ",
"                                                                                                                                                                                                                                              @.@.@.#.<.4.5.5.5.5...8 > >.5.>.>.<.<.>.>.>.>.>.>.>.>.$.>.>.1.g.<.n > > > , , u c c v i , = = = ,                                                                                                                                                                     ",
"                                                                                                                                                                                                                                              @.@.@.@.#.4.5.5.4.3.c , B =X=X&Xn.b.b.b.c.b.b.b.c.b.c.4.#...4.<.#.B 9 < < , , < < < < 9 < , , , <                                                                                                                                                                     ",
"                                                                                                                                                                                                                                              @.@.@.@.@.#.<.5.5.5.B i >.f.z.b.#X#Xb.b.b.b.b.b.b.b.z.#.c w ......V v c c y w w w w y u u u u y y                                                                                                                                                                     ",
"                                                                                                                                                                                                                                              @.@.@.@.@.@.,.<.4.5.@.| | 4.g.j.z.#X#Xb.b.b.b.b.b.b.4.o.q 9 V B >.1.@.X.......@.#.@.......| | | ..<.                                                                                                                                                                  ",
"                                                                                                                                                                                                                                              o.@.o.@.@.@.@.@.@.<.5.f.4.g.5.g.j.z.c.&X#Xb.n.n.n.g.#.B , 9 c B ..| 9 9 9 9 9 q q q q q 9 9 8 , , , 9 9 9                                                                                                                                                             ",
"                                                                                                                                                                                                                                              o.o...@.@.@.@.@.@.@.$.f.5.5.5.g.j.j.z.z.b.&XN.b.c.4.| y < 9 w B | u > & & = = = > > > > = = = = = = > > > 9                                                                                                                                                           ",
"                                                                                                                                                                                                                                              o.....@.@.@.@.@.@...@.#.#.<.3.g.g.j.j.j.j.x.=X&Xb.z.4.| V v y B | w , > , , , , 8 , , , , , , , , , > > , 9                                                                                                                                                           ",
"                                                                                                                                                                                                                                              o.....@.@.@.@.@.......#.@.@.#.>.3.5.5.j.z.k.x.#X&Xb.j.5.<.$.| B V 9 9 0 9 9 q q 9 9 9 9 9 9 9 9 9 9 9 9 9 9                                                                                                                                                           ",
"                                                                                                                                                                                                                                              o.....@.@.#.@.@.@...#.5.$.#.>.$.>.<.3.5.g.g.k.c.M.&X#Xk.4.<...B c 8 y q q y y y y y q q q w y y w w y y y w c 5.                                                                                                                                                      ",
"                                                                                                                                                                                                                                              ......@.@.#.#.#.@.@.<.4.<.>.<.<.<.3.5.5.g.g.j.z.c.M.&X:Xb.5.<.#.B v v B B B B B B B B v n n n v n B B B B B V <.<.4.                                                                                                                                                  ",
"                                                                                                                                                                                                                                            @.o.| ..@...#.#.#.@.@.<.<.4.3.<.<.3.5.5.5.g.j.z.c.c.c.b.&X5.V B B v u i u u u y y y r u u u u y w u u u c c c c v B V @.                                                                                                                                                ",
"                                                                                                                                                                                                                                            <.#.........#.#.#.@...@.#.<.4.3.4.4.5.5.5.5.5.g.j.j.z.c.1.y w w w w w w w u w < , , ; ; , , > > : : , 0 u y y u w u u y n                                                                                                                                               ",
"                                                                                                                                                                                                                                            5.<.@.......#.#.#.#.@.....@.>.>.>.#.#.$.$.<.<.5.5.5.j.f.c y y y u y y y c w X . . . . . X X X X X X X X O u u w w u u y u v                                                                                                                                             ",
"                                                                                                                                                                                                                                            #.<.>.@.....o.@.#.#.@...| ..@.o.| @.@.#.#.$.<.3.4.5.z.B u y y y u y r u y + X X X X X X X X X X X X X X + = u w w y u y u u i                                                                                                                                           ",
"                                                                                                                                                                                                                                            @.#.<.#.@.......@.#.@...| | C V V | @.#.#.$.>.<.3.5.>.u u u u u r w w r < X X X X X X X X X X X X X X X + + w y w w y y u u t                                                                                                                                           ",
"                                                                                                                                                                                                                                            ..@.>.<.#.@.......@.@.| | | V n v V | @.$.#.#.>.<.<.c u y u u u r w w w : X X X o o o o o + + o X X X X + o 0 r r w w y u i i c                                                                                                                                         ",
"                                                                                                                                                                                                                                            | ..@.,.<.#.@...| ..o.| | | V n v B V | @.#.#.>.>.B y u y w r y y y w w , X X o + + + + + + + o o X X X O X : 0 w y y u x x u u                                                                                                                                         ",
"                                                                                                                                                                                                                                            | | ..@.<.<.#.o.....| | | C V B B B v V V @.$.>.@.c u u y w w y y y w q > o o + o + + + + + + + o o X X + X ; r w y y u x c u u c                                                                                                                                       ",
"                                                                                                                                                                                                                                            o.C ....@.<.<.@.@.| | | C C V B B v B v v V $.>.B y u u u y y y y y w q , o + O + O + + + + O O + o X X + X ; u u y y u u u u c u B                                                                                                                                     ",
"                                                                                                                                                                                                                                              ..| | ..@.>.#.@...| | C C V V B v c c u C <.>.c y y y u r w y w y y w , + + O O O O + + O O O + + X X + X = y y u u y u u u c u c ..                                                                                                                                  ",
"                                                                                                                                                                                                                                                | C ....o.$.#.@.| | C V B B n v c u u V ..@.c y y y u y y y w w w q , + + O O = , , = O O O + X X X o X O w q w w w u u c c u i |                                                                                                                                   ",
"                                                                                                                                                                                                                                                  C | ....@.#.@...C C V B B v v c u u n V ..c y y y u y u y w w w 9 , O + O % < u u y , O + o X X X o X + q q w w w u i c c c u |                                                                                                                                   ",
"                                                                                                                                                                                                                                                  ..| | | | @.#.o.| C C B n v c u y i B V | c y u u u u y y w w w 9 , O + O = w v B v 9 % O o X X o + X + 9 0 0 0 w y i v B c c ..                                                                                                                                  ",
"                                                                                                                                                                                                                                                    ..| | C | @.@.| C C B n v c u u c n V C i u y y u y y y w w 9 < , O O O = q v B i , % O + o o X + X X , 9 0 q w u u i c u u C                                                                                                                                   ",
"                                                                                                                                                                                                                                                      | C C C | | C  .V B B v x u c i B V V u y y y u u y w q 0 9 : > + + O % , y u 9 = % O + + + o + X X , 9 9 q 0 w y u u u u B                                                                                                                                   ",
"                                                                                                                                                                                                                                                    @.V C C C | | |  .C B B B u u c u v V V u w y y u y w w 9 0 9 : , O + O O % > > = O O O O O + + O X X > , < 9 9 w w y w y y B                                                                                                                                   ",
"                                                                                                                                                                                                                                                    ....C V C C C C C C B B v x x c u c V B u y y y y y q q 9 9 < : , O O O O O O O O O % % O O + + O X X = , < < 9 9 w w w w y v                                                                                                                                   ",
"                                                                                                                                                                                                                                                    C | ..C C C C | C C B B v i c c u u V V c u y y y y q q 9 9 9 : > O O O O O & % % % O O O O + + O X X & , < 9 q 0 w y w w y v C                                                                                                                                 ",
"                                                                                                                                                                                                                                                       .X...C C C C C C B B v i c v u u B B u y y w w w q q 9 9 < , > % O O O % = % % % % % % % O O % O + & , < < q 0 w y y y u c C                                                                                                                                 ",
"                                                                                                                                                                                                                                                      C | @.| C V C | C B B B i v n u c B B u q y w w w 9 9 9 9 , > > & O O O u , , , , 9 9 9 9 9 q q 9 q & > , < 9 0 0 y y y y c C                                                                                                                                 ",
"                                                                                                                                                                                                                                                        C @...V V C C C B B B c B v y c B B u w y w y y 9 9 9 9 , > = % O O = | , < < 9 9 9 9 9 q q q q y & > , < < 9 0 q w y y c V                                                                                                                                 ",
"                                                                                                                                                                                                                                                          @...C V V C C B B v c v c u c V B u w q y y w 9 9 9 9 , > = % O O , | , , , 9 9 9 9 9 q q q y y = > , < < 9 9 9 w y y c B                                                                                                                                 ",
"                                                                                                                                                                                                                                                          #...| V V C C B B v u c u u v V B y y y y y y q 9 9 9 , , , & O % w | , , 9 9 8 9 9 9 0 q y y y > > , < < 0 w 9 w y y u B                                                                                                                                 ",
"                                                                                                                                                                                                                                                          #...| ....C C B B v u c c u v V B y q w w w q q 9 9 9 , > > & O = r V 9 9 9 9 9 9 9 9 0 0 q y y , > , , < 9 9 9 q w w u B                                                                                                                                 ",
"                                                                                                                                                                                                                                                          #.....@...| V B B c u v c c u V B u q q y w q q 9 < , > = = & O < w B 9 9 9 9 < 9 9 9 9 0 q q q , = , , , < 9 0 q q w y n                                                                                                                                 ",
"                                                                                                                                                                                                                                                          @.......V @.C V B c u v n c u V B y q q q q q 9 < , > > = = % % 0 w n 9 , , , , < < < 9 9 9 q q , = > > , , , , < 9 w y v                                                                                                                                 ",
"                                                                                                                                                                                                                                                          @.....| B ..<.V n c u B v c u V B y q q q q 9 , : , ; = = = & ; w 0 v q , , , , : , < 9 0 9 0 q , % & = > , , , , < q y v                                                                                                                                 ",
"                                                                                                                                                                                                                                                          @.| | V B 1.f.#.B u u B v c u B n y q q q v y < < , = = % % = < w 9 i q , , , , , : < 9 9 9 9 0 , O % % = > > : < 9 9 w i                                                                                                                                 ",
"                                                                                                                                                                                                                                                            | | | <.k.k.f...u y v v c u V n y q q 9 i > & O X X X X X + % < , y q , , , , , , < 9 9 9 9 0 > X + O , 9 0 ; % 9 9 w u                                                                                                                                 ",
"                                                                                                                                                                                                                                                            ....5.j.k.x.b.j.v y v v c i C n y w q q u > & + X X X X X X + < , w q , , , , 8 8 8 9 9 9 9 9 , X + & < 0 w ; = 9 9 w i                                                                                                                                 ",
"                                                                                                                                                                                                                                                              1.k.f.k.b.*X=Xf.u v v u c B n y y q 9 w ; & O O O O O X X X : : 9 0 , , , , , , , , 8 8 8 8 , + + & < w y , O 9 9 w u                                                                                                                                 ",
"                                                                                                                                                                                                                                                                5.g.k.x.&X*Xx.c n v u i B v y y q q q > > & % % % % + X X ; , : 0 , , , , , , , , , , , 8 < O O & < w y < = , 9 w u                                                                                                                                 ",
"                                                                                                                                                                                                                                                                ,.f.k.v.%Xm.1.c c c u i B v y q 9 9 y > > * & & & % + X X = ; ; 9 , , , , , , , , , , , 9 9 O % = , y u < = > < 0 y                                                                                                                                 ",
"                                                                                                                                                                                                                                                                | 5.v.k.f.1.#.B y y y c n v y q q 9 y : , > > > > & O + X = ; = 9 , , , , > > , , , , , 9 0 & & = , w u 0 = ; < 9 w n                                                                                                                               ",
"                                                                                                                                                                                                                                                                n #.f.X. .V v.l. .y u c n B u y q 9 w : , 8 , , , > & + X O = = 9 y q q 9 9 9 9 9 9 9 9 0 q * & * , w u w = = , 0 w n                                                                                                                               ",
"                                                                                                                                                                                                                                                                  n B v u u k.%Xm.X.u c B B u w y 0 q : 9 9 8 9 9 , = O + O = O < ..V v v v v c c c c c c v y = > , 0 u u = = , 0 w v                                                                                                                               ",
"                                                                                                                                                                                                                                                                  n t r 0 q 2.%X*Xk.u u n v u y q 0 0 , 0 q 9 9 q 9 , = O O = O , | ..B B B v b b b v v v v v , , : 0 y u = = , 9 q i                                                                                                                               ",
"                                                                                                                                                                                                                                                                      r w w X.h.%Xm.c u v v u q 9 0 9 : 0 q 0 0 q q < > % % % + , c | v v c c c c c c x c c v 9 8 < 9 y i = = , 9 0 i                                                                                                                               ",
"                                                                                                                                                                                                                                                                        c B X.2.l.v.| u v v u 9 , 9 9 = 8 0 0 0 0 q 9 , & % O + , y v u u u u u u y u u y u v y 8 8 9 q c w = > 9 w t                                                                                                                               ",
"                                                                                                                                                                                                                                                                          B ..#.2.1.,.u v c y 9 , , , , 0 0 0 9 0 0 0 , = & O + > w c u y u u u y y y y y u c u 0 8 0 y c v , > , < r                                                                                                                               ",
"                                                                                                                                                                                                                                                                          B | ..X.,.1.u c Z e , > > > , 0 q 0 0 0 q 0 , > = O + > w c u u u y y y y y y y u c x 0 0 q q x b , = , 9                                                                                                                                 ",
"                                                                                                                                                                                                                                                                          B |  . .X.k. .c R S , > , , 9 q q 0 0 0 0 9 8 > > % + = w u y y y y q q q q q q q u c q q q q x b i w 0                                                                                                                                   ",
"                                                                                                                                                                                                                                                                          B V V V @.f.,.V R s y w u y u q q 0 0 0 0 9 , , > = + = w x y 9 0 w q 9 9 9 9 0 0 q u u q q y x b V                                                                                                                                       ",
"                                                                                                                                                                                                                                                                          B B B b X.2.X. .S f y y c u x u q 0 0 0 0 9 , , , = O = w u q 9 9 9 9 9 9 9 9 8 8 0 u u u y y u v V |                                                                                                                                     ",
"                                                                                                                                                                                                                                                                          B B v c | X.|  .d p u u v u u x u y q 0 q 9 9 , < , O = q y 9 8 8 , , , < 9 8 8 8 9 u u u y y c v B |                                                                                                                                     ",
"                                                                                                                                                                                                                                                                          V B c c | ,.@.X.V c u u v u x u u x u q 0 9 8 , 9 9 = = q w , , , , , , , , , , , 8 y u u y y i b v C                                                                                                                                     ",
"                                                                                                                                                                                                                                                                          C B f.n.x.j.4.#.X.v q q v u x u u x y q 0 9 8 , 8 0 , % 9 9 > > > > > > > > > > > , w y y y q u v v n                                                                                                                                     ",
"                                                                                                                                                                                                                                                                            B j.$X:X&Xx.f.,.V y q v u x u u u y q 9 9 8 , 8 9 < % 9 , = & = & = = = = = = = = 0 y y q q u v v v O.+.                                                                                                                                ",
"                                                                                                                                                                                                                                                                          :.B B ..z.#Xb.b.k.>.V y v c x u u y q q 9 8 , , 8 , , % < = + + + + + + + + + o + + < q q q q y c v i N =.=.+.                                                                                                                            ",
"                                                                                                                                                                                                                                                                    ,X,XOXs.B u 9 9 c ....1.f.#.v v c c x x y q 0 9 8 , , , , > % > X X X X . . . . . . . X X 9 q 0 0 9 q c v i W ! ;.;.! W !                                                                                                                       ",
"                                                                                                                                                                                                                                                                  1X,XOXoXs.B v i w , w i V f.4.#.b c c x x u q 0 9 8 8 , , , , & O . . . . . . X . X X X X O 9 0 9 8 9 q c v u n m =.;.N C ! N M                                                                                                                   ",
"                                                                                                                                                                                                                                                              1X>XOX XT.:.+.m B c y v B w t V ..>. .v x x x y 0 8 8 , , , , , > * & & & & & & & & & & & = & , 9 9 9 9 9 w c v u t t m / N C C C N j m                                                                                                               ",
"                                                                                                                                                                                                                                                            ;XXX!.s.:.=.+.+.Q m n w u B w 0 u c c x v u u u y q 0 8 8 8 , , , , > * * * * * > , , , , , , , , , 8 8 9 9 w u c y r r r d w r j Q N m m j                                                                                                             ",
"                                                                                                                                                                                                                                                          ].T.d.:.;.=.=.+.O.O.U N t y c w , 9 u u u c y u u q q 0 8 8 , , , , , , > * * > * , , , , , , , , , , , 8 9 9 w u c u t t 6 5 5 5 t m m j j g j                                                                                                           ",
"                                                                                                                                                                                                                                                          d.:.;.;.=.=.=.*.+.O.! m j w c < = ; w w y u q q u y q 8 9 , , , , , , , , , , , , , , 8 8 8 8 , , , , 8 , 9 9 q u c u t t t 5 5 < 5 i j m g i t m                                                                                                         ",
"                                                                                                                                                                                                                                                      :.:.:.;.;.=.=.=.*.+.+.O.O.! C w v > O + = % q y 0 q y y q 8 9 , , , , 8 , , , , , , , 8 8 8 8 8 8 8 8 8 8 8 9 9 9 q u c u r t t e 5 < 5 t r i g g i i j                                                                                                       ",
"                                                                                                                                                                                                                                                :.:.:.:.;.;.;.*.*.*.*.+.+.+.O.O.! ! N i < O X o O y w 9 0 y q 9 8 8 , , , , 8 , 8 8 8 , , , 8 8 8 8 8 8 8 9 8 8 8 9 0 0 q x c u r r t r < < < t t w t g g g i j                                                                                                     ",
"                                                                                                                                                                                                                                                ;.;.;.-.-.*.*.*.*.*.+.+.+.O.O.! ! W W j w O O & , q q , 8 0 0 8 8 , , , , 8 8 8 8 8 8 8 8 8 8 8 0 9 9 0 9 q 8 8 9 0 0 0 q q u y r t t w < : 2 e r w r j j g g j j                                                                                                   ",
"                                                                                                                                                                                                                                                =.*.*.*.*.=.=.=.=.+.+.+.O.O.! ! W W N g < = ; = , 9 q 8 8 8 8 8 8 , , , , 8 8 8 8 8 8 0 8 8 8 0 9 9 0 0 0 0 0 0 0 0 0 0 q q q 0 w t r w 5 - < 5 6 5 4 w i i t i j d                                                                                                 ",
"                                                                                                                                                                                                                                                +.+.*.=.;.=.=.=.+.+.+.O.O.! ! ! W W N M g t w , = , 9 , , , 8 , , , , , 8 8 8 8 8 8 8 9 9 8 8 8 9 8 8 8 0 0 0 0 q q 0 0 0 0 0 0 w t t r r 5 : 5 w 5 w 5 w t t r r i d                                                                                               ",
"                                                                                                                                                                                                                                              +.+.=.;.=.=.=.=.+.+.+.O.O.O.! ! Q W C N N N N M v , , > > > * * * * * * * * > , , > , , , 8 8 8 8 8 , , 8 8 8 8 8 9 9 8 8 8 8 8 8 t j d t t 5 < < 5 4 2 5 w t i i i j j z                                                                                             ",
"                                                                                                                                                                                                                                              +.=.;.=.=.=.+.+.+.+.O.O.O.! ! ! Q ! Q Q C N N M V 9 = O O % & & & & * * & & & & * * * > > > > > * * * * * * * * * > > * * * * > , t d i t t r 5 : < < 4 5 5 w i g j z j j z                                                                                           ",
"                                                                                                                                                                                                                                              +.;.+.+.+.+.+.+.+.+.O.O.O.! ! ! ! O.! Q W C N m j w = X . . X X + + O O O O O O % % % % % % % % O O O O O O + X X X X X X X X + : i g i i i t r 5 < < 5 4 < < w i g M m j g j                                                                                         ",
"                                                                                                                                                                                                                                            ! +.=.+.+.+.O.O.O.O.O.O.O.O.O.O.O.O.! ! Q N N m j j g t : + X . . . . . . . . . . X . X X X X X X . . . . . . . . . . . . . X + < t g g i i t t t 6 5 < 4 4 < < < w i j z i t t                                                                                         ",
"                                                                                                                                                                                                                                            ! +.+.+.+.O.O.O.O.O.O.O.O.O.O.O.O.! ! Q N m M z j j g i r 5 ; O O + + X X X . . X X . . . . . . . . . . . . X X X X X + + O O 6 d d g t t t t t t r 6 5 4 w w 5 4 4 r i i i t r w                                                                                       ",
"                                                                                                                                                                                                                                            / +.+.+.O.O./ O.O.O.O.+.+.O.O./ ! ! Q N N M M j j j g g t r 5 4 < < < < : : : : : : : ; ; - = # 1 O O + + O O O O = = = ; < t d j j j j d t t t t 6 5 5 4 4 5 5 4 4 w r i t t t w r                                                                                     ",
"                                                                                                                                                                                                                                          N O.O.O.O.O.O.O.O.O.O.O.+.+.O.! ! ! Q Q N M M M j j j g g i i t w 5 < < < : : < < < < < < < < < < < < < < < < < < < 5 w w r r r r t t t t t t t t t r 6 5 5 5 5 5 4 4 4 w t i t r r t i                                                                                   ",
"                                                                                                                                                                                                                    ;.=.=.=.*.=.=.=.;.:.  C ! O.O.! ! O.O.O.O.O.O.O.O.! ! ! ! Q W C N N M M j j j j j j g g g i i t w 5 5 5 4 4 4 4 4 4 5 4 4 < < : : : : : : < 4 5 w w r r e r t t t t e 6 5 2 < < < 5 5 5 4 4 5 < 5 w r r r r i                                                                                   ",
"                                                                                                                                                                                                                =.=.=.=.=.+.+.O.O.O.O.+.! C ! O.O.! ! ! O.O.O.O.O.! ! ! / ! ! Q W W C N N N M M M m M j j j j n n n g t w 5 5 5 5 5 5 5 5 5 5 5 5 5 4 < : : : < < < 5 5 w r r r r e r r 5 : 2 < : < < < 5 5 4 5 4 < < 4 w r r r r r                                                                                 ",
"                                                                                                                                                                                                          =.=.*.+.+.+.+.+.+.+.O./ ! ! ! N C ! ! ! ! ! ^ O.O.O.! ! ! ! ! O.! ! ! ! ! W W C N N N N N N N M M M N N N M j t r w w w w w w 5 w 5 5 5 w w 5 5 4 < < < < 4 5 5 w r r t r e 6 < : : : < < 4 < 4 4 < < < < < < 4 w w w w w r                                                                               ",
"                                                                                                                                                                                                      =.+.+.+.+.+.O.O.O./ / ! ! ! ! W W M N W ! ! ! ! ! ! O.! ! ! ! ! ! ! ! ! ! ! ! Q ! ! ! W W W W W W W W W W Q W W N M g t t t t t r r r r r r w w r w w w 5 5 5 5 5 5 5 w w r t r 6 2 2 5 5 4 < 5 5 4 4 < < : : < < < 5 w r w w 5 w                                                                             ",
"                                                                                                                                                                                                  =.+.+.+.+.+.+.O.O.O.! ! ! ! W W W N N M N W W Q ! ! ! ^ ! ! ! ! ! ! ! ! ! ! ! ! ! ! ! ! ! ! ! Q ! ! ! ! ! ! ! ! ! Q Q W N m j i t t t t r t t t t t t t t r r w w w w w w w w w r e 5 5 6 w t t w 4 5 5 5 4 < < : ; : : < 5 r w w 5 5                                                                             ",
"                                                                                                                                                                                              3.=.+.+.+.O.O.O.O.O.O.! ! ! Q W W W N N M m N N C W ! ! ! ! ! ! ! ! ! ! ! ! ! ! ! ! Q ! ! ! ! ! ! ! ! ! O.O.^ ! ! ! ! ! ! ! ! ! Q M j i t t t t t t t t t t t t t t r r r w w w w w r r 5 2 w t i g j t w 5 4 < < < < : ; ; : < w w w 5 t t                                                                           ",
"                                                                                                                                                                                          3.=.+.+.O.+.+.O.O.O.! ! ! ! W W W N N N m M j j M N N W ! ! ! ! ! ! ! ! ! ! ! ! ! ! ! ! ! ! ! ! Q ! ! ! O.! O.^ ! ! ! ! ! ! ! ! ! ! ! ! W N j i t t t t t i i i i i i i t t t r r r r t e 5 5 w i i j z k j t 6 5 5 < < < : : : ; : 4 5 r 5 r 5 <                                                                         ",
"                                                                                                                                                                                        =.+.+.O.O.O.O.O.O.O.O.! ! W W W C N N M M M j g j M N C W ! ! ! ! ! ! ! ! ! Q W ! ! ! ! ! O.O.! Q ! ! ! ! O.! ! ! ! ! ! ! ! ! ! ! ! ! ! W W W W M j g i t t i i i i i i i i t t t t j d t 6 6 r t i g z j j d j i r 5 < < < < < : : ; : 5 w t j w ;                                                                         ",
"                                                                                                                                                                                    ;.+.+.O.O.O.O.O.O.O./ / ! ! ! ! W W N N M M M j g i j m N C W ! ! ! ! Q Q ! ! ! W Q ! ! ! ! ! ! ! ! Q ! ! O.! ! ! ! ! ! W W ! ! ! Q ! ! ! ! ! ! ! Q W C m j g i i i g i i i i t t t t j j d t r t t i i g j t t j j j j t 5 < < < < : : : ; : 4 w d 5 = -                                                                       ",
"                                                                                                                                                                                  +.+.+.O.O.O.O.O.O.O.O.O.! ! ! W W W W C N M M j j i i j m N C W ! ! ! W Q ! ! ! ! W ! ! ! ! ! ! ! ! Q ! ! ! O.! ! ! ! ! W Q Q Q ! ! ! Q Q Q ! ! ! ! ! Q W W W W N M n j g i i t t t t t j j d t t t i i j j j d t d d j j j t e w < < < < < : ; < 5 w r : -                                                                       ",
"                                                                                                                                                                              +.+.O.+.O.O.O.O.+.+.+.O.O./ ! ! Q W W W W C N M m j j t i j m N W ! ! W W W ! ! ! Q ! ! ! Q ! ! ! ! ! Q Q ! ! O.! ! ! ! ! W W ! ! ! ! ! ! ! ! ! ! ! ! ! Q Q W ! ! ! ! ! ! ! C M g i t t t t k j d t t t i j j j j d d d j d j j j j d e 5 4 < < < ; ; < 5 e < : ;                                                                     ",
"                                                                                                                                                                          +.+.O.O.O.O.O.+.O.O.O.O.+.+.O.O.! ! ! W W C N N N M j j g t i j m N W ! Q W W ! ! ! ! ! ! ! W ! ! ! ! ! ! Q ! ! ! ! ! ! ! ! W Q ! ! O.! ! ! ! ! ! ! ! ! ! ! W Q Q ! ! ! ! ! ! ! ! W N M j i i d k a t t i i i j j j j j d j j j j j j j j d r 5 5 4 < : : < < 5 5 : ;                                                                     ",
"                                                                                                                                                                        +.O.O.O.O.O.+.+.+.O.O.O.O.O.O.O.O.O.! ! W W N N N M M j j g t i j n N W W W W W Q ! ! ! Q ! W W ! ! ! ! ! ! ! ! ! ! ! ! ! ! W ! ! ! ! ! ! ! ! ! ! ! ! ! ! ! ! ! ! ! O.! ! ! Q Q Q Q W W E N j j j j d t t g j j j j j j j j j i j j j j i d d d e 5 5 5 < : < < < 5 < :                                                                     ",
"                                                                                                                                                                      O.O.O.O.O.O.O.O.O.O.O.O.O.O.O.O.O.O.O.O.! ! W W N N M M j j g t i g n N N W W W Q Q ! ! ! W W W ! ! ! ! ! ! ! ! ! ! ! ! ! ! Q ! ! ! Q Q W W Q Q ! ! ! ! ! ! Q Q Q ! ! ! ! ! Q Q Q W W W W C E N N Q N j j g j m j j j t d j j j d i d j j j t t j j d 6 2 5 : < < < < < : ;                                                                   ",
"                                                                                                                                                                    O.O.O.O.O.O.O.O.O.O.O.O.O.O.O.O.O.O.O.O.! ! ! W W N N M M j j g i t g M N N C Q ! ! ! ! Q W W W W Q ! ! ! ! ! ! ! ! ! Q ! ! W ! ! W W W W W W W Q ! ! ! ! ! ! ! ! ! ! ! ! ! W ! ! Q W W C W Q W E E ~ ! U N N W O.C j j d t i j j h d j j j j j d t i j h r 6 4 : : < < < 5 :                                                                   ",
"                                                                                                                                                                  O.O.O.O.O.O.O.O.O.! O.O.O.! O.O.O.O.! ! ! ! W W W W N N M M j j g i t g M N N N Q Q Q ! ! Q Q W W W Q ! ! ! ! W ! ! ! W W ! W W ! W W Q Q W W W W Q ! ! ! O.! ! ! ! ! ! ! ! ! ! ! ! O.! ! W Q Q ! W Q ~ ~ ! Q W ! +.+.N z d t t h j j t d j j j j d t i i j j t r < : : < < 5 2                                                                   ",
"                                                                                                                                                                O.O.O.O.O.O.O.O.O.O.O./ / O.O.O.O.O.O.! ! ! ! W W C N N N M m j j g i i j M M N N Q Q Q ! ! ! W W W Q Q ! ! ! ! W ! ! ! W W W W W Q W W ! W W W W W Q ! ! ! O.O.O.O.O.O.O.O.O.O.O.O.! O.O.! ! ! ! ! ! ! ! ~ ~ ! Q W O.+.O.N z d t t d j j d j j j j d t t i d j j t 5 < : : < < 6                                                                   ",
"                                                                                                                                                              O.O.O.O.! O.O.O.O.O.O.O./ / O.O.O.O.O.O.! ! ! ! W W W C N M M j j j g i i j M M N W Q Q W Q Q W W Q Q ! ! ! ! W ! ! Q W W W W W W ! W Q ! W W W W W Q ! ! ! ! O.O.O.O.O.O.O.+.O.O.O.O.O.! O.! ! ! ! ~ / / ! / +./ ! ! O.+.$.O.Q z j d t d j j d d d d j d t t i d d d t 5 : : < < 5 5                                                                 ",
"                                                                                                                                                            O.O.O.! ! ! ! O.O./ / O.O.O.O.O.O.O.O.O.O.! ! ! ! W W W N N M M j j j g i i j m M N C W W W ! W W Q ! ! ! ! W W W W ! W W W W W W W ! ! ! ! Q W W W Q ! ! ! ! ! O.O.! ! ! O.+.+.+.+.O.O.O./ ! ! ! O.+.+.+.+./ / +.+.~ ! ! O.$.+.O.U z j j d j j d d d t d j d d j d d j d 6 < : < 5 2 5                                                                 ",
"                                                                                                                                                          O.O.! ! ! ! ! ! ! O.O./ O.O.O.O.O.O.O.O.O.O.! ! ! ! W W N N N M M j j g g i i g j M N C C W ! Q Q Q Q ! ! ! Q W W W W ! W W W W W W W Q ! W W Q ! ! ! Q Q ! ! ! ! ! ! ! ! ! ! O.+.+.+.O.O.O.O.O.O./ O.+.+.%.%.+.%.%.%.%.~ ! ! +.=.+.~ N z j d d d j j d d d d j j j j d j j r 5 < < 5 2 5                                                                 ",
"                                                                                                                                                        ! ! ! ! ! ! ! ! ! ! ! O.O.O.O.O.O.O.^ ! ! ! O.! ! ! Q W W N N N M M j g g i t t i j M N N W ! ! Q Q Q W ! ! Q W W W W W W W W W W W W W W W W W ! ! ! ! ! ! ! ! ! ! ! ! ! ! ! ! ! O.+.+.+.+.+.+.O.O.O.O.+.%.%.%.%.-.%.%.%.%./ ! O.+.+.O.~ U m j j d j j d d d d j j j d t d j j w < < 2 5 5 <                                                               ",
"                                                                                                                                                      ! ! ! ! ! ! ^ ! ! ! ! O.O.O.O.^ O.! ! ! ! ! ! ! ! ! W W W W N N N M M n j g g i t t g M N N W ! ! Q W W W ! Q W W W W W W W W C N W W W W W W W W ! ! ! ! ! ! ! ! ! W ! ! ! W W W Q ! O.+.+.+.+.+.+.+.+.+.-.-.-.%.-.-.-.-.-.%.%.~ ! +.+.+.+.~ Q N j j i d j d d d t d d j d d d j t 5 < 5 5 5 2                                                               ",
"                                                                                                                                                    ! ! ! ! ! ! O.! ! ! ! ! ! ! O.! ! ! ! ! ! ! ! ! ! ! W W W W C N N N M M n n j g t t r i M N C ! ! ! W W W W Q W C C W W C W C W C N W W W W W W ! ! ! ! ! ! ! ! ! ! ! W W Q W W W Q W ! ! W ! ! ! ! / O.+.+.+.-.%.%.%.%.-.-.-.-.%.O.! O.+.+.O.+.~ Q N k j d t d d i t t d j j j d d i r 2 < 5 5 5 <                                                             ",
"                                                                                                                                                  ! ! ! ! O.! ! O.O.^ ! ! ! ! ! ! ! ! ! ! ! ! ! ! ! ! W W W W W N N N N M M m j j g i t r t M N C ! ! ! W W W W W C C W W E N N C W N N C W W W W ! ! ! ! ! ! ! ! ! ! ! W W W W W W W ! O.O.! ! ! ! O.O.O.O.O.O.+.+.+.+.+.+.+.%.%.%.%.+.O.O.+.+.+.O.+.! Q N z j d t d d d i d d j j d i d t 5 < 5 2 2 2                                                             ",
"                                                                                                                                                  ! ! ! O.O.! ! ! ! ! ! ! ! ! ! ! ! ! Q Q ! ! W ! W W W W W W W N N N M M M m j j g g i t w z N W W W W W W C W N C C W W N N N N N N C W W W W ! ! ! ! O.! ! ! ! ! ! ! W W W W W W ! O.O.O.O.! ! O.O.O.O.+.+.+.+.+.+.+.$.+.$.$.+.+.+.+.O.O.O.+.+.O.+./ ! ! N k j d d d d d d d d j d t d d t 5 5 5 < 5                                                             ",
"                                                                                                                                                ! ! ! O.! ! ! ! ^ ! / ! ! ! ! ! ! ! Q ! ! ! W W ! W W W ! W W W N N M M M j j j j g g i t w i m C C W C C N N N C W W C C N N N N N W W W W W ! ! ! ! ! / ! ! ! ! ! W ! Q Q W ! ! O.O.O.O.O./ ! ! ! ! ! O.O.O.+.+.+.+.+.$.*.*.*.*.$.+.+.+.+.O.O.O.O.! +.~ ! ! N m j d d d d d d t d j t d d t t 5 5 < 2 5                                                           ",
"                                                                                                                                                ! ! ! ! ! ! O.O.O.! ! ! ! ! ! ! ! Q ! ! ! ! W W Q W W W ! ! W W N N M M M j j j j g g i i w t M N N Q Q N N N N W W C W C N N N N C W W W W Q ! ! ! ! O.O./ ! ! ! W Q ! Q Q ! O.O.+.O.O.O./ ! ! ! ! ! ! ! ! ! O.O.O.O.+.+.+.+.*.+.+.+.+.+.+.+.O.O.O.O.O.+.~ ~ Q N m j d d d d d d t d d d d t d 5 2 5 < 5                                                           ",
"                                                                                                                                              ! ! ! ! ! O.O.O.O.O.! ! ! ! ! ! ! ! ! ! ! ! ! ! ! ! Q W W Q ! ! W N N M M M j j g g i i i t r r j m N W N N N W W W N C C N N N N N C W W Q ! ! ! ! ! ! ! ! ! ! ! W W Q Q ! O.+.+.O.O.! ! ! W W ! ! Q W Q W ! ! W W W W W ! ! ! O.O.O.O.O.O.O.! O.O.O.O.O.O.! ! / Q N N j d d d d t t t d d t d t t 5 < < 5 5                                                         ",
"                                                                                                                                              ! ! ! O.O.O.O.O.O.O.! ! ! ! ! ! ! ! ! ! ! ! ! ! ! ! ! ! W W Q ! W N N N m m M j g i i t t t t w i M N m N N W C W N N N N N N N N N W W ! ! ! ! ! ! ! ! ! ! ! ! ! Q Q W O.O.+.O.O.! ! ! ! W W N W W W N N E E E E E W W W W W W W W W W W W W W ! ! ! O.O.O.O.O./ / Q Q U k j d d t t t d r t t t t e < : < 5 2                                                       ",
"                                                                                                                                            ! ! ! O.O.O.O.O.! O.O.! ! ! ! ! ! ! ! W ! ! ! ! ! ! ! ! Q W Q Q ! W E N N m M z j g i t t t t t w i z m m N C C N N N N N N N N N C W W W W ! ! ! ! ! O.! ! ! ! ! Q ! ! O.O.O.! ! W W W ! Q W N E W W W N N N N E E W E E E W E E E E E W W W ! ! ! ! W W Q ! ! O.O./ ! ! ! U N j d d t t 6 < 5 e t t t 6 < < 5 <                                                       ",
"                                                                                                                                            ! ! ! O.O.O./ ! ! O.! ! ! ! ! ! ! ! ! W W ! ! ! ! Q Q Q Q W W W Q W W N N M M z j g i t t t t t r t j m m N C C C C N N N N N N C C W W W W ! ! ! ! ! ! ! ! Q Q Q ! ! O.O.O.! W W W W W W W E N N N N N N N N N E E W E N N N E E N N N N N N Q Q ! Q Q W W C W ! O.O.! ! ! ! Q N j d t d 6 < r e e t t t 5 : < < 2                                                     ",
"                                                                                                                                            ! ! ! ! ! ! ! ! ! ! O.O.! ! ! ! ! ! ! W W W W W W W W W W W W W W W W W N N M M j g g t t r t t t t j m m N C N N C N N N N N N C W W W W ! ! ! ! ! ! ! Q W Q ! ! ! O.! ! W W E E E E E N N N N N N N N E N N N N N N N N N N N N N N N Q Q Q Q Q Q ! ! ! Q W N W ! O.O.O.O.O.! ! N z t t 6 < e 2 < 6 t t e : < 2 :                                                     ",
"                                                                                                                                          ! ! O.O.! ! ! O.O.! ! O.O.O.! ! ! ! ! ! W W W W W W W W W W W W W W W W W C N M M j g g t t t t t t t j z m N N N N N N N N N N C W W W W W W ! ! ! ! ! Q W W ! ! O.! ! W W W C N N N E N N N N N m m M N N E N N N N N N N N N N E W E Q Q Q ! ! ! ! ! ! ! ! Q N N W ! O.O.! O.O.! ! U m j t 5 < 2 < 6 t t r 5 < < : 5                                                   ",
"                                                                                                                                          O.O.O.O.O.O.O.O.! ! ! ! O.! ! ! Q W W W W W W Q Q W W W W W W W E E N N W C N N M j j g i t t t i t t g j m N N N N N N M N N W W W W C N W W W W W W N W W W ! ! ! W W W W C N N N N N N N N N M M N M M M M M N N N N N N N N N E E N N N Q Q ! ! ! ! Q Q Q Q N N N W W O.O.! ~ ! ! Q U m j 6 : e 5 2 r t r 5 5 < < 5 j                                                 ",
"                                                                                                                                        O.O.O.O.O.O.! ! O.O.O.O.^ ! ! ! ! ! ! Q W W W W Q Q Q W W W W W W E W C W W W N N M m j g g t t t i t t g j m m N N N N N N N N C C W E N N N N C N N N N W W W ! W W C C W W N N N N N N N N N M M M M M M M M M M M M m N N N N N N E N N N N E Q N E N N N N N N N M N E W ! ! ! ! ! Q E N m j 6 5 6 < 6 t t 6 5 < 2 5 d                                                 ",
"                                                                                                                                        ! O.O.O.! ! ! ! ! O.! ! ! ! ! ! ! ! ! ! W W W W W W W W W W W W W W W W W W W N N M M j g g t r r i i t t j z m N N N N N N N N C W N N N N N M M M N E W ! ! ! ! W C C C W E N N N N N N N m M M M M M M M M M M M M M M N N N N N N E N N N N N N m m m m m M N N N N M M N W W W ! ! ! Q N N m j 6 2 2 < t t r 5 < < 6 d                                                 ",
"                                                                                                                                      ! ! ! ! ! ! ! ! ! ! ! ! ! ! ! ! ! ! ! ! ! W W W W W W W W W W W W W W W W W W W N N M M j g g t t r i g i t g z M M M M N N N N C W W N N N N m M M m W W O.O.! ! ! W C N W W E N N N N N N N M M M M M M l l l z m n m M M M M M M N N N N N E N N N N m m m m M M M N N N M M N N W W W Q ! U N N m j t 5 : 6 t t 5 < < 5 t                                                 ",
"                                                                                                                                      ! ! ! ! ! ! ! ! ! ! Q ! ! ! ! ! ! / ! ! ! W W W W W W W W W W W W W W W W W W C N N M M j j g t t r r i i t g j m M M M N N N N N W C N N N N M M m N W ! ! ! ! ! ! W N N E W W E N N N N N M M M M M M M j z z z z n n M M M M M M M M m N N N N N N N m M M M M M M M m N N M M N N W W W C U U U N k j e < < t t w 5 < 5 r                                                 ",
"                                                                                                                                    ! ! ! ! ! ! ! ! ! ! ! ! ! ! ! ! ! / ! ! W W W W W W W W W W W W W W E E W C W W N N N M M j j g t t r r r t t g j m M M M M N N N N W C N N N N M M M Q ! ! Q Q ! ! Q E N N E W Q W N N N N N M M M M M M M M M M M M M M M M M M M M M M m N N N N N N N M M M M M M m M M M N M M M M N C W W N N N N N k d 5 : e t r < : 5 e                                                 ",
"                                                                                                                                  ! ! ! ! ! ! ! ! O.! ! ! ! ! ! ! ^ ! ! ! W W W W W W W C C C W W W W W N N C C W C W N N N M n j g i t t r w r t g j n n M M M N N N N C N W N N N M M N ! ! Q ! Q ! Q N N N N N W W C N N N N m M M M M M M M M M M M M M M M M M M M m m m m N N N N m m m M M M M M M M m z z M m M m m M N N W W N m m N N j e : 5 t t 2 < 5 6                                                 ",
"                                                                                                                                  ! ! ! ! O.! ! ! ! ! ! ! ! ! ! ! ! ! ! W C N N C C N N N N N N C W W C N N N C W W W N N N M n j g i t t r w w t i j j n M M M N N N N C N E N N m M M W ! Q Q Q Q Q N N E Q W N N N N N m N N m M N m M M M M M M M M m M M M M M M m m m m m N m m m m m m M M M M l z z z z j M M m M M M N N N W W W M m m m t < < t t 6 5 < 5                                                 ",
"                                                                                                                                ! ! ! ! ! ! ! ! ! ! ! ! ! ! ! ! ! ! ! W N N N N N N N N N N N C W W W W N N N N W W N N N N m j j g i t r w 5 w t i g j n m M N N N N N N N C N N m M N Q Q Q Q Q Q N N N N C C N N M M N M N N N N N N M M M M M M M M m m N N m m m m m m m m m m m m m m m m m m m M M M M z j j M M m M M M N N N C W W M z z z 5 : r t r 5 < 5                                                 ",
"                                                                                                                                ! ! ! ! ! ! ! ! ! ! ! ! ! ! ! ! ! ! W N N N N N N N N N N N N N N E C N N N N N N N N N N M z j j i t r w 5 4 5 r t g g n m M N N C C N N N N N m m m N ! Q Q Q Q Q E N N N N N M N M m N N N N N N N m M M z z M M m N N m N N N N N N N N N N m m m m M z z m m m m m z M m M z j j M M M M M m m m N W W W N z z t < 5 t t 5 < 2                                                 ",
"                                                                                                                              ! ! ! ! ! ! O.! ! ! ! ! ! ! ! ! ! ! W N M M M M N N N N m N M M M M N N N N N C N N N N N M M z j g i t r 5 4 < 5 r t i g j m M M N C C N N N N m m M M N W Q Q Q Q Q W N N N N M M N N N N N N m N N N N m M M M j j z M m m m N N m N N U U N N N N m z z z z z z z z m z z z z z z j j j z m m m m m m m N W W N z j 5 : t t 6 < <                                                 ",
"                                                                                                                              ! ! ! ! ! ^ ! ! ! ! ! ! ! ! ! ! Q W W M M M M M M M M M M M M M M M M M N N N N N N N N N M M z j g i r w 5 < < 4 w t i g j n M N N C N N N N N m m m N W W W W Q Q Q Q W N N M M M N N N m m M m m m m l z z z j j j j M m m z z m m m m N N m m m k z z z z z z z z z z m z z j z z j j j j z j j M m m m m N N C N j r : 6 t e < < w                                               ",
"                                                                                                                            ! ! ! ! ! ! ! ! ! ! ! ! ! ! ! ! ! ! Q W N N N M m m m M M M M M n j n M M M M N m N N N N M M z j j i t r w 5 < : 4 w t i g g j M M N N N N N N N m m z N E W Q Q C C U C N N M M M M M N M m N m M M j z j j j j j j g j j M m z z z k k m m m m l l z z z z z z z j j z z z z z z z z z j j z z j j z m N m m m M N C N j 5 < t t 5 < 5                                               ",
"                                                                                                                          O.O.O.! O.O.O.O.O./ / O.O.! ! ! ! ! ! O.! ! Q W N N M j j j z M M n j j j n M M M M M N N m M z j g g i t w 5 < < : 4 w t t g g j n M N N N N N N m m k M C N C Q N C N N C N N N m M M M M M m m m m z z z z j j j j j g g g j j j z k m m l z z z j j j j j z z j j j j j j j j j j z z z z z z m z j z M m m m m M m m N N t : 5 t 6 < w                                               ",
"                                                                                                                          O.O.O.O.O.O.O.O.O.O.O.O.O.O.! ! O.+.+.+.O.Q Q Q N N N m m z g g j j j j j j j n M M M M m M z j j i t t r 5 5 < : : < w r t i g j j M N N N N N m m m z m N U N N N Q N N N N N N N m m m m m M m m m m z M M z z j j g g j j j g g g j j z z z z z j j j g g j j g j j j j j j j i j j j j z z z k z z m m m m m m m z j M N m r < t r 5 w                                               ",
"                                                                                                                          O.O.O.O.O.O.O.O./ / O.O.O.O.O.O.+.+.O.O.! Q C N N N N N N N m g i i g g j j j j n m M M l j j j j i t r w 5 < : : ; < 5 r t i g j j n N N N N N N m M z N Q Q N N E Q E N N N N N N N N N m N N m M m m m m m m m z z j j j j j j g g g g g g j j z z j j g g i i t i i i t t g g i i i i j j j z z z j m m m m M m m z z j z m M 5 r t 5 5                                               ",
"                                                                                                                        O.+.+.O.O.O.O.O.O.O.O.O.O.O.+.O.O.O./ ! Q W W Q ! ! ! Q Q Q N N M z j g g j z z z z z z z z z z z j t r w 5 < < : ; ; < 6 r t t g j j m m N N N m N m l m Q Q Q N N N Q N U N N N N N N N N N N N N m m z z m m m m m z j j j j j j j j g i i i g g g j j z j j i i g j j g t t t t t t t i j j i j z k z z m z z m z z z z j j j M j 5 t 6 5                                               ",
"                                                                                                                        +.+.+.O.O.O.O.+.O.O.+.+.+.O.! ! ! ! ! W W E N Q Q Q ! ! Q Q N N m M M M M z z m m m m z z z z z z j t w 5 4 < : : ; ; < 5 w t t i j j m m N N N N m m m N Q Q Q N C N N N Q U N N m m m m m m m m m m m z z z k m m z z z z z j j j j d i i g g g g i i j j j j t t t j j j t t t t t t t t t g g i j z z m m z j z z j j z z j g j j r t r e                                               ",
"                                                                                                                      +.+.+.O.O.+.+.+.+.+.+.-.+.O.! ! W Q Q W W E E N Q ! ! ! Q Q U N N N m M m M z m m N N m z j z k z j j t r 5 4 : : : ; ; < 5 w r t i j j z m m N N N m m N N N N N N C Q N N U N N m m m m m m m z m m z m z j j z z z z z k k z j d d j j d i d j j j i t t h d d d t t t d t t t t t t t t t t t t t j j z z z j j j z z j j z z g g j j e r r                                               ",
"                                                                                                                      +.+.+.+.+.+.+.+.+.+.+.+.~ ! ! W ! ! W W W N N N Q Q ! Q Q Q Q Q Q Q N N N N m m m m m m m m m k k k z j t r 5 < < : : ; < 5 6 r t i j j j m N N N m m z N E N N N N N Q N m N N N m m m m m m m z m z z z j j j j z j j z z z j t t t d d i i i i i i t t t t d d t t t t t t t t t t t t t t t t t t t j j j z j g j j z m j j z j g g j t t                                                 ",
"                                                                                                                      +.+.=.;.%.+.-.%.+.+.O.! ! ! Q Q ! Q E E N N N N N E E N W U C N Q Q Q W E N N N N m m l m N N m z j j z j t 6 5 5 < : : : 5 5 w r t i j j z m m N N z m N N N N N N N U N m m m m m m m z z m k z z j z z j j j j j j j j j i t t t t t t t t t t t t t t t t t t t t t t t r r r r r r w e r r r r t t t d j j j j t h j k m z j j j g i j r                                                 ",
"                                                                                                                    +.+.+.%.+.+.%.+.+./ ~ ! ! ! ! Q W W N E E N N N N N W W N N W Q Q Q Q Q Q Q W Q Q N N N N N N N m m j g i j d r 6 6 5 < : : < 5 5 w r t i i g j z m z z M N N m N N N N N N m m m m m z z z z z z z z z z j j j j j j j j i t t t t t t t t r r r t t t t t t t t t t t r r t r r e w w w w w w w w w r r t t t j j j j j d j z z j g g j g g j                                                 ",
"                                                                                                                    +.+.O.O.+.+.+.+.! ! ! O.! Q E E N E E W Q Q Q Q N N N N N N N C Q Q Q Q E Q Q Q Q N N N N N N N N m l j i i i j t w 5 5 < < < 5 5 5 w w r t t t g z j M N N N N N N N N N m m l m m z z z z z z z z z z z j j j d j j j j t t t t r r r r r r r r r r r r r r r t r r r r r r r e w w w w w w 6 6 5 5 w r r t t t t t j j j j j z z g t t j g j                                                 ",
"                                                                                                                  +.+./ / / / O.O.~ ! ! ! ! Q N N N N N N Q Q Q Q Q Q Q Q N N N N C Q ! Q N N Q Q Q ! Q Q U N N N N N m m z j g j j j d e 6 5 5 < 4 5 5 w w w r t t t j j m N m m N N N N N N m k k l z z z z z z z j j j z j j j j d j j d t t t t r r r r r r r e e e r r w e w w w w w w 6 6 6 w w 6 6 6 6 6 6 5 5 5 5 5 6 w w r t t t t j j i d j j j t t t i g                                                 ",
"                                                                                                                  +./ ! / O.O.! ! W ! ! E N N N N N N N N N N U Q Q ! ! U U N N N C Q Q Q U N U Q Q ! ! ! ! Q N N N m M m m z j j z j j j d 6 5 5 4 5 5 5 w w w r t t j z M m M m N N N m m N N m z j j j j z z z z j j j j j j j j j j t t t t t t t t t r r r r e w e w w w w w 6 6 6 6 6 6 6 6 6 6 6 5 5 6 6 6 5 5 5 5 5 5 6 6 w r r r t t i t i i i g i t t t i g                                               ",
"                                                                                                                +.O.! ! ! ! ! W W W Q Q N N C C N N N N N N U Q ! ! Q Q N N N N N N U Q Q Q Q U U ! ! ! Q ! ! U M m m M M m m z z z z j d t r 6 5 < 4 4 5 5 5 w w r r i M M M M m N N N z l N N m z j j j j j z z j d d d j d d j d i t t t r r r r t t t r r w w w w w w w w w w w w 6 6 6 5 5 5 5 5 5 5 5 5 6 6 5 w w w 5 5 5 6 6 w r r r t t t t d t t t t t t t t m                                             ",
"                                                                                                                O.! ! Q Q Q Q W W Q Q Q U W Q N N N N N Q Q Q Q Q Q N N N N N N Q N N N N N Q N N N N N N U Q N m m m M M z z z z z m z j j t r e 6 4 < < 4 5 5 5 5 w j M M M M m N m N z m N m k k z z j j j z z d t t t t t t i i t t t t r r r r t t r w w w 5 5 5 5 5 5 4 4 5 5 5 5 5 5 5 5 5 5 5 5 5 5 5 w w w w w w w 5 5 5 w w e r r r r t t t i t t t t t r t g                                             ",
"                                                                                                                O.! ! Q ! ! Q Q Q Q Q U N N N N N Q N Q Q N N Q U N N N N N N N N N N m N N N N m N N N U U U N N N M m m M z z j z k k z j j t t t r 5 < < < < < < 5 j M M M m M m m m m z m m z z j j j j j j j t t t t t t t t t t t t t t r w w w w w w 5 5 5 5 5 5 4 4 4 4 4 4 4 4 4 5 5 5 5 5 5 5 5 5 5 5 5 w w w w w w w w 5 w 6 w e r r r r t t j i t t t r t t j                                           ",
"                                                                                                              O./ ! ! ! Q Q Q N Q Q Q N N N Q N N Q N U Q Q Q Q Q U N N N N U Q Q U N N m m m m l m N Q Q Q Q N N N M M m M l z z z z z z z j j j t t w 5 < < : : : 5 z m M l M M M m z m z z l z z j j j j j d t t t t t t t t t t t r r r r w w w w 5 5 5 5 4 < < < < < < < : : : < < < < < < < 4 < < < < 4 5 5 w 5 5 5 5 5 w w w w w 5 6 6 6 w w r t t t t t t t r t t m                                         ",
"                                                                                                              O.! ~ ! ! Q Q U N Q Q N N N U Q Q N N N U U Q Q Q Q Q N N N N N Q Q Q U N m m m m m m N U Q N N N N m m M N M z z z z m z z z z z j j t t 6 5 < : ; : w z m M M m M m m m m z z l z z j j j j d t t t t t t t t t t t r w w r r w w 5 5 5 5 4 < < : : : : : : ; - - ; : : < : : : : : : : : : < < < < < < 4 5 w w 5 w w w w 6 6 6 6 6 e r t t t t t t r r r j                                         ",
"                                                                                                            ! ! ! ! ! ! ! ! Q Q ! Q N N N N N m m N U U U U U Q Q U N N N U Q U Q Q Q Q N N N N N N U U N N N N m m m m m N m l j j z m m k z z j j t t t r 5 : ; : t z M M m m m M z m z z z z j j j j t t t t r r t t t t t t r r r r r r w w 5 5 < < < < < : : - - - - - - - - - : : : : : : : : : : : : : : : : : : < 4 4 4 w w w w w w w 5 5 5 6 6 e r r t t t r r r r                                         ",
"                                                                                                            ! ! ! Q Q Q Q Q Q Q N m m m m m m N N P P U P P U U N N N N m m N N N N N N N N N N N U U U N N m m m m m m M m N N m z j z z k z j d t t t i t r < : < i z m m N m m m m m z z z j j j j t t r r r r r t r w w w r r r w w 5 5 < : : : : : : : : : - - - - - - - - - - - : : : : : : : : : : : : : : : : : : : < < < 4 5 w w w w w 5 5 6 6 6 e r r r r r r w 6 i                                       ",
"                                                                                                          W ! Q Q Q Q E Q Q N m z z M m m m m m N l l N P N N N N N N m z z z z m z z m z z m m m N N m l m m m m m m m m m m N N k j j z z z j j j d i i t t r 5 5 i j j N Q m m j z m z z z j d j t r r e r r r r w w w r r r w 5 5 < < : : : - - : : : : : - - - - - - - - - - - - - - - - - - - - - : : : : : : : : : : : : : : < < 5 w r w w w 5 5 6 6 w 6 w w r r w w w j                                     ",
"                                                                                                          W Q Q Q N N N N m m M z z z m m m m m l k l l N N N N N N N m z z z z z z z z z z z k m m m z z m l l m m m m m m m m m l z j j z z j j d j j g i t t 6 r j j M N Q m z j j j z z j j d d r r r r r r w w w w w w w 5 < < : : : : : : : - - - - - - - - - - - - - = # # # # = = = = - - - - - - - - - - - : : : : : : : : : < < 5 w r r w 6 5 5 6 6 6 6 6 w r r w w i                                     ",
"                                                                                                        W Q Q Q N m N m m m M m z m m m k z k k k k k l m m m N N N l l m z j j z j j j j z z z k k z z z z z z l m m m m m z m m l z z z z z z j j d d i i g t t t g j m N N z j g g j z z j d j t r r r r r w w w w w 5 < < : : : : < : : : : : 6 t f t e 6 6 6 6 5 6 6 6 6 7 f f s s H H H H I H 2 # # # = - - - - : : : : - : : : : < < 4 5 w r w w 6 5 6 6 6 6 5 6 w w 5 r j                                   ",
"                                                                                                        Q Q N N m z z z m z z z m m m m z z z z k k k m m m k k k k k m m z j j z z j j j z z z k z j j z j z z z z m m m M j j z z z z j j z z j j j j i i t t t t g g z N m j g i d j z j j d t t r r r r w w w w 5 4 < : : : : : : < : - - < ) a.G.G.G.Z.a.y.y.i.8.] ) ) ) ) ] ] ] ] [ [ [ [ [ ] ( f - # # # # = - - - - - : : : : : : < < < 5 w r w w 6 5 5 5 6 6 6 6 w 5 5 t                                   ",
"                                                                                                      W N N m m z z j z m z z z m m m m z j j j z j j z z k k k k k j k k z j j j z z j z z z m m z z z z j j z z z z m M m j j j j z z z j j j j j j j j i t t r t t g j m j g i i g j j j d t t r e w w w w w w w < < : ; : : : : : : - - - Y D.F.F.F.F.D.D.G.Z.y.i.0.] ) _ ] ] ] ] [ [ [ [ [ [ [ ' K s 3 # # # # # # # - - : : : : : : : : : < 5 w r w w 6 6 5 5 6 6 6 6 5 5 r i                                 ",
"                                                                                                    N N m z j z z z z m m m m z j j i i i i i i i i i j j z z z k k j j z z j j j j j z z z z z z j z z j j j j z z z j z m j j z j j j z z j j j j j j g t t t r t t j j j j i i j j j j d t t r r w w w w 5 5 4 < < : : : : < : - - - = - _ F.L.R.R.L.J.F.F.D.G.Z.y.q.[ ] ] ] ] ] ] ] [ [ [ [ 8.[ ] Y F A 7 3 - # # @ @ # # - - - - - - - - - : < 5 5 w w w 6 6 5 5 6 6 6 6 5 w t                                 ",
"                                                                                                    m z z z z z z n n n j g i i t r r r r r r r r r t t i j j j j j j j j j j z z z z j j j z j j j j j j j j j j z j j j j j j z z z j j j j j j j j g t t r t r t i g j j i g j j g d i t t r r w w w w 6 5 4 < : : : : : : : : - = = e q.F.L.R.E.E.R.R.R.L.J.F.Z.y.y.q.8.[ ] ] ] ] [ [ 8.8.8.8.0.[ { G D A A 7 6 - @ O @ @ # # = - - - - - - - : < < < w r w 5 5 5 5 5 6 6 5 5 w t                               ",
"                                                                                                  m z z j j j g i i t r r w w w 5 4 4 4 4 4 5 4 4 5 w r r t t i j j j j d d d j j j j j j j j d d t j j i i j j j j j g g g g g j z z j j j j j j j g t t t t t r t t g j j i g g j t t t t r w w w w w w 5 < < : < < : : : : - = # # s p.D.J.R.E.W.W.W.E.E.R.R.L.F.S.Z.a.y.y.i.i.i.i.i.i.r.r.r.i.i.i.8.( K F A A A s 3 - # O O O # = - - - - - - - : : : : < w w 5 5 5 5 5 5 5 5 5 r                               ",
"                                                                                                  j j i i i i i t w w 5 4 4 < < < < < < < < < < < < 4 4 5 w w r i i i i j j j j d d d j j j j t d d j j j d j j j j j g g g g g g j j j j j j j t i t t t t t t r t t j j j g t t d t t t t r w w w w 5 4 < < < : : : : - ; - = # # e q.G.F.L.R.!.W.(.(.W.W.!.E.R.L.J.F.D.G.Z.Z.a.u.u.u.u.u.u.u.u.u.y.i.[ ( G F A A A s 7 3 # @ O O # = - - - - - - - - - : : < 5 5 5 5 5 5 5 5 5 5 w t                             ",
"                                                                                                t t t r r w j &.q.~ k t 5 5 2 2 < < < < < < < : : : : < < < 4 5 w r r t i i i i i d d d t t t t t t j j j d j j j d d j j j g g i i t i i d j j t t t t t t t t r r i j j j t t t t t t t t w w w 5 5 < < < < < : : - - ; - = # = s [ y.G.F.R.E.W.(._._.(.(.W.W.W.E.E.R.L.J.F.D.S.A.Z.Z.Z.Z.Z.Z.Z.C.V.u.i.[ ( K F D A A A s 7 3 $ @ @ @ # - - - - = # - - ; : : < 4 5 5 5 5 5 5 5 5 6 r i                           ",
"                                                                                              r r r w w t w._. X X[.(.I.y._ I a 5 < < < < < < < < < : < : < : < < < 0 w w r r t t i i t t t r t t t t t t t t h j i t d d j j g i i t t r t t i d t t r r t t t w r i j j z t t t t r r t t w w w 4 < < < < : : - - - - - # # - H ] 8.y.G.F.R.W.(.(.`.`.`._.(.(.W.W.W.E.E.R.L.J.J.F.S.S.S.S.S.A.A.Z.Z.C.u.e.[ { K G F D A A A A 7 6 - # @ # - - - - = = - ; - - ; : < 5 5 5 5 5 5 5 5 w t                           ",
"                                                                                            r r r w w k (.+XOXOXXX X X[._.W.R.D.y._ k 5 < < < < < < < < < : : : : : < < < 4 w w r t r r r r r r r t t t t t t t j j t t d j j i t t t t r r t t t t t r r r r r w r i j j j i t t t r t t w w w 4 < : : < : : : : - - - = # - H ) ] 8.y.Z.F.E.(.(._.[.[.[.`._._.(.(./.W.W.E.R.R.L.J.J.F.F.F.F.S.S.A.A.Z.V.u.e.[ { Y G F D A A A A A 7 6 - @ # = - - - - - - = = = = : < 5 5 5 5 5 5 5 6 e i                         ",
"                                                                                          i i r w d G.OX,X@XOXOXOXoXXX X[.(.Q.W.!.E.R.D.q.` k 6 < : : < : < < : : : : : ; < < 4 5 w r w w w w e r t t r r r r t j d t t d t t t t t t t r r r r t t r r r r r r w r i j j j t t t r r r w w w 4 < : : : < : : : : - - # # 3 H ) ) ] 8.y.D.R.Q.(._.].[.|.[.[.`.`._.(.(.(./.W.E.E.E.L.L.J.J.J.J.J.J.S.S.A.Z.V.r.e.[ ' L G F F D A A A A A s 6 - # # - - - - = = - = # - : < 5 5 5 5 6 5 5 w t                         ",
"                                                                                        u i r t &. X<X<X,X,X>XOXOXOXoX X[.`._.(.(.(.Q.!.R.R.I.F.a.I : - - : : < : < < : : : : : < 4 w w w w w w e r r r r r r t t t t t t t t t t t t r r r r r r r r r r r r r w t d j j j t r r w r w w w 5 < : : < : : : : : ; - # # 6 ` ) ) ] 7.y.G.R.W.(._.[.[. X X X|.[.[.[.`.`._.(.(.(.W.W.E.E.E.P.L.L.L.J.J.J.S.S.A.V.i.e.[ ] T G G F F F D A A A A s 7 2 # = - = # = - = # = ; : < < 4 5 5 5 5 5 w i                       ",
"                                                                                      u r w Q {.<X<X<X<X,X,X,X,X;XOXOXXX X[.[.[._._.(.Q.W.!.R.Y.D.y.) e - # = - : : < : : : : : : : < < 4 w w 5 w w e e e e r r r t r r t t t t r r r r w w w 6 w w w r r w w r w r t t t t t r w w w w w w 2 < < < : : : : - - = # # f ) ) ] ] 7.y.Z.L.W.(._.`.[.|. X X X X X|.[.[.`.`.`._.(.(.(./.W.E.E.E.E.E.P.L.J.J.H.S.Z.u.r.e.e.] ( K G G F F F F D A A A A 7 3 - - - - - - = = = ; : < 4 < 5 5 5 5 6 r                       ",
"                                                                                    i r t &.{.<X<X<X<X<X,X,X,X,X,X;XOXoXXX X{.{.[.].]._.Q.Q.!.R.F.a.w.) H 2 # # # - : : : : : : : : ; : < 4 4 5 5 w w w e e e e r r r r r t t t r w w w r w 5 w w 6 6 w w w w w w r t t t t t e w w w w w 5 2 < 2 2 : : : : - # # # - I _ ] ] 7.q.p.F.E.(.(.`.[.[. X XXXXX X X X X|.[.[.[.`.`._.(.(././.W.E.E.E.E.P.L.J.J.H.A.V.u.r.e.[ ] ( K G G G F F F D A A A A s 7 : - - - - - = # = ; < < < 5 5 5 5 5 w                       ",
"                                                                                  t i ~ Y.,X<X<X<X<X<X<X,X,X,X,X,X;X;XOXOXoXXX.X X{.[.[.]._.Q.!.R.F.a.q.7.` k : @ O # - - : : : : : - : : : < < 5 5 5 5 w w e e r r r r r r r r r w 6 5 w 5 5 5 5 5 5 5 6 w w w w r r t t t t r w w w w 5 2 2 2 2 2 < < : - $ # # = 6 ) ] 7.7.w.y.F.E.(._._.`.[. X XXXXXXXXX X X X X X|.|.[.[.`.`._.(.(./././.W.E.E.P.L.J.J.S.A.V.u.r.e.e.[ ( K J G G G F F F F F A A A 7 - - = - - - # # = ; < < < 5 5 5 5 6 r                     ",
"                                                                                g m s.OX2X2X2X2X<X<X<X<X,X,X,X,X,X,X;X;XOXOXOXoXXX.X.X{.[.]._.Q.W.R.Y.G.y.w._ ` k : O 1 # - - - : - - - ; ; : : < < 4 4 5 5 w e r r r e e e e r r w w 5 5 5 5 5 5 5 5 5 6 6 6 w 6 r r r r r t r 6 w w 5 5 < 2 2 < : : : - = # # = : I _ 7.7.w.y.D.!.(._._.`.[. X XXXXXXXXXXXXXXXXXXX X X X X|.[.[.`.`.(.(./././.W.E.E.P.L.J.J.S.Z.C.u.r.i.e.[ { T K J J G G G F F F D D A 3 - = - - ; - = = = ; < < 5 5 5 5 6 w                     ",
"                                                                              g ~ _.<X2X2X2X2X2X<X<X<X<X<X<X<X,X,X,X,X,X;X;X;X;XOXoXoX.X{.[.]._.Q.W.R.R.F.a.q.7.) Y e O O @ # - : - - - ; ; ; : : : < < 4 4 5 w r r r e 6 6 6 6 6 6 6 5 4 5 5 5 5 5 5 5 5 5 6 w 6 r r r r r r w 5 w w 5 2 2 < 2 : : - - = # # # = e ) ] 7.w.y.G.R._._.(.(.`. X XXXXXoXoXoXXXoXXXXXXXXXXX X X X|.[.[.`.`.(.(.(././.E.E.P.P.L.J.H.S.A.C.u.t.r.e.[ ] T K J J J G G F F F F F f : - - - - ; ; = # - : < 5 5 5 5 5 w                     ",
"                                                                            z s.+X<X2X2X2X2X2X<X<X<X<X<X<X<X<X<X,X,X,X,X,X,X,X,X;X;XOXoX.X{.[.]._.Q.W.R.R.U.G.y.7.) ` I 6 @ @ @ = - - - ; ; - ; ; ; ; : < 4 4 5 w e e w w 6 6 6 6 5 5 5 5 5 4 4 4 4 5 5 5 5 6 6 5 w w e r r r w w w 5 2 2 2 < : : : - = # # # = - I ) 7.w.y.a.R.(.].`././.`. XXXoXoXoXXXXXOXOXOXOXOXXXXXXX X X X|.[.`.`.`.(.(././.^.E.E.P.P.J.J.H.S.A.C.V.t.r.e.} ] ( K K J J J G G G F F F 7 - ; - = - ; - # = : < 5 5 5 5 5 6                     ",
"                                                                        m &.{.<X2X2X2X2X2X2X<X<X<X<X<X<X<X<X<X<X<X<X<X1X1X1X1X1X,X;X;XOXoX.X{.[.].].(.Q.W.R.Y.F.a.q.7.) ` H 3 @ O # # - ; ; : ; - - ; ; ; < < < 5 5 w w e e 6 5 5 5 5 5 5 < < < 4 4 4 5 5 5 5 5 5 6 w w r r 6 6 w w 5 2 < 2 < : : - - = # # # = e ) _ 7.p.G.Y.Q.[.[._./.(.[.XXoXoXOXOXOXOXOXOXOXOXOXOXXXXXXX X X|.[.[.`.`.`.(.(././.^.E.P.P.P.J.J.H.S.A.C.V.u.r.r.} [ { T K K K G G G G G G D 2 ; - = - - - - : : < < 4 5 5 5 6 r                   ",
"                                                                      &.Q.>X2X2X2X2X2X<X<X<X<X<X<X<X<X<X<X<X<X<X<X<X<X1X1X1X1X1X1X,X,X;XOXoX.X}.{.[.].(.Q.W.R.R.Y.D.y.w._ ) ` I 3 @ O # = - ; ; - - ; ; ; ; : < < 4 5 w e e 6 5 5 2 < < < < < < < 4 < < < < 5 5 5 6 6 w e e 6 w 6 5 < 2 2 2 < : : - - - - # # - I ) 7.q.D.R.Q.].[.].(.(.`. XoXOXOXOXOXOXOXOXOXOXOXOXOXXXXXXX X X X|.[.`.`.`.).(./././.E.E.P.P.J.J.J.H.S.A.C.V.u.t.r.e.[ ' ( L K K J J G G G G s - - - - - - : : ; ; < 4 4 5 5 6 w                   ",
"                                                                    G. X,X2X2X2X2X<X<X<X<X<X<X<X<X<X<X<X<X<X<X<X<X1X1X1X1X1X1X1X1X1X,X;X;X-XoX.X.X}.[.].].Q.W.!.R.Y.D.a.q.7.) ) ` s - @ # # = - - ; ; ; - - : : < < < 4 5 w 6 5 5 2 2 2 < < < < < : : < : : 4 5 5 5 5 w e e 6 w 5 < < 2 2 2 : : : - # - - = # 6 ) ] 7.y.R._.].[.[.].`.`.[. XOXOXOXOXOXOXOXOXOXOXOXOXOXXXXXXX X X X|.[.[.`.`.`.(././.^.E.E.P.K.K.J.J.H.H.A.A.C.V.u.r.r.e.[ ' ( T K K K J J J G F 3 - - ; - - ; - # # ; < < 5 5 6 w                   ",
"                                                                  ].XX,X2X2X2X2X2X<X<X<X<X<X<X<X<X<X<X<X<X<X<X<X,X1X1X1X1X1X1X1X1X1X1X,X;X;X-XoX.X.X}.[.].].Q.Q.W.R.R.F.G.y.w.7.) ` I f - @ @ - - - : - - - ; ; ; : < < 5 5 5 5 2 < 2 < < < < < < : : : : : < < 2 5 5 6 e e w w 5 5 5 2 2 < : : - # # # - - - I ) 7.w.a.Q.[.{.{.{.[.[.|. XXXOXOXOXOXOXOXOXOXOXOXOXOXOXXXXXXX X X X|.|.[.`.`.`.(././.^.E.E.P.P.K.J.J.H.H.S.A.A.C.V.u.t.r.e.[ ' ( T K K K K K K G s - - - - - ; - = = ; : < 5 5 6 e                   ",
"                                                              Q.XX>X2X2X2X2X2X2X2X<X<X<X<X<X<X<X<X<X<X<X<X<X,X,X1X1X1X1X1X1X1X1X1X1X1X1X,X,X;X-X-XoX.X}.{.[.].].Q.Q.!.R.Y.D.a.y.7.) ) ` H 2 @ @ # = - : - - ; - - ; : < < < < 5 5 5 < < < < < < : : : : : : < < < 5 5 6 r w w 5 < 2 2 2 < < : - = # # = - - f ) _ 7.y.U.].{.}..X.X XXXXXoXOXOX+X+XOXOXOXOXOXOXOXOXOXOXXXXXXX X X X|.|.|.|.`.`.)././.^.^.E.P.P.K.J.J.J.H.H.A.A.A.C.V.u.u.r.e.} [ { T Y Y K K K K F 7 - : : : : ; ; ; ; : < 5 5 5 w                   ",
"                                                            ].+X2X2X2X2X2X2X2X2X<X<X<X<X<X<X<X<X<X<X<X<X<X<X,X1X1X1X1X1X1X1X1X1X1X1X,X,X,X,X,X;X;X-XoX.X.X}.[.].].Q.Q.W.R.R.U.G.y.w._ ) ) Y f O @ @ = : - - - - - : : : : < < 4 5 5 < < < < < : : : : - ; ; : < < 5 5 6 e w w 5 < 2 2 2 : : : - - - - - - : Y ) 7.w.p.R.{..X.X.XoXOXOXOXOXOX+X>X+X+XOXOXOXOXOXOXOXOXOXXXXXXXXX X|.|.|.|.|.`.`.)././.^.^.E.E.P.K.J.J.J.H.H.S.A.A.A.V.V.V.t.r.e.e.[ { T T Y K K K J A 3 : : : : : : : : - ; < 2 5 5                   ",
"                                                        Q.XX,X2X2X2X2X2X2X2X2X<X<X<X<X<X<X<X<X<X<X<X<X<X<X<X1X1X1X1X1X1X1X1X1X1X1X1X,X,X,X,X,X,X,X;X;X-XoX.X}.{.].].Q.Q.W.!.R.Y.D.p.w.7.) ) ` s # @ @ = - - - - - : : : : < < < < < < < < < : : : : : - - - : < 5 5 5 5 w w w 5 5 2 2 < : - - - - - - - - f ) _ 7.q.D.(.}.oXOXOXOXOXOXOXOXOX>X>X+X>X+XOXOXOXOXOXOXOXOXXXXXoXXX X X X'.'.|.'.`.`.)././.^.^.E.P.K.K.J.J.H.H.S.A.A.A.Z.V.V.u.t.r.e.e.[ ' ( T T Y L K F s : : : : ; ; : : = = : < 5 5 6                 ",
"                                                       X,X2X4X4X2X2X2X2X2X2X2X<X<X<X<X<X<X<X<X<X<X<X<X<X,X1X1X1X1X1X1X1X1X1X1X1X,X,X,X,X,X,X,X,X,X,X;X;X-X-X.X}.{.].].].Q.Q.!.R.Y.F.a.y.7._ ) ` I 3 @ @ # - - - - - : - - : : : : < : < < < : - ; ; ; - - - : < 2 2 5 5 w 5 5 5 5 5 3 2 < - - - - - - - : I ) 7.w.p.R.]..XOX-X-X;X>X>X>XOXOXOX>X+X>X+XOXOXOXOXOXOXOXOXXXXXoXXX X X X X'.|.'.`.`.)././.^.^.E.P.K.K.J.J.J.H.S.A.A.A.A.Z.V.V.u.t.r.r.e.[ ' ( ( T T Y K D 6 : : : - - : : = # : < 5 5 5                 ",
"                                                  XX,X2X2X5X5X5X2X2X2X2X2X2X<X<X<X<X<X<X<X<X,X,X<X,X,X,X,X1X1X1X1X1X1X1X1X1X,X,X,X,X,X,X,X,X,X,X,X;X;X;X;X-XoXoX.X}.[.].].Q.Q.W.R.R.F.G.y.7.7.) ` ` k $ # # # - - - - - - : < : : < : < < : : : : ; - - - = : < < 2 5 5 w 5 2 < 2 2 2 2 < - - - - - - - a ) ] 7.w.D._.{.oX-X-X;X,X,X,X;XOXOXOX>X>X>X>XOXOXOXOXOXOXOXXXXXXXoXXX X X X X'.|.|.`.`.).(././.^.E.P.P.K.J.J.H.J.H.S.A.A.A.A.V.V.V.u.u.r.r.e.[ [ ' ( ( T T G A 2 : < : - : : - # - < < 5 5                 ",
"                                                +X<X2X2X5X5X2X2X2X2X2X2X2X<X<X<X<X<X<X<X,X,X<X,X,X,X,X,X,X,X1X1X1X1X1X1X1X,X,X,X,X,X,X,X,X,X,X,X,X;X;X;X;X-X-X-XoX.X}.{.].].Q.Q.W.R.R.U.G.y.w.7.) ) ` H : # @ = - - - - = ; < : : : : : < < ; : : ; - - - = ; : < 2 5 5 w 5 2 2 < < < : - - - - - - - : I _ 7.7.y.R.[..XoX-X;X;X,X,X,X;XOXOXOX>X>X>X+X+XOXOXOXOXOXOXXXXXXXXXXX X X X|. X'.|.`.`.).(././.^.E.P.P.K.J.J.J.J.H.S.A.A.A.A.Z.C.V.V.u.t.r.r.e.9.[ ' { ( T K D 7 : < : : : : ; - : < < 5 5 5               ",
"                                            +X,X2X2X2X4X5X2X2X2X2X2X<X<X<X<X<X<X<X<X<X<X<X,X,X,X,X,X,X,X,X,X1X1X1X1X,X,X,X,X,X,X,X,X,X,X,X,X,X,X;X;X;X;X;X-X-X-X-X-X.X}.}.].].].Q.W.R.R.U.G.p.w.7.) ) ` I f # @ = - - - = = ; ; ; - - : < < ; ; ; - - = = - ; : 2 2 5 w 5 5 5 5 2 2 < : - - - - - - - f ) ] 7.w.a.Q.}..X-X;X;X,X,X,X>X;XOXOX+X>X>X>X+XOXOXOXOXOXOXXXXXXXXXXXXX X X X|.|.'.'.'.`.`.)././.^.^.E.K.K.J.J.J.J.H.S.A.A.A.A.Z.Z.V.V.V.u.r.r.r.e.9.[ ] ' { T G A 6 < < < : : : : : : < < 5 5               ",
"                                        +X,X2X2X6X4X6X4X2X2X2X2X2X<X<X<X<X<X<X<X<X<X<X<X,X,X,X,X,X1X,X,X,X,X,X1X1X1X,X,X,X,X,X,X,X,X,X,X,X,X,X;X;X;X;X-X-X;X;X-X-X-X-X.X.X{.[.].].Q.W.!.R.U.D.p.w.7.] ) ` ` H - O # - - - - - ; ; - : : ; ; ; ; ; - - = = = ; : < 5 5 5 4 < 5 5 2 2 < : - - - - - - : ` ) 7.w.q.F.[..XOX-X;X,X,X,X,X>X>XOX+X>X>X>XOX+XOXOXOXOXOXOXXXXXXXXXXXXX X X X X X|.'.'.`.`.)././.^.^.E.P.K.K.J.J.J.J.H.A.A.A.A.Z.Z.C.V.V.u.t.r.r.i.e.e.[ [ ] ' Y F A 2 < < : : : : < : ; < 5 5 5             ",
"                                    +X,X2X6X6X6X6X6X5X2X2X2X2X<X<X<X<X<X<X<X<X<X<X<X<X<X<X,X,X,X,X,X1X1X1X,X,X,X,X,X,X,X,X,X,X,X,X,X,X;X;X;X;X;X;X;X-X-X-X;X;X;X-X-X-XoX.X.X{.[.].].Q.Q.!.R.Y.F.p.q.7.] ) ) ` I 6 # @ = - - - ; ; ; ; ; # = = ; ; ; - = = = - : < 5 w w < < 2 2 2 < - - - - - - - - s ) _ 7.0.p.W.}.oX-X;X,X,X,X,X,X>X;X;X>X>X>XOXOXOX+XOXOXXXOXOXXXXXXXXXXXXXXX X X X X|.|.'.`.`.)./././.^.^.E.K.K.J.J.J.J.H.S.A.A.A.A.Z.C.V.V.u.u.r.r.r.e.e.e.8.[ [ { G F f : : : ; ; : < - = : < < 5             ",
"                                  +X<X4X6X6X6X6X6X5X2X2X2X2X<X<X<X<X<X<X<X<X<X,X<X<X<X<X,X,X,X,X,X,X1X1X1X,X,X,X,X,X,X,X,X,X,X,X,X,X;X;X;X;X;X;X;X;X-X-X-X-X;X;X-X-X-X-XoX.X.X{.[.].].Q.W.!.R.Y.D.p.q.7.] ) ` ` Y f # @ = - - : ; - ; - 1 O & = - ; = = = = - : < 5 w 5 5 5 5 2 2 2 - = - - - - - - I ) 7.w.q.G.]..X-X-X;X,X,X,X,X,X>X>X;X>X>X>XOXOX>X>XOXOXXXXXOXXXXXXXXXXXXXXX X X X X|.|.'.`.`.).(././.^.^.E.E.K.J.J.J.J.H.H.A.A.A.A.Z.C.V.V.V.u.u.r.r.e.e.e.e.8.[ ] Y F A 2 : : : : : : = # - < < 5 5           ",
"                              +X,X2X6X6X6X6X6X4X2X2X2X2X<X<X<X<X<X<X<X<X<X<X,X,X<X,X,X,X,X,X,X,X,X,X,X,X,X,X,X,X,X,X,X,X,X,X,X,X,X;X;X;X;X;X;X;X-X-X-X-X-X-X-X-X-X-XOXoXoX.X.X.X{.[.].].(.Q.W.R.R.D.p.q.7.] ) ` ` ` H - O = - : : - = - = O O 1 # = = = = = - : 2 5 5 5 5 5 5 5 2 2 : = - - - - - 2 ) _ 7.w.y.R.{.oX-X;X,X,X,X,X,X,X>X>X>X>X>X>XOXOXOXOXOXOXOXOXOXXXXXXXXXXXXXXX X X X X|.|.'.`.).).)./././.^.^.E.K.K.J.J.J.H.H.S.A.A.A.Z.V.V.V.V.u.u.r.r.r.i.e.e.e.e.8.' K F f ; ; : : : : - @ - : < w 5           ",
"                          +X,X2X6X6X6X6X6X4X2X2X2X2X2X<X<X<X<X<X<X<X<X<X<X<X,X,X,X,X,X,X,X,X,X,X,X,X,X,X,X,X,X,X,X,X,X,X,X,X,X,X,X;X;X;X;X;X;X;X-X-X-X-X-X-X-X-XOXOXoX.XoX.X.X.X.X}.[.].].(.Q.W.R.R.F.a.y.8.] ) ) ` ` Y s # = - - - = = ; = = # O O # = = = - : 5 5 5 5 5 5 5 2 2 < - - - - - - - s _ 7.w.y.G.(..X-X;X,X,X,X,X,X,X>X>X>X>X>X>X>X+X+XOXOXOXOXOXOXXXXXXXXXXXXXXXXX X X X X|.|.'.`.).).)./././.^.^.E.E.P.K.J.J.J.H.H.A.A.A.C.V.V.V.V.u.u.r.r.r.i.e.e.e.e.e.8.( G F 3 - : < < < - @ # ; < 4 5 5         ",
"                      OX@X<X5X6X6X6X6X5X2X2X2X2X2X2X<X<X<X<X<X<X<X<X<X<X<X<X<X,X<X,X,X,X,X,X,X,X,X,X,X,X,X,X,X,X,X,X,X,X,X;X;X;X;X;X;X;X;X;X;XOX-X-X-X-X-X-X-XOXoXoXoXoX.XXX.X.X.X.X}.[.].].(.Q.E.R.~.D.a.y.8.7.) ) ` ` ` H - = - - - = ; ; ; - @ + O O 1 - : < 5 6 6 5 2 2 < < : : - - - - - - - I &.7.w.y.Y.{.oX-X;X,X,X,X,X;X,X>X>X,X,X>X>X>X>X+X+XOXOXOXOXOXXXXXXXXXXXXXXXXXXX X X X|.|.'.`.).).)././././.^.^.E.E.K.J.J.J.H.H.S.A.A.C.C.V.V.u.u.u.r.r.r.r.e.e.e.e.e.e.[ K F A 2 : : < < ; # # ; < < 5 5         ",
"                    +X,X2X2X3X6X6X6X5X2X2X2X2X2X2X2X<X<X<X<X<X<X<X<X<X<X<X<X,X,X,X,X,X,X,X,X,X,X,X,X,X,X,X,X,X,X,X,X;X;X;X;X;X,X;X;X;X;X;X;XOXOXOX-X-XOXOXOXOXOXoXoXXXXXXX.X.X.X.X.X.X}.[.].].(.Q.E.R.F.D.Z.y.q.7.] ) ) ` ` I 3 - - - ; ; ; ; : - O + O O - : 5 5 6 5 5 5 2 < < : : - - - - - - : ) 7.w.q.a.W..X-X;X,X,X,X,X,X;X,X,X>X>X>X>X>X>X>X+X+XOXOXOXOXOXXXXXXXXXXXXXXXXXXX X X X|.|.'.`.`.).)././././.^.^.^.E.K.K.J.J.H.H.S.A.A.A.C.V.V.u.u.t.r.r.r.r.e.e.e.e.e.e.8.( J F f : : : : ; # # - : < 4 < 5       ",
"              XX+X,X2X2X2X2X2X2X2X2X2X2X2X2X2X2X<X<X<X<X<X<X<X<X<X<X<X<X<X,X,X,X,X,X,X,X,X,X,X,X,X,X,X,X,X,X,X,X,X,X,X,X;X;X;X;X;X;X;X-X-X-XOXOXOXOXOXOXOXoXoXoXoXXX.X.X.X.X.X.X.X.X.X.X}.[.[._.Q.W.E.R.F.F.G.y.q.8.7.] ) ) ` Y k : : : : : ; ; : # + + O - < 5 5 5 5 5 5 5 2 2 < : - : : : - - f ) 7.0.y.F.].oX;X;X,X,X,X,X,X;X,X,X,X>X>X>X>X>X+X+XOXOXOXXXOXOXOXOXXXXXXXXXXXXXXX X X X|.|.|.`.`.).).(././././.^.^.E.E.K.K.J.J.H.H.S.A.A.C.C.V.V.u.t.r.r.r.r.r.e.e.e.9.e.e.[ Y G H 5 : : : ; # # = ; : < < <       ",
"            +X,X2X6X6X2X2X2X2X2X2X2X2X2X2X2X2X2X<X<X<X<X<X<X<X<X<X<X,X,X,X,X,X,X,X,X,X,X,X,X,X,X,X,X,X,X,X,X,X,X,X,X,X;X;X;X;X;X;X-X-X-XOXOXOXOXOXOXOXOXoXoXoXXXXX.X.X.X.X.X.X.X.X.X.X.X.X{.[.].(.(.Q.E.R.R.F.D.a.y.q.7.7.] ) ) ` f - : : : ; ; ; - @ + O : < w w 6 5 2 2 2 2 < < : - : : : - - I ) 7.q.p.W..X-X;X,X,X;X,X,X;X;X,X,X>X>X>X>X>X>X+X+XOXOXOXXXOXOXOXOXOXXXXXXXXXXXXXXX X X X|.|.[.`.).).).(./././.^.^.E.E.E.K.J.J.H.H.S.S.A.A.C.C.V.u.t.r.r.r.r.t.e.e.e.9.9.9.8.( K G s 2 < : ; - # = - : < < < 5     ",
"        XX+X<X4X6X6X3X2X2X2X2X2X2X2X2X2X2X2X2X2X<X<X<X<X<X<X<X<X<X,X,X,X,X,X,X,X,X,X,X,X,X,X,X,X,X,X,X,X,X,X,X,X,X;X;X;X;X;X-X;X-X;X-X;XOXOXOXOXOXOXoXoXoXoXXXXX.X.X.X.X.X.X.X X X X.X}.{.{.{.[.].(.(.Q.E.E.R.J.D.a.y.q.8.7.] ) ) I : - : : : ; ; ; = O @ : 5 w w 5 5 < < < < < - - - - - - - 2 ) _ w.y.D.].oX;X,X,X,X;X,X,X;X;X,X,X>X>X>X>X>X>X+X+XOXOXOXOXXXOXOXOXOXXXXXXXXXXXXXXX X X X|.|.|.`.`.).).)./././.^.^.^.E.E.E.K.J.J.H.H.S.A.A.A.C.V.u.t.t.r.r.r.t.e.e.e.9.9.9.9.] Y K F 6 < : ; - = - - : : < < <     ",
"    XX+X<X2X6X6X6X6X3X2X2X2X2X2X2X2X2X2X2X2X2X<X<X<X<X<X<X<X<X,X,X,X,X,X,X,X,X,X,X,X,X,X,X,X,X,X,X,X,X,X,X,X,X;X;X;X;X;X;X-X-XOXOXOX;X-XOXOXOXOXoXoXoXoXXXXXXX.X.X.X.X.X.X X X X X{.{.{.{.{.{.[.[.]._._.(.(.Q.W.R.F.Z.y.y.q.8.7.] ) s - ; : : : - = = # = 2 5 6 5 5 < < < < < : - # # - - - - H ) 7.q.a.W.oX;X,X,X,X,X;X,X,X;X;X,X>X>X>X>X>X>X>X+X+XOXOXOXOXOXOXOXOXOXXXXXXXXXXXXXXXXX X X X|.|.|.[.).).).)././././.^.^.E.E.K.K.J.H.H.H.S.A.A.A.C.V.u.t.r.r.r.r.i.e.e.9.9.9.9.8.( T Y H 5 < : - - - - - : < < < 5   "
};
