/* XPM */
static char *_42546f5a5c5459cea1174681299d122Eqsw2ubZIN02tIvD[] = {
/* columns rows colors chars-per-pixel */
"250 250 206 2 ",
"   c None",
".  c #040404",
"X  c #080707",
"o  c #070709",
"O  c #080708",
"+  c #07080B",
"@  c #0B0B0C",
"#  c #070807",
"$  c #100F0C",
"%  c #13120E",
"&  c #0C0E11",
"*  c #0E1114",
"=  c #0F1419",
"-  c #141513",
";  c #191612",
":  c #171814",
">  c #1A1A15",
",  c #13161A",
"<  c #15191D",
"1  c #1C1D1A",
"2  c #100F10",
"3  c #231B16",
"4  c #211E1A",
"5  c #2A1E18",
"6  c #1F201C",
"7  c #23231D",
"8  c #2A241E",
"9  c #3B281F",
"0  c #36251D",
"q  c #161C21",
"w  c #1B1E22",
"e  c #201F23",
"r  c #1D2124",
"t  c #1D2429",
"y  c #172023",
"u  c #242522",
"i  c #282721",
"p  c #262923",
"a  c #2B2B25",
"s  c #232629",
"d  c #26292C",
"f  c #2C2E2A",
"g  c #282728",
"h  c #312E26",
"j  c #3E2B22",
"k  c #302F28",
"l  c #362B24",
"z  c #2E312B",
"x  c #33332C",
"c  c #39362E",
"v  c #35382F",
"b  c #39382F",
"n  c #353027",
"m  c #2B2E31",
"M  c #272C31",
"N  c #2E3134",
"B  c #2F363B",
"V  c #343632",
"C  c #383730",
"Z  c #363931",
"A  c #3B3C34",
"S  c #333639",
"D  c #36393C",
"F  c #3B3D3B",
"G  c #432D23",
"H  c #463025",
"J  c #493126",
"K  c #44352C",
"L  c #4D3529",
"P  c #4C392E",
"I  c #50372B",
"U  c #53392D",
"Y  c #583C2F",
"T  c #413E36",
"R  c #4C3B32",
"E  c #403F38",
"W  c #543E33",
"Q  c #5A3E31",
"!  c #3D4037",
"~  c #3E413A",
"^  c #404037",
"/  c #42443C",
"(  c #45483F",
")  c #49493F",
"_  c #4D4239",
"`  c #5D4134",
"'  c #574339",
"]  c #5C453A",
"[  c #5E483D",
"{  c #554136",
"}  c #624436",
"|  c #61473A",
" . c #634A3C",
".. c #6A4C3D",
"X. c #71503F",
"o. c #3B3E41",
"O. c #353B41",
"+. c #3E4145",
"@. c #3D444A",
"#. c #424543",
"$. c #454941",
"%. c #4A4C44",
"&. c #424649",
"*. c #454A4D",
"=. c #494C4E",
"-. c #4D5047",
";. c #4E5149",
":. c #52534B",
">. c #53534A",
",. c #454C52",
"<. c #4A4E51",
"1. c #4D5155",
"2. c #4E5459",
"3. c #515556",
"4. c #525659",
"5. c #55595C",
"6. c #595B55",
"7. c #574940",
"8. c #644D41",
"9. c #6A4E40",
"0. c #6B5144",
"q. c #6D5549",
"w. c #675347",
"e. c #735343",
"r. c #795645",
"t. c #7B5847",
"y. c #72574A",
"u. c #745A4C",
"i. c #7C5B4A",
"p. c #795E51",
"a. c #775C50",
"s. c #7E6254",
"d. c #776051",
"f. c #555B61",
"g. c #595E62",
"h. c #5C6165",
"j. c #5D646A",
"k. c #576167",
"l. c #5E6871",
"z. c #61676A",
"x. c #646A6D",
"c. c #66696A",
"v. c #656B71",
"b. c #696E73",
"n. c #6D7276",
"m. c #6B7175",
"M. c #6E7479",
"N. c #6D747A",
"B. c #6C767D",
"V. c #71767A",
"C. c #71777C",
"Z. c #73797D",
"A. c #707576",
"S. c #815E4C",
"D. c #83604E",
"F. c #856453",
"G. c #8A6553",
"H. c #8D6956",
"J. c #86695A",
"K. c #8C6B5B",
"L. c #846758",
"P. c #926A56",
"I. c #936E5B",
"U. c #996F5C",
"Y. c #94715E",
"T. c #9A725E",
"R. c #8B705F",
"E. c #8C6F60",
"W. c #8E7162",
"Q. c #947463",
"!. c #9B7562",
"~. c #9D7966",
"^. c #9D7C6B",
"/. c #977868",
"(. c #A27A66",
"). c #A37E6A",
"_. c #A37965",
"`. c #A5806D",
"'. c #AA826E",
"]. c #A58371",
"[. c #AC8572",
"{. c #AD8975",
"}. c #AE8A78",
"|. c #B18772",
" X c #B38A75",
".X c #B38D79",
"XX c #BA8E7A",
"oX c #B88B77",
"OX c #B6907C",
"+X c #BB927C",
"@X c #B89077",
"#X c #C2957E",
"$X c #C2987F",
"%X c #747C82",
"&X c #787F86",
"*X c #7B838B",
"=X c #7A8389",
"-X c #798490",
";X c #848E94",
":X c #879196",
">X c #BD9681",
",X c #BF9883",
"<X c #8D97A6",
"1X c #C49984",
"2X c #CA9B85",
"3X c #C99B85",
/* pixels */
"                                                                                                                                                                                                                                                                                                                                                                                                                                                                                                                    ",
"                                                                                                                                                                                                                                                                                                                                                                                                                                                                                                                    ",
"                                                                                                                                                                                                                                                                                                                                                                                                                                                                                                                    ",
"                                                                                                                                                                                                                                                                                                                                                                                                                                                                                                                    ",
"                                                                                                                                                                                                                                                                                                                                                                                                                                                                                                                    ",
"                                                                                                                                                                                                                                                                                                                                                                                                                                                                                                                    ",
"                                                                                                                                                                                                                                                                                                                                                                                                                                                                                                                    ",
"                                                                                                                                                                                                                                                                                                                                                                                                                                                                                                                    ",
"                                                                                                                                                                                                                                                                                                                                                                                                                                                                                                                    ",
"                                                                                                                                                                                                                                                                                                                                                                                                                                                                                                                    ",
"                                                                                                                                                                                                                                                                                                                                                                                                                                                                                                                    ",
"                                                                                                                                                                                                                                                                                                                                                                                                                                                                                                                    ",
"                                                                                                                                                                                                                                                                                                                                                                                                                                                                                                                    ",
"                                                                                                                                                                                                                                                                                                                                                                                                                                                                                                                    ",
"                                                                                                                                                                                                                                                                                                                                                                                                                                                                                                                    ",
"                                                                                                                                                                                                                                                                                                                                                                                                                                                                                                                    ",
"                                                                                                                                                                                                                                                                                                                                                                                                                                                                                                                    ",
"                                                                                                                                                                                                                                                                                                                                                                                                                                                                                                                    ",
"                                                                                                                                                                                                                                                                                                                                                                                                                                                                                                                    ",
"                                                                                                                                                                                                                                                                                                                                                                                                                                                                                                                    ",
"                                                                                                                                                                                                                                                                                                                                                                                                                                                                                                                    ",
"                                                                                                                                                                                                                                                                                                                                                                                                                                                                                                                    ",
"                                                                                                                                                                                                                                                                                                                                                                                                                                                                                                                    ",
"                                                                                                                                                                                                                                                                                                                                                                                                                                                                                                                    ",
"                                                                                                                                                                                                                                                                                                                                                                                                                                                                                                                    ",
"                                                                                                                                                                                                                                                                                                                                                                                                                                                                                                                    ",
"                                                                                                                                                                                                                                                                                                                                                                                                                                                                                                                    ",
"                                                                                                                                                                                                                                                                                                                                                                                                                                                                                                                    ",
"                                                                                                                                                                                                                                                                                                                                                                                                                                                                                                                    ",
"                                                                                                                                                                                                                                                                                                                                                                                                                                                                                                                    ",
"                                                                                                                                                                                                                                                                                                                                                                                                                                                                                                                    ",
"                                                                                                                                                                                                                                                                                                                                                                                                                                                                                                                    ",
"                                                                                                                                                                                                                                                                                                                                                                                                                                                                                                                    ",
"                                                                                                                                                                                                                                                                                                                                                                                                                                                                                                                    ",
"                                                                                                                                                                                                                                                                                                                                                                                                                                                                                                                    ",
"                                                                                                                                                                                                                                                                                                                                                                                                                                                                                                                    ",
"                                                                                                                                                                                                                                                                                                                                                                                                                                                                                                                    ",
"                                                                                                                                                                                                                                                                                                                                                                                                                                                                                                                    ",
"                                                                                                                                                                                                                                                                                                                                                                                                                                                                                                                    ",
"                                                                                                                                                                                                                                                                                                                                                                                                                                                                                                                    ",
"                                                                                                                                                                                                                                                                                                                                                                                                                                                                                                                    ",
"                                                                                                                                                                                                                                                                                                                                                                                                                                                                                                                    ",
"                                                                                                                                                                                                                                                                                                                                                                                                                                                                                                                    ",
"                                                                                                                                                                                                                                                                                                                                                                                                                                                                                                                    ",
"                                                                                                                                                                                                                                                                                                                                                                                                                                                                                                                    ",
"                                                                                                                                                                                                                                                                                                                                                                                                                                                                                                                    ",
"                                                                                                                                                                                                                                                                                                                                                                                                                                                                                                                    ",
"                                                                                                                                                                                                                                                                                                                                                                                                                                                                                                                    ",
"                                                                                                                                                                                                                                                                                                                                                                                                                                                                                                                    ",
"                                                                                                                                                                                                                                                                                                                                                                                                                                                                                                                    ",
"                                                                                                                                                                                                                                                                          1.2.4.*.                                                                                                                                                                                                                                  ",
"                                                                                                                                                                                                                                                                          D 5.b.D                                                                                                                                                                                                                                   ",
"                                                                                                                                                                                                                                                                          N S #.d                                                                                                                                                                                                                                   ",
"                                                                                                                                                                                                                                                                          N , , q                                                                                                                                                                                                                                   ",
"                                                                                                                                                                                                                                                                          m , , 1                                                                                                                                                                                                                                   ",
"                                                                                                                                                                                                                                                                          m , - <                                                                                                                                                                                                                                   ",
"                                                                                                                                                                                                                                                                  o.o.+.=.N , & , S D                                                                                                                                                                                                                               ",
"                                                                                                                                                                                                                                                                  s <.,.,.*.+.N s d d m &.                                                                                                                                                                                                                          ",
"                                                                                                                                                                                                                                                                *.s &.o.O.O.D S m s s s F                                                                                                                                                                                                                           ",
"                                                                                                                                                                                                                                                      <.B.Z.M.m.h.&.o.D D S S S N f s s S g.x.b.m.                                                                                                                                                                                                                  ",
"                                                                                                                                                                                                                                                    <.*.1.M.%XZ.m.x.h.g.5.4.1.1.1.4.5.5.h.b.V.V.Z.%X%X                                                                                                                                                                                                              ",
"                                                                                                                                                                                                                                                    1.<.<.4.b.%XZ.M.m.b.z.h.g.g.h.z.x.v.N.C.V.C.Z.%X%X%XC.                                                                                                                                                                                                          ",
"                                                                                                                                                                                                                                                  =.<.3.4.3.5.N.%XV.V.m.b.x.z.z.x.b.m.m.m.M.M.M.N.M.V.V.V.M.                                                                                                                                                                                                        ",
"                                                                                                                                                                                                                                                  <.<.1.4.4.5.g.%X=X%XZ.V.m.b.b.b.A.V.V.V.V.V.Z.Z.Z.C.V.Z.C.Z.Z.                                                                                                                                                                                                    ",
"                                                                                                                                                                                                                                                  *.<.<.1.4.5.5.h.%X=XZ.V.m.m.b.m.m.V.C.Z.Z.Z.Z.V.C.Z.Z.V.C.C.C.B.M.                                                                                                                                                                                                ",
"                                                                                                                                                                                                                                                  &.*.<.=.4.4.5.h.h.%X=Xm.b.b.m.m.m.M.V.V.Z.Z.C.C.C.M.N.m.m.M.M.M.M.B.                                                                                                                                                                                              ",
"                                                                                                                                                                                                                                                  &.&.*.<.1.1.5.g.h.z.&X*XM.b.b.m.m.m.M.M.M.m.m.m.m.m.m.M.m.m.A.V.V.C.M.M.                                                                                                                                                                                          ",
"                                                                                                                                                                                                                                                  &.&.&.*.1.1.4.5.g.h.h.%XN.1.<.<.*.,.=.*.*.=.<.*.<.<.<.<.<.=.<.<.<.1.1.<.<.5.                                                                                                                                                                                      ",
"                                                                                                                                                                                                                                                  #.&.&.&.*.1.4.4.5.5.5.*.d < w d d d d d d m m m m m f f d g g s s s d s s o.v.f.1.<.,.o.        V *.2.<.1.1.<.                                                                                                                                                    ",
"                                                                                                                                                                                                                                                  +.&.&.&.&.<.4.4.4.4.5.m < , D g.j.4.1.1.1.1.1.<.*.&.&.&.+.o.F D S S V N V F F t w o.S ,         N d u o.D 1 t d                                                                                                                                                   ",
"                                                                                                                                                                                                                                                  &.#.&.&.&.&.<.4.4.4.1.s 1 u S ,.v.j.j.j.h.h.h.5.4.1.&.+.o.D S N m f d u f o.N , s c.h.1 >       o.d m b.c.1 , 1                                                                                                                                                   ",
"                                                                                                                                                                                                                                                  #.+.+.&.&.&.*.2.4.g.4.m d s s m v.B.j.z.z.z.z.z.x.v.x.v.v.v.v.v.v.v.x.z.5.o.f , , w 1 , N h.h.4.&.V 1 w u , , ,                                                                                                                                                   ",
"                                                                                                                                                                                                                                                  +.+.+.&.&.&.&.*.<.4.4.o.D d s =.v.-XC.b.b.b.b.b.m.m.m.m.m.m.N.M.C.C.v.g.4.o.d - , , , < S g.f.2.*.D < , , - - ,                                                                                                                                                   ",
"                                                                                                                                                                                                                                                  +.+.+.&.&.&.&.&.&.*.4.2.&.o.+.5.h.x.=X%Xm.b.b.b.m.m.m.m.m.m.b.j.z.j.g.f.1.+.d , , , , < m <.1.2.1.+., , - - - ,                                                                                                                                                   ",
"                                                                                                                                                                                                                                                  +.+.+.&.&.&.&.&.+.+.*.4.g.2.5.5.5.h.z.%X%Xm.b.b.b.m.m.m.m.b.h.&.o.D <.1.<.&.f , , , , , 1 s s u d s , , - , , <                                                                                                                                                   ",
"                                                                                                                                                                                                                                                #.+.+.+.&.&.&.&.&.@.+.+.*.5.h.5.5.5.g.h.z.M.%Xm.m.N.m.b.m.b.h.<.+.t w o.+.+.o.N 1 1 1 , , < 1 , , 1 1 1 1 1 , , w                                                                                                                                                   ",
"                                                                                                                                                                                                                                                #.+.+.+.&.&.&.*.&.+.+.+.&.<.1.5.5.5.g.h.h.z.%X=XM.N.N.m.m.b.2.,.F < 1 S S D D N d s u r 1 1 1 > 1 1 r s t s w q u                                                                                                                                                   ",
"                                                                                                                                                                                                                                                *.+.o.+.#.+.&.*.&.+.+.+.+.&.&.=.1.5.g.h.h.h.z.M.%Xm.b.m.b.5.*.+.f , 1 m m D 1.&.o.D D S V S S S S S S S S S S S D 1.g.                                                                                                                                              ",
"                                                                                                                                                                                                                                              g.<.+.+.o.+.+.&.*.&.&.+.+.+.=.*.&.&.=.4.g.h.h.h.h.x.*XM.b.x.5.+.S r , 1 u s D @.f.&.+.@.&.&.*.<.,.,.*.&.+.+.o.o.o.&.*.,.,.#.                                                                                                                                          ",
"                                                                                                                                                                                                                                              1.4.*.+.o.+.+.&.*.*.&.+.+.*.4.<.&.*.*.*.<.4.g.h.h.h.b.:X%Xv.z.4.F d s s 1 r D o.S , , , , , , < < < < < , , , , , , , , < , s                                                                                                                                         ",
"                                                                                                                                                                                                                                              *.1.<.&.+.o.+.&.*.&.&.#.+.1.4.1.*.*.=.*.=.<.3.5.h.j.j.B.;X%Xx.h.5.1.*.#.N s D D d , = = - - - - , , , , - - - - - - , , , - w                                                                                                                                         ",
"                                                                                                                                                                                                                                              #.*.1.<.@.o.+.&.*.*.&.&.#.1.1.1.<.<.<.=.=.1.1.1.5.h.h.j.m.*XC.j.5.4.1.*.+.S S D w < , , , , < < < < < , , , , < , < 1 , , , <                                                                                                                                         ",
"                                                                                                                                                                                                                                              +.+.<.1.*.+.o.+.&.*.&.*.#.&.*.<.4.1.<.<.<.1.3.3.5.5.5.h.x.N.*XC.h.2.<.*.+.V S S 1 q q q q q w w w w q q q q w w 1 q q q q q q V g.                                                                                                                                    ",
"                                                                                                                                                                                                                                              +.+.&.1.<.&.o.o.+.&.&.*.&.+.&.,.4.1.1.1.1.3.4.5.5.5.5.g.z.b.Z.;X%Xg.1.,.+.m S m 1 t t t w w t t t r w q 1 1 w w q q w t t t s s <.j.                                                                                                                                  ",
"                                                                                                                                                                                                                                              +.o.+.&.1.*.&.+.o.+.&.*.&.o.o.&.,.1.1.3.1.4.5.5.5.g.g.z.z.x.m.%X:X;Xz.5.1.o.N t q s s s d M m m m m d s d f f m M d s s s s s q D 5.h.b.                                                                                                                              ",
"                                                                                                                                                                                                                                                o.o.+.*.1.*.&.o.o.+.*.&.o.o.o.&.<.<.<.<.1.1.3.4.5.g.h.z.x.v.m.C.<X;X4.1.<.*.o.S D S S S V V S V V S V V N V N N S S S D o.D o.o.&.*.2.g.                                                                                                                            ",
"                                                                                                                                                                                                                                                o.o.+.+.<.<.*.#.o.o.&.&.o.o.o.o.#.+.o.&.&.*.*.*.<.3.5.5.h.h.z.z.Z.<.d s s s s u s s s s s u u s r u u u u u s u s s d m s s d s d d m m 1.                                                                                                                          ",
"                                                                                                                                                                                                                                                  F o.+.*.1.<.*.+.o.o.+.o.o.o.o.F D F +.&.&.&.*.=.1.3.5.5.g.h.x.g.m s s s s s s u s d d 1 > > , - - , , , , , 1 1 1 r s s u s s u d d u N o.                                                                                                                        ",
"                                                                                                                                                                                                                                                  o.o.o.+.<.4.*.&.o.F o.o.F F F D N S D +.*.*.*.*.<.3.4.4.5.h.h.S s s s s s u u s d f & . . . . . . . O . o . X . . o @ r d u u u s d u d m                                                                                                                         ",
"                                                                                                                                                                                                                                                    F o.+.+.=.=.&.+.o.o.o.F F F S N N S F +.&.*.*.=.1.1.3.5.h.o.d s s s s d s p s m - . . . . . . . . . . . . . . . . @ @ s s u u p d s s d m                                                                                                                       ",
"                                                                                                                                                                                                                                                      F o.+.+.*.*.&.o.F o.F F F S N N N D F &.*.*.*.<.<.1.g.*.m d d s s s u u u p s . . . . . . . . O O . . . . . . . @ o - d u s s s s s s s g                                                                                                                     ",
"                                                                                                                                                                                                                                                      F o.o.o.&.*.&.+.F F F F D S N V m S S +.*.*.*.=.=.1.1.N d s d d d p s u r r w . . . o o O @ @ @ @ @ X . . . . . @ O * f s s s s u d d d f                                                                                                                     ",
"                                                                                                                                                                                                                                                        F o.o.o.*.*.+.o.F F D D S S S f N N D +.*.*.*.=.1.S d d s s s s p s s w r 1 . . o o @ @ @ @ @ O @ X X o . . O + @ @ g u s s s s d d d d d                                                                                                                   ",
"                                                                                                                                                                                                                                                          o.o.o.+.*.&.#.F F D D S D S d m m N S +.*.=.<.&.d s d s u s s s s s s t 1 @ . o O O @ @ @ @ @ @ @ X X . . O + O @ p u u s s s d m d d d m                                                                                                                 ",
"                                                                                                                                                                                                                                                          o.F F o.&.*.&.F F D D S S S m d d m N D &.*.=.D d s s s u s u s s s t t 1 @ . o @ @ @ O @ @ @ @ @ @ X . o o @ @ @ d p u s s s d d d d d f                                                                                                                 ",
"                                                                                                                                                                                                                                                            F F F o.*.&.F F F D V N N f d d d f N &.<.&.m s d s d s u p p u s t t 1 @ . O + + @ @ @ @ @ @ @ @ O O . o o O . d s d s s s d d d f m d S                                                                                                               ",
"                                                                                                                                                                                                                                                            F F F F o.+.F F D D V S N d m d d d N =.1.+.d s s s d p u u u s s s t q @ . @ + + @ - 2 @ + + + @ O o . . o O . d s s s d s s d d d m d N #.                                                                                                            ",
"                                                                                                                                                                                                                                                            o.D F F O.O.F F F D V V N M f d d d f +.*.o.d s u s s p u u s s s t u r + o @ + & 1 s s w - + + @ o . . . O . . u s s u u u s d d d d d m +.                                                                                                            ",
"                                                                                                                                                                                                                                                            +.F F F F F O.F F D S V V f m s s d d D o.D s s s s s s s s u s s s t q @ O + + , u m m d q @ @ O . . . . o o . t s s s s s d d m m m d s F                                                                                                             ",
"                                                                                                                                                                                                                                                            +.o.F D F F F D F D V V S d m d d d m D o.D s s d s d s s s u u u s u q & O + - q M S D m r , @ O O O . . O . . 1 s s s s s s d N N V m m +.                                                                                                            ",
"                                                                                                                                                                                                                                                              o.D D D F F F D D V S S d d m m d m D F D d s s s d s s s u s s w w 1 @ @ + * 1 d S S d , - + @ O @ X O @ O . > r t s s s d f f N m d d o.                                                                                                            ",
"                                                                                                                                                                                                                                                              o.D D D D F F F D S V V d d m m d f D D S s s s s s s d s s s u w w 1 @ @ @ @ - w s s 1 - & + @ @ @ O O @ X . , w w s u u d g d m d d d D                                                                                                             ",
"                                                                                                                                                                                                                                                              o.O.D D D F F F D S N N d d M m d f D D V s u s s s d s s s s s w 1 1 - @ @ + @ - , , * + @ @ + + @ @ @ @ o . , w e s s s u s d d s s d S                                                                                                             ",
"                                                                                                                                                                                                                                                              o.o.D V D F F D D D N S d f d M d d D D N s s s s s s s s s s s u 1 1 - + + @ + + + + @ + @ & + + @ @ o @ o . - 1 r r t s s p s s u u s N                                                                                                             ",
"                                                                                                                                                                                                                                                              F o.o.d D D F F D S N D d m d M d s S D m s s s s s s t t s s s w w 1 - + @ @ @ @ @ + @ & & + + + o O O @ O . * < q r t t s u s u u u s N F                                                                                                           ",
"                                                                                                                                                                                                                                                                o.o.m o.D F F D D N D d m m m s s D D S d s s s s s s s s s t r w q - + @ @ @ @ & @ & & & @ + + o X o @ @ . * < r t t s s u s p u u s m F                                                                                                           ",
"                                                                                                                                                                                                                                                                D +.2.5.o.D F D D N N d N N m s s D S N s s s s s s s s s s t t r q - @ @ & & @ @ @ @ + @ & + + @ . o @ @ . & < t u u s u s d s s s d m D                                                                                                           ",
"                                                                                                                                                                                                                                                                  j.j.g.1.o.F D D V N d m N m s s D S N s t s s s s s t t t t r r q , @ @ @ & & @ & @ @ @ @ @ + @ o @ @ @ . @ < w s s s s u s d s s s m D                                                                                                           ",
"                                                                                                                                                                                                                                                                  z.h.g.j.<.F D D N m d d f d s s D S N s s s u s s s t t t t w r q , @ & & & & & * @ @ @ @ + + @ @ @ + @ . & < q s u u s u s s s s s m D                                                                                                           ",
"                                                                                                                                                                                                                                                                  5.g.j.j.k.+.D D N f d d d d s s D S m s t s s s s s t s s t w q q , @ & & & & & & @ @ + + + + + @ @ @ @ . @ 1 t s u u u u u s s s s m D                                                                                                           ",
"                                                                                                                                                                                                                                                                  &.f.k.l.l.1.D D m d d f m m s d D S m s t s s s s t s s u s r r r , @ @ & & & & & @ @ + + + + + O @ @ O . @ 1 t s s u s s u s s s s m D                                                                                                           ",
"                                                                                                                                                                                                                                                                  D ,.j.v.l.2.D S m d d m N m s d D S m s s s s s s t s s s s t s u 1 @ @ & & & & & & + + + @ @ o o @ @ @ . @ w t s s s s d p u s s s M S                                                                                                           ",
"                                                                                                                                                                                                                                                                  V +.m.j.f.@.N S m d m N S N s s S V d s t s s u s s s t s s t r r 1 @ @ & & & & & @ @ @ @ @ @ @ o @ @ O . @ t s u s s u s u s s s s d V                                                                                                           ",
"                                                                                                                                                                                                                                                                    V 2.@.D N +.+.m d m N S N d s V V m s t s s s s s s t t t w 1 w 1 @ @ @ & @ @ @ @ + @ + + @ + o @ @ O . + q t u s u u u u u s s s d V                                                                                                           ",
"                                                                                                                                                                                                                                                                    S N N f u +.,.m d d m B m d s S S m s t t s u u u s t r r q 1 1 1 @ @ @ @ @ @ + + @ @ @ + @ @ o o o O . @ q t s s s t w r t r s s d N                                                                                                           ",
"                                                                                                                                                                                                                                                                      d p u 1 D ,.B d s M N m d d S V m t w w t t r r w w 1 1 1 q q 1 @ @ @ + @ + + @ @ @ @ @ @ O O o o o . @ < q q w w w q q w 1 r s s N                                                                                                           ",
"                                                                                                                                                                                                                                                                        g p p D ,.@.M s d N m d d V S m s t t t s u w r 1 1 1 1 1 q 1 @ @ @ @ @ O O @ O O X O . . . . . . . @ < 1 q 1 1 q 1 q r r w s s f                                                                                                           ",
"                                                                                                                                                                                                                                                                            V o.,.,.O.d d N m d d S S m s t t r S d 1 1 , , - , , , - @ X . X . . . . . . . . . . . . . . . . @ & & @ & & & - - 1 w w s g F                                                                                                         ",
"                                                                                                                                                                                                                                                                            S o.@.,.@.M d N m d f D S f t t t t N @ . . . . . . . . . . . . . . . . . . . . . . . . . . . . . . . . . . . . . . - w w s d F                                                                                                         ",
"                                                                                                                                                                                                                                                                            D o.+.,.@.m d N f d d D S m s t t t N @ . . . . . . . . . . . . . . . . . . . . . . . . . . . . . . . . . . . . . . - s w e d D                                                                                                         ",
"                                                                                                                                                                                                                                                                            F o.o.+.@.B d m d d d S S m s s t w d @ . . . . . . . . . . @ 1 , < , , , , , , , , , , @ . . . . . . . . . . . . . & s w s d S                                                                                                         ",
"                                                                                                                                                                                                                                                                            o.D D D +.@.N f d d s S S f s s t t s & . . . . . . . . . . & s w w w t w q q q q 1 q t 1 . . . . . . . . . . . . . @ w r s s S                                                                                                         ",
"                                                                                                                                                                                                                                                                            +.D D B D ,.O.D d s s V S f s w w t d - . . . . . . . . . . - s s s s s t t t t t t t s q . . . . . . . . @ . . . . @ 1 w s s V                                                                                                         ",
"                                                                                                                                                                                                                                                                            +.D S N B ,.+.O.m d s S S f u t w w d - . . . . . . . . . . - s s s s t w w w w q q w t w @ . X . . . . @ @ @ . . . @ , q r s m                                                                                                         ",
"                                                                                                                                                                                                                                                                            #.D S m N *.+.O.m d d S V d s t t t s > @ @ @ @ @ @ @ @ @ @ - s w w e t q q q q q q w t t - @ @ @ @ @ @ @ @ @ . . . @ , w t t f                                                                                                         ",
"                                                                                                                                                                                                                                                                              D V m N @.+.O.N f d V S d s t t t s 1 - - - - - - - - - - > s q q w w q q 1 1 q q q q q - - - - - - - - - $ @ . . @ , 1 t t f                                                                                                         ",
"                                                                                                                                                                                                                                                                              D N m V ,.,.,.+.S d N V d s t t t s 1 > > > > > 1 1 1 > > 1 s q q q q 1 q q < < q q q q 1 > > > > > - - - - @ X . @ , 1 t u d                                                                                                         ",
"                                                                                                                                                                                                                                                                              D V v.N.j.g.5.,.*.m N V d d t t r t r r 1 e e u u u u e 1 1 t 1 1 1 1 < < < < < , < < r r r u 1 r u u 1 1 - $ @ . X , 1 r t g                                                                                                         ",
"                                                                                                                                                                                                                                                                              F S v.<X<X-XN.f.*.S s V d d r w r r s t t r q q q r f , - , 1 , , , , , , , , , , , , r u s s s d N N m 8 u - @ X O - 1 r r s                                                                                                         ",
"                                                                                                                                                                                                                                                                              F S V *.*X*X%X%Xj.@.d m f s 1 q q w q t t r r q q r d > & , , - - - - - - - - , , , , 1 d d s s d N N d p 8 f > @ @ * 1 r u p                                                                                                         ",
"                                                                                                                                                                                                                                                                          >.>./ V p w S ,.2.f.v.3.N s d u 1 1 q q 1 t t q q q q q s 1 & - - & & & & & @ & & & & & * 1 s s t t s M m d D p h p - @ * < 1 1 p x                                                                                                       ",
"                                                                                                                                                                                                                                                                      3.>.-.%.( x S u > 1 d N *.v.,.d d r < , < , 1 r r q q < < q 1 , & - @ . . . . . . . . . . . . , t t r r t d m d V p p p > @ & < 1 w p k                                                                                                       ",
"                                                                                                                                                                                                                                                                6.6.6.>.;.-.%.$./ C z s d d u m 4.h.+.m t , , , , , r q q q < < q < , @ @ . . . . . . . . . . . . . < r w q q t d m s p p 7 7 7 1 - 1 w t g f a                                                                                                     ",
"                                                                                                                                                                                                                                                            6.6.>.>.:.;.;.-.$.$.$.A C s d m w u S &.*.N d t q q q q q q q < < < < < = & . . . . . . . . . . . . . & q w q q q u d m d u a p 8 7 u a A C V N f g z                                                                                                   ",
"                                                                                                                                                                                                                                                        6.6.>.>.>.:.:.;.;.-.%.$.( ( b p s d 1 , s N V d m d s d s t r q < q < < < < , , = , , , , , , , , , , , < < q q q q w u d m s u p a 8 7 u x $.A V z z f f f                                                                                                 ",
"                                                                                                                                                                                                                                                  6.6.>.>.>.>.:.:.;.;.;.-.%.%.%.$.$.( f r d , * 1 d d s M s t s t r r q q < < < < < < < , , < , , < < < < < < < < < < q q q q u s d u u p a p 4 u f / A C x z z z a x                                                                                               ",
"                                                                                                                                                                                                                                                  :.:.>.:.:.:.:.-.-.-.-.%.%.%.$.$.$.$.F g f - @ @ s t t d t t s t t q q < < < < < < < < < < , < < < < < q q q q < < < < q q q w s d d p p p p 7 8 f / A A C C x z f x x                                                                                             ",
"                                                                                                                                                                                                                                                  :.:.:.-.-.-.-.-.-.-.%.%.%.%.$.$.$.$./ A d - @ @ , * q s r r t t t q q < < < < < q < < < < < < < q q q q q q q q < < q q q w w s d d u p p u 8 8 x C A C x x x f f f x f                                                                                           ",
"                                                                                                                                                                                                                                                -.-.-.%.%.%.;.-.;.-.-.%.%.%.$.$.$.) / / ~ z > @ X @ + t u 1 r t t w q q < < < < < q < < < < < < q q q q q q q q q q q q q q q w s m d u p p u 8 8 f C C C V f f f p u p f h                                                                                         ",
"                                                                                                                                                                                                                                                %.%.%.%.;.;.;.;.;.;.-.%.%.%.$.$.$./ / ~ F z > @ - & , r w < q r t q < < < < < < < < < q q q q < q q q w q w r w w q q q y r r t t d s u a a a a u 7 f A C C x z f f a p f x x                                                                                       ",
"                                                                                                                                                                                                                                                %.%.-.;.:.:.:.;.;.%.%.%.%.%.$.) / / / ~ F x 7 1 > , , q q < < q q q < < < < < < < < q q q q q q q q r r w r y y y r w r r r r t t t t u x a p p 7 4 u x x z x x z f f f x z x x                                                                                     ",
"                                                                                                                                                                                                                                                %.-.:.:.;.;.;.;.%.%.%.%.$.$.$.) / / ~ ~ F A x f p , - , q < < < q < < < < < < < q < q q q w q q q q w w w w y y r w r t t y y y t y r r a a p p p 7 > u f x x z z x x x x x x x x                                                                                   ",
"                                                                                                                                                                                                                                              $.$.:.:.;.;.-.%.%.%.%.$.$.$.) ( / / / ~ ~ ~ ~ F A Z N , , < , , , < < , , < < < < < q < < q q q q q q q q q q q q q q w y t y q q w q q r z z f a a p 7 u f V x z f a f f x C x f f z                                                                                 ",
"                                                                                                                                                                                                                                              / %.:.;.%.%.%.%.%.%.%.%.$.) / / / / / ( ( / / ~ A Z S 1 , & & = = = = = = = = = = = , , , , , < < < < < , , , = q q q q q q < < , , , < u z f f a a p u 7 u z x z f f f f f x z p p p                                                                                 ",
"                                                                                                                                                                                                                                              / %.;.%.%.%.%.%.%.%.%.$.$.$.( / / ( $.$.( / / F A C x > @ . . . + @ & & & & & * * & & & & = = = = = = & & & & & & & & & & & & & & + & , u a a a a a a p 7 7 p C C V z f f f f f a p u u                                                                               ",
"                                                                                                                                                                                                                                            ~ / %.%.%.%.$.$.$.$.$.$.$.$.$.$.$.$.$.$.( ( / E A Z x x z u - . . . . . . o o o o o + + @ o + @ + + + + o o o o . . . . . . . . . . . . > a k f a a a a i 7 7 7 f V V x z z f f p p p u p p                                                                             ",
"                                                                                                                                                                                                                          -.%.;.;.;.:.:.    A / %.%.%.%.$.$./ ( $.$.$.$.$.$.$.$.$.( ( / T A C x x x z f p > @ . . . . . . . . . . . . . . . . . . . . . . . . . . . . . . . . . - u a a f a a p a a u 7 7 7 7 g z z z z z f a p p u p f                                                                             ",
"                                                                                                                                                                                                                      ;.;.-.%.%.%.$.%.%.%.$.A / $.$.$.$.$.) ( $.$.$.$.%.$.$.$.) ( / / A A A C C x x x x a u 6 > > : : - - @ @ @ @ @ @ @ # . . . . . . . . . . . . . @ + @ 2 > 7 a f f f a a a p a a p 7 7 7 7 7 p f z z f p p p p p p p a                                                                           ",
"                                                                                                                                                                                                                  ;.;.;.;.-.%.$.$.) $.$.$.~ A / $.$.$.$.( / $.$.$.$.$.$.$.$.( ( / / ~ A A Z Z C x x z z f a p 7 6 > > > > > > > 1 1 1 > > > > > : : : : - - - - - > 1 6 u u p p p a a a p p p a i 7 7 7 1 1 6 7 7 u f z f p u u u p p p p p                                                                         ",
"                                                                                                                                                                                                              -.%.%.%.%.%.%.%.$.$./ / / / Z F / $.$./ / / ( $.$.$.$.$.$.$.( ( ( ( / ~ A A Z Z C x x x z z z a p 7 6 1 1 1 1 1 1 1 1 1 1 1 1 1 1 1 1 1 > > > > 1 1 1 1 7 7 u p p p i p a a a a a 8 8 4 > > > 1 1 7 7 7 p f f p u u p u u u u                                                                         ",
"                                                                                                                                                                                                          %.-.%.%.%.$.$.) ( ( / / / ~ ~ A x F ~ / / / / / $.$.$.$.( ( ( ( ( ( ( / / ~ F A A A Z Z x x x x x x z z f p u 6 6 7 7 7 6 6 6 7 7 7 7 7 6 1 1 1 > > > > > 1 1 6 7 u u p p p p i i p 8 > > > 1 1 6 1 1 6 1 1 1 u p f p u u u u 7 7 u                                                                       ",
"                                                                                                                                                                                                      %.%.%.%.%.%.$.$.$./ / / / ~ ~ ~ A Z V A ~ / / / / / ( $.$.( / / / ( ( ( / / ~ ~ ~ F A A A Z Z Z Z Z x x x x x z a u 7 u 7 7 7 7 7 7 7 7 7 7 6 6 6 7 6 1 1 > > > 1 1 6 7 u u p p p p p 8 4 > > 1 > 1 7 7 1 6 1 1 > : 1 p f p u u u u 6 7 7                                                                     ",
"                                                                                                                                                                                                  %.%.%.%.$.$.$.$.$.$./ / / ~ ~ ~ A A A Z C A F ~ / / / / / $.$./ / / / / ( ( / / / / / ~ ~ F A A A A A A A Z Z Z Z Z x a p u u u u u u u u u 7 7 u 7 7 u u 7 7 6 1 1 1 1 7 7 7 7 u p a a a p 7 1 1 1 1 1 6 7 7 6 6 1 1 > : > 6 7 7 u u u 6 u p p                                                                   ",
"                                                                                                                                                                                                %.%.$.%.$.$.$.( / / / / / ~ ~ F A A C Z x Z A A ~ ~ / / / / / / / / / / / / / / / / / / ~ ~ ~ ~ ~ ~ ~ ~ ~ A A A A ~ ~ A x f p p p p p p p p p p p p p p u u p u u 7 7 7 7 7 7 7 7 u u p p p 8 7 7 8 p p u 6 7 7 6 6 1 1 1 > : : > 7 7 7 u 7 7 i 1                                                                   ",
"                                                                                                                                                                                            %.%.$.$.$.$.%.$.$./ / / ~ ~ ~ A A A C Z Z x z x A A A ~ ~ ~ / / / / / / / ~ / ( / / / / / ~ ~ / / / / / ~ / ~ ~ / / / / / ~ A x f a a a a a a a a p p p a a p p p p p p p p u u u u u u u u p p 8 7 8 p a f x a p u 6 6 1 1 1 1 > > : > 7 7 u u a h : >                                                                 ",
"                                                                                                                                                                                        %.$.$.$.$.$.$.$.$.$.$./ / / ~ ~ ~ A A Z Z Z C x z x Z A A ~ ~ / / / / / / / / / ( ( / / / / / ~ / / / / / / / / / / / / / / / / A C x a f f a a a a a a a a a a a a a a a a a p p p p u u u p p p a 8 7 u p f x x b k u 7 7 1 1 1 1 > > > : 1 u 7 p k x - - 6                                                               ",
"                                                                                                                                                                                    %.%.$.$.$.$.$.$.$.$.$.$.( / / / ~ ~ ~ A A Z Z V x z f x Z Z A ~ / / / / / / / / ( ( / / / / / / / / / / / / / / / / / / $./ / / / / ~ A x x x x f a a a a a f a a a a a a f f f a a f a p p p p p a a 8 8 8 p z x x b x f f u 7 7 1 1 1 1 > > : : 1 7 7 p a 1 - -                                                               ",
"                                                                                                                                                                                %.%.%.%.$.$.$.$.$.$.$.$.$./ / / / ~ ~ ~ ~ A A Z Z x x f f x C Z F ~ / / / / / / / ( ( / ~ ~ / / / / / / / / ~ ~ / / / / $./ / / / / / / / / A x f a a a f f f f f f a a a f f f f f f f f a a a a h x h i 8 u p f z x x h a x x x a p 1 1 1 > 1 1 > 1 : 1 7 7 p 7 > >                                                               ",
"                                                                                                                                                                              %.$.$.$.$.$.$.$.$.$.$.$.$.) / / / ~ ~ ~ ~ ~ A A Z C x x a f z x C A ~ / / / ~ ~ / ( ( / / ~ ~ / / / / / ( / / ~ / / / / / / / / / / / / / / / ~ x x a a a a a f a a a a a a a f f f f f f f a a a h x x a p p p a f f x k a f x x x x f p 7 7 1 1 1 1 1 : > 1 6 7 i : > >                                                             ",
"                                                                                                                                                                          %.$.$.$.$.$.$.$.$.$.$.%.%.$.$.$./ / / ~ ~ ~ F A A Z Z V x z a f z x C F / / / / ~ ~ / ( / / ~ ~ / / / / / / ( / / ~ / / / / / / / / / ~ ~ ~ ~ ~ ~ ~ Z x k x x z f a a a a a a a a f f f a a a a a a a k c k a p p a f f x x x a x x k x x x k a p 7 6 1 1 1 > : > 1 1 u 1 > :                                                             ",
"                                                                                                                                                                        $.$.$.$.$.$.$.$.$.$.$.$.$.$.%.$.$.$.$./ / ~ ~ A A A Z C x x z a f x x Z ~ / / / ~ ~ / ( / / ~ / / / ~ / / / / / / ~ / / / / / / / / / ~ ~ ~ ~ ~ ~ ~ ~ A x f f f x x f a a f a a f f f f f f a a a a a a x x k a p a a f x x x h h h x x x x x x k k p 7 7 7 1 1 > 1 7 7 1 7 > >                                                             ",
"                                                                                                                                                                      $.$.$.$.$.$.$.$.$.$.$.$.$.$.$.$.$.$.$.$.$./ ~ ~ A A A Z C x z f a a z x A ~ ~ ~ ~ ~ / / / / / / / / ~ / / ( ( / / ~ ~ / / / / / / / ~ ~ ~ ~ / / / / / / ~ A x f f f f f f f f f z z z z z z f f f a f a a x x k a a a a x x x x h k h x x x x x h x k k a 7 7 7 7 1 > 7 7 1 1 1 >                                                             ",
"                                                                                                                                                                    $.$.$.$.$.$.$.$.$.$.$.$.$.$.$.$.$.$.$.$.$.( / / ~ F A Z Z C x z f f f z x Z A F ~ ~ ~ / / / / / ~ / ~ ~ / ( ( / / / ~ / / / / / / / ~ ~ ~ ~ / / / / / / / / A V z f f f a a f f z z z z z z z z f f a f a a x x k p a a a x x x x x x x k k f k x h a f k k h 8 7 7 1 > 1 1 1 > 1 1 >                                                           ",
"                                                                                                                                                                  $.$.$.$.$.$.$.$.$.$.$.$.$.$.( ( ( $.$.$.$./ / / / ~ ~ F A Z Z x z f f a z C A A A ! ~ / / / ( / ~ ~ ~ ~ / / ( ( / / / / / / / / / / / ~ ~ / / / / / / / / / / / A x f f f a a f x z z f f f f z f f f a f f f x h a p f f x k x x x x x x k f f f k k k a a f x x p 7 7 1 > > 1 1 1 7 >                                                           ",
"                                                                                                                                                                $.$.$.$.$.$.$.$.$.$.( $.$.$.( / ( / / ( / / / / ~ ~ ~ F A A Z Z x x f f a z Z A A A / / / / ( / ~ ~ ~ ~ ~ / / / / / / / / / / / / / / ~ ~ / / / / / ~ ~ ~ ~ ~ ~ / ~ Z x f f f x x x x x f f f f f f a a a a a f x h a f z x x x x k a x x x h k k k x x x x h a f x x a a 7 1 > > > 1 7 7                                                           ",
"                                                                                                                                                              $.$.$.$.$.( $.$.$.$.( $.( / / ) $.$.$.$.( / / / / ~ ~ A A A Z Z V x x z f a x Z Z A A / / / / / / ~ ~ ~ ~ ~ ~ / / / ~ ~ / / / / / ~ / ~ ~ / / ~ ~ ~ ~ ~ ~ ~ / ~ ~ / ~ A x f a a f f z f f f f f f f a a a a a a x x h a a f V C x x x k z f x x x a x z x x x h a f f x x h p 7 1 > > > 1 7 1                                                         ",
"                                                                                                                                                            $.$.$.$./ / / $.$.$./ $.$./ / ( $.$.$.$.$./ / / / / ~ ~ ~ A A Z Z x x x z f a x Z Z A A / / / / / ~ ~ ~ ~ ~ ~ / / / / / ~ / / / ~ ~ ~ ~ ~ ~ / ~ ~ ~ ~ ~ ~ ~ ~ / / / / ~ A x z a f z f f f f f f f a a a a a a a a x x h a a f V C x x x h a f k x x k f x x x x h a a f k x x a u 1 > > 1 1 7 1                                                         ",
"                                                                                                                                                          $.$./ / / / / / ( ( / / ( ( $.$.$.$.$.$.$.$./ / / / ~ ~ ~ F A A Z C x x x z f a x C Z A A / / ~ ~ ~ ~ ~ ~ ~ / / / / / / / ~ / / ~ ~ ~ ~ ~ ~ ~ ~ ~ ~ / ~ ~ ~ ~ ~ / / / / / / A x f f f a f f f f z z f f f a a f z a x x k h a f V C C x x h a a a x x x x k k k x k a a a k x x x p 7 1 > 1 7 4 4                                                         ",
"                                                                                                                                                        ( ( / / / / / / / / / $.$.$.$.$.$.$.$.( $.$.$./ / / / / ~ ~ A A A Z Z x x z z f a z x Z C A ~ ~ ~ ~ ~ ~ ~ / / / / / / ~ ~ ~ ~ ~ ~ ~ ~ ~ ~ ~ ~ ~ ~ ~ ~ ~ ~ ~ ~ ~ ~ / / / / $.$./ A x z z z f z z z z z z z f a f h x a h x x h h a z V C x x x z f f a k x x x k f k x k h h x x x x k i 1 > 1 7 4 4 >                                                       ",
"                                                                                                                                                        / / / / / / / / / / / $.$.$.$.$.$.$.( / ( ( / / / / / ~ ~ F A A A Z C V x z f a a f x C A A F F ~ / ~ ~ / / / / / / ~ ~ ~ ~ ~ ~ ~ ~ ~ ~ ~ ~ ~ ~ ~ / ~ ~ ~ ~ ~ ~ ~ / / / / $.$.$.~ Z x z z z z z z z z z f f f f x x x x x x x k k z V Z V x x x x k a a k x x k k k f x x x x k k x x a 7 1 > 7 7 7 1                                                       ",
"                                                                                                                                                      / / / / / / / / / / / / ( $.$.$.$.$.$./ / / / / / / / / ~ ~ F A A A Z Z x x z z f a a x C C A A ~ / / ~ / ! ~ / / / ~ F F ~ ~ ~ ~ ~ ~ ~ ~ ~ ~ ~ ~ / / ~ ~ ~ ~ ~ ~ ~ / / / ( $.$./ ~ A x z z z z z z f f f f a x x x x x x x x x x k x x C Z x x x x x x x x x x x a k f k x k x a a k k x i 7 1 7 7 7 7                                                       ",
"                                                                                                                                                    / / / / / $.( / / / / / ( ) $./ / / / / / / / / / / / / ~ ~ ~ ~ A A A Z Z C x z f f p p z C Z A F ~ / / / / ~ / / / ~ ~ F F ~ ~ ~ ~ F ~ ~ ~ ~ ~ ~ ~ ~ ~ ~ / / / ~ ~ ~ / / / / ( / / / A x z z z z f f f f f a a x x x x x x x x x c x x x x Z Z x x f x x z a k x x k h k a x x k x a k k k a 7 7 7 7 4 7 >                                                     ",
"                                                                                                                                                  / / / / $.( / / / / / / / / / / / / / / / / / / / / / ~ ~ ~ ~ ~ A A A A Z Z V x x z f a p a x A A ~ / / / ~ ~ ~ ~ / ~ ~ F F ~ ~ ~ ~ ~ A A ~ ~ ~ ~ ~ ~ ~ ~ ~ / / / / / / / / / / / / / / ~ x f f z z z f z z f a k x x x x x x x x b b x x x x x C C x k z x x h a h k x k h h a h k x x k k f f a 7 1 7 4 1 7                                                     ",
"                                                                                                                                                / / / / $.$./ / / / / / / / / / / / / / / ~ / / / / / ~ ~ ~ ~ ~ A A A A A Z Z V x x z z a p p x A A / / / ~ ~ F ~ ~ / F A A ~ ~ ~ ~ F F A A ~ ~ ~ ~ ~ F ~ ~ ~ / / / / / / / / / / / / / / ~ x f a f f z f f z f a f x x x x x x c b b b b x x k x x x x x x x x x h a a h k h a a a k k x x a k f a i 4 7 4 > 7                                                     ",
"                                                                                                                                                / / / ( ( / / / / / / / / / / / / / / ~ ~ ~ / / ~ ~ ~ ~ ~ ~ ~ ~ A A A Z Z Z Z V x z z z f a u z A F / / ~ ~ ~ ~ ~ ~ F A A F ! A A A F F A A A ~ ~ ~ F ~ ~ / / / / / / / / / / / ~ / / / ~ ~ Z f p a f z z f f z x x x x x x x x b b b b b c x k x x C x x x x x x x h h a a h h a a a k x x h a f a a u 4 7 1 1 7                                                   ",
"                                                                                                                                              / / / / / / / / / / / / / / / / / / / ~ ~ ~ ~ / / ~ ~ ~ ~ ~ ~ ~ ~ A A A Z Z V V x x x z z z f u p C A ~ ~ ~ F ~ F A A A A A F A A A A A A A A F ~ ~ ~ ~ ~ / / / / ( ( ( / / / / ~ ~ ~ ~ ~ ~ ~ A x Z A A Z C x x z x x x x x x x x x x x b b b x k a z x x x c x x h x x h k h h h h x k a f x x a a a a a 7 4 1 1 7 4                                                 ",
"                                                                                                                                              / / / / / / ( ( $.$.( / / / / / ~ ~ ~ ~ / / / / ~ ~ ~ ~ ~ ~ / ~ ~ ~ A Z Z Z C x x x z z z f a u u Z A ! ~ F A A A A A A F F A A A A A A A A A F F ~ ~ / / / / / ( ( ( ( / / / / ~ ~ ~ ~ ~ F F ~ ~ $./ ~ ~ / ~ A V z f f f x x x x x x x x x b b x f z x V x x x x x h x x k h h k k h x h a h x h h h a a i 4 1 > 7 7                                                 ",
"                                                                                                                                              / / / / $.$.$.$.$.$.( ( / / / / / ~ ~ / / / / / ~ ~ ~ ~ ~ ~ ~ / ~ A A A Z Z C x x z z z f a a p u x A A ~ ~ F A A A A ~ ~ F F A A A A A F F F F ~ ~ / / / / / ( ( ( ( / / / ~ ~ ~ ~ ~ ~ F ~ ~ / $.$./ / / $.$.$./ ~ Z x z f f f z f z x x x x x x k f x V x x x x x x h x x k a a h h h h h a h h k h h a a 7 1 > 7 7 7                                               ",
"                                                                                                                                            ( ( / / $.$.) $.$.$.$./ / / / / / / / / / / / / / / / / ~ ~ ~ ~ / ~ A A A A Z Z x z z f f f a p p u f Z C A A A A A ~ ~ ~ A F F A A A A A F ~ ~ ~ ~ ~ / / / / ( ( ( ( / / / ~ ~ ~ / ~ ~ ~ / / $.$.$.$.$./ / / $.$.$.$.$.~ Z x z z z z z z z z f f f f f z z z z x b h x x a h x h a a h h a h a a h h a h a a p 7 1 1 7 1                                               ",
"                                                                                                                                            ( ( / / ( $.$.( / ( ( / / / / / / / / / / / / / / / / / / ~ ~ ~ / / ! A A A Z Z x x z f a a a p a p p x C A A A A F ~ ~ A A F F A A A A A ! ~ ~ ~ ~ / / / ( ( ( ( ( ( / ~ ~ ~ / ~ ~ ~ / $.$.$.$.$.$.$.( / / / / / / $.$.$./ ~ Z V x z z x x z z z z z z z f f f f x x h x x a a k h a h h h a a a k a a a a a a a 1 > 1 1 4                                             ",
"                                                                                                                                          ( ( / / / / $./ / / / / / / / / / / / / ~ ~ / / / ~ ~ / / ~ ~ ~ ~ / / ~ A A Z Z Z x x x f a p p p a p p x Z A C A F F A A A F A A A A A A A ! ~ ~ / / / / / ( ( ( ( ( ( / / ~ / E / / / $.$.$.$.$.$./ / / / / / / / / / / / / ~ ~ Z V z z z z z z f z z z z z f f f f x h x x k a k x h a h a a a a h 8 7 a a a a a 7 > 1 1 1                                             ",
"                                                                                                                                          ( / / / / / / / $./ / / / / / / / / / / ~ ~ ~ ~ ~ ~ ~ ~ ~ ~ ~ ~ ~ ~ ~ ~ ~ A A Z Z C x x z a p p p a a p x C C C A A A A A A A Z Z A A A A A ~ ~ ~ / / / / / / ( ( ( / / / / / ^ / / $.%.$.$.$./ / / / ~ ~ ~ / ~ ~ ~ / / ~ ~ ~ ~ ~ F A Z z f f f f f a a a f f f f z z z f k x x x x x x h a h h a a i 1 7 8 8 a a a 8 1 1 1 1 8                                           ",
"                                                                                                                                        / / / $./ / / $.( ( / / / / ( / / / / / / ~ ~ ~ ~ ~ ~ ~ ~ ~ ~ ~ ~ ~ ~ ~ ~ ~ A A A Z Z x x z a p p p a a p x C Z C A A A A A A A Z Z A A A F ! ~ ~ ~ / / / / / ( / / / / / / / / / / $.$.$.$./ / / / / ~ ! A ! ~ ~ ! A ! ! ! ! A ! ~ ~ ~ ! Z x z a p p p p p p a f f f f f z x x x x x x x x h a h a h a 1 a a 7 p a a 8 7 7 1 1 i                                           ",
"                                                                                                                                        $.$.$.$.$./ ( $.( $./ / $.$./ / / / ~ ~ ~ ~ ~ ~ ~ ~ ~ ~ ~ ~ ~ ~ ~ ~ ~ A A A F A A Z C x x z a a a a a a p z x Z C A A A A A A A Z A A A F F ~ ~ ~ ~ / / / / / / / / / / / / / / / $.$./ ~ ~ ~ ~ / / / ~ A A ! ! ! A A A A A A A A ! ~ ~ ! A Z x z a p p p a a a p p p a a f z x x x x x x x x k a a a p > p 7 > 7 p a a 7 8 1 7 i x                                         ",
"                                                                                                                                      $.$.$.$.$.$.$.$.$./ / / / $./ / / / ~ ~ ~ ~ ~ ~ ~ ~ ~ ~ ~ ~ ~ ~ ~ ~ F A A A A F F A Z Z x x z f a p a a a a z x x C A A A A A A A A A A F ~ ~ ~ ~ ~ / / / / / / / / ~ ~ / / / $.$.$.$./ ~ ! ! ~ ~ ~ ~ ~ A ! ! ! ! ! ! A A A ! ! ! ! A A A ! A ! A Z x z k a a a a a p p p p a f z z x x x x x x x x a f a 7 > 7 > 7 p a a 8 u 1 4 8 x                                         ",
"                                                                                                                                      / / ( $.$./ / / / / / / / / / / / / / / ~ ~ ~ ~ ~ ~ ~ ~ ~ ~ ~ ~ ~ ~ F A A A F ~ A A Z Z Z x z z a a a f f a a x x C A A A A A Z A A A A F ~ ~ ~ ~ ~ ~ / / / / / ~ ~ ~ ~ / / $.$./ / / ~ ~ F A A ! ! ! A A A A A A A A A A A A A ! A ! A A A A A A A A A C b x x x x k a a p p p f f f x x x x x x x x k a i > i 7 1 7 a a i 7 1 1 8 k                                         ",
"                                                                                                                                      / / / / / / / / / / / / / / / / / / / / / ~ ~ ~ ~ ~ ~ ~ ~ ~ ~ ~ ~ ~ ~ F A A F F A A A Z Z V z z a a p f f a a z x C A Z Z Z A A A A A A ~ ~ A A A A ~ ~ ~ ~ A A A ~ ~ / / / / ~ ~ ~ ~ ~ A A A A A A A C A A A C C A A A A A Z A A A A A A A A A A ! / / / / ^ A A A C C x x p p a f f z x x x x x x x x x h 7 1 7 1 4 p a a 7 1 1 7 a                                         ",
"                                                                                                                                    / / / / / / / / / / / / ~ ~ / / / / / / / / ~ ~ ~ ~ ~ ~ ~ ~ ~ ~ ~ ~ ~ ~ ~ ~ A A A A A C Z Z x z z a a p p f a a z x Z Z Z Z Z Z A A A A A ! A A A A A A A A A Z A ~ ~ ~ / / ~ ~ ~ ~ ~ F A A A A A A C A A A Z Z Z Z Z Z A A A Z A A A A A A A A ! A A / / / / / ( / / / A A C f u p p a f z f x x x x x x x k a 1 4 7 > 7 a a i 1 1 7 a                                         ",
"                                                                                                                                  / / / / / / / / / / / / ~ / / / / / / ( / / / ~ ~ ~ ~ ~ ~ ~ ~ ~ F A ~ ~ ! ~ ~ A A A A A C Z Z x x z a a p p p p p f x C Z Z Z Z Z A A A A ! ! A A A A A C Z Z A A ~ ~ ~ / / ~ ~ F F F ~ A A A A A A A A A A Z Z Z Z Z Z Z Z Z Z Z Z C A A A A A A A A A A A ^ / / / / / / A A A b p u p p a f f f x x x x x x x k a 7 4 > 1 a a p 1 1 7 i                                         ",
"                                                                                                                                  / / / / / / / / / / / / / / / / / / / / / ~ ~ ~ ~ ~ ~ ~ ~ ~ ~ A A A A ! ! A A F A A A A A Z Z C x z a a p p p p p f x x Z Z Z Z Z A A A ! ! A A A A A A Z Z Z F ~ / / / / / / ~ A A F ~ A A A A A A A A A Z Z v v Z Z Z Z Z Z Z Z Z Z Z Z C A A A A A A A A A A A A A C C C C A A x p u p p p f f f k x x x x x x k h 7 7 > p f a 7 1 1 u                                         ",
"                                                                                                                                / / / / / / / / / / / / / / / / / / / ) / ~ ~ ~ ~ ~ ~ ~ ~ A ! ! A A A A ! ! A F F F A A A Z Z Z x x z a a p p u u p f z x V C C Z A A A A ! ~ F A F A A Z Z C A ~ / / ( ( / / / F A A ~ ! A A A A A A A A Z Z Z Z Z Z Z Z v Z Z C Z Z Z Z Z Z Z C A A A A A A A A C C C C C Z Z Z A A x p u p p p f f a f k x k x x x k a 7 > 7 h a 8 7 1 7                                         ",
"                                                                                                                                / / / / / / / / / / / / / / $.$./ / / / ~ ~ A A A ~ A A A A ! ! A A A A A A A A F F A A A A Z Z V x z f a p u u u p f z x C V V Z A A A A A A F F F A A Z Z Z ~ / / / / / / / / A A A ! ~ ! A A A A A A A Z Z Z Z Z Z v x x x V V C Z Z Z Z Z Z Z Z A A A A A A A A Z Z A Z Z Z Z Z C Z a p u p p p p f p a a k k x x x a u 1 1 h h a 7 1 7                                         ",
"                                                                                                                              / / / / / / / / / / / / / / / / / / / / ~ ~ A A A A A A A A A A A A F ~ F F A A A A A A A A A C x x x f f p u 7 7 7 p a z x V V C Z A A A A A F F ~ A A A Z Z A / / / / / / / / ! A A A ! / ~ ~ A C Z A Z Z Z Z Z Z Z v x v Z x x x x V C Z Z Z Z Z Z C A A A A A A A C Z Z Z Z Z Z Z Z Z v f u u p p p a f a p p a a x x x a 7 > p k a 7 1 4                                         ",
"                                                                                                                              / / / / / / / / / / / / / / / / / / / ~ A A A A A A A A A A A A A A ~ F A A A A A A A A A A A Z x x z f a p u 7 6 7 p p f x V V C Z A A A A A A A A A A C Z Z A ( / / / / / / A A A A A A ~ ~ ~ A Z A A Z Z Z Z Z Z Z Z C Z Z Z Z Z Z Z Z Z Z Z Z Z Z C C A A A A A A C Z Z Z Z Z Z C Z Z x x p u u u p p p a f a p p a x x k i > 7 a a 7 > 1                                         ",
"                                                                                                                            / / / / / / $./ / / / / / / / / / / / / A A Z Z Z Z A A A A A A A A A A A A A A A ~ A A A A A Z Z x x z a p u 7 6 1 7 u p f z x V Z Z A A A A A A A A A A C Z C / / / / / / / A A A A F A A A A F A Z A A Z Z C v Z Z Z Z C Z Z Z Z Z Z Z Z Z Z Z Z C C C C C C C C C C C Z Z Z Z Z Z Z Z x x x x p u u 8 p p p a f f p p a h x a 1 > a a i 1 1                                         ",
"                                                                                                                          / / / / / / / / / / / / / / ~ / / / / / ~ A Z Z Z Z Z Z Z Z Z Z Z Z Z Z Z Z Z A A A ! A A A A A Z C x x f a p u 7 1 1 6 u p a z x V C Z A A A A A A A A A C C Z A / / / / / T ~ A A A A A A A A A A A A A A Z Z Z Z Z Z Z Z Z Z Z Z Z Z Z C C Z Z Z Z C C C C C C C C C C C Z Z v x x x C x x x x x f p u u p p p p a f f p p a a a 7 > 7 a a 7 1                                         ",
"                                                                                                                          / / / / / / / / / / / / / / / / / / / ~ A Z Z C x x x C C Z Z Z Z Z x x V Z Z Z A A A A A A A A C x x x f p p 7 6 1 > 1 u p a f x x C Z A A A A A A A A C C Z C A / / / / ^ ^ ! A A A A A A A A Z C Z Z A A A A A C Z Z Z Z Z Z Z Z C C Z Z Z Z Z Z C C C C C C C C C C C C C Z x Z x Z Z C x x x x x f p u u p p p p a f f a a a a i 1 > a a 7 7                                         ",
"                                                                                                                        $.$.$.$.$.$.$.$.$.$.$.) $.) / / ( ( / / / / / F A A Z C x x x x V Z V x x x V Z Z Z Z Z A A Z Z Z x x z z a p u 7 1 1 > 1 u p a f z x C Z A A A A A A A A C C C A ! ~ E / T ^ ^ ~ A A A A A Z Z A Z Z Z Z A A A A A C Z Z V x x Z Z C C C C C C C C C C C C C C C C C C Z C C Z Z C C Z Z Z C C x x x x x a p u p p p p p a f f a a a a 7 > u a p 7 p                                       ",
"                                                                                                                        $.$.$.$.$.$.$.$.$.$.$.$.$.$.) ) $.$.$.$.$.$.( / / F A A C x x x x Z V x x x x x Z Z C Z Z C C Z x x z f a p p u 7 1 > > 1 u p p f z x x Z A A F A A F A C C C C A ~ ~ F T A ^ ^ / A A A A Z Z Z A C Z C A C A A A A C Z C x x x Z Z A C C A A A C C A T ^ A A A C C C C C x x C C x x x x x C b x x x x x x p u u u p p p p a f f a a a 8 > 1 a a 8 u                                       ",
"                                                                                                                        $.$.$.$.$.$.$.$.$.$.) $.$.$.) ( $.$.%.%.%.( ( / / F A A C A C x f f z x x x x x x x Z v Z Z Z x x x z a p p u 7 1 > > > 1 7 u p f z x x Z A A A A A A A C C x Z A A ~ E A A T A A A A A Z Z Z Z C C Z C C Z C C A A C Z Z x x x x x C C C C C C C C C A A A A A A C x x x x x x x x x x C x x x x x x x x x a p u u p p p i p p p a a a a 1 > p a i                                         ",
"                                                                                                                      $.%.%.%.$.$.$.$.$.$.) ) $.$.$.$.%.%.%.$.( ( / / / A A A A A A A C C z f a f x x x x x x x x x x x x x x a p u 7 6 1 > : : 1 7 u p a z z x V Z A A A A A A C C x A A A A / / F A A A A A A Z Z Z Z Z Z Z A A Z Z Z Z x x x x x x x z x x C C x x x v C C C C A A C C x x x x x x x x x x x x x x x x x x x x x x f p u p p p u p p u p p a a 7 > 7 a i                                         ",
"                                                                                                                      $.%.%.$.$.$.$.$.$.$.$.$.$.$.$.$.$.$.$.$.( / / ~ / / / ( / ! ! A A C Z x x z z x x b x x x x x x x x x a p u 7 6 1 > > : : 1 7 u p a f z x x C A A A A A A C C x A T T A A T E A A A A A A C Z Z Z Z Z Z C A Z v x x x x x x x x x z z x x Z C x x x x b C C C b x x x x x x x x x x x x x x x x x x x x x x x C x a p u p p p p p u u p p p p 6 1 a a                                         ",
"                                                                                                                      %.%.%.$.$.$.$.%.%.$.%.%.%.%.$.( ( ( / / ~ ! ~ A ! / ^ / _ / / A A A A Z Z Z x x x b C C b x x x x x x a p u 7 1 > > > : : 1 7 u p p f z x x Z C A A A A A C x Z A / / A A A / A A A A A A A C Z Z Z Z Z C C Z x x x x x x x x x z z z z x x x x C x b x x x x x x x x x x x x x x x x x x x x x x x x x x x x b x x a p p p p p p p u u u p a u 1 i p                                         ",
"                                                                                                                    %.%.%.%.%.%.-.-.%.%.%.%.%.%.$.( / ~ ~ ~ ~ ~ ~ ! A A / / / _ / / A A A A Z Z C Z v C C C C C x x x x x x k p p 7 1 1 > > : : 1 7 8 u p a f x x C C A ^ A A A C Z A / / / A C A / A A A A A A A C A A C C C C C Z C x x C x x x x x x z z z z z z z x x x x x x x x x x z z z x z z x x k x x x x x x x x x x x x x b x x k p p p i i p p u 8 u p p 6 7 p                                         ",
"                                                                                                                    %.%.%.%.;.;.%.%.-.%.%.%.%.) ( / ~ ~ / ~ ~ ~ A A A A / _ / / / T A A F A A A A C Z C C C C C C C C x x b x x a p 7 1 1 > > > > 4 7 u p a k x x x C A A A A C x A ~ / / A A A A A A A A A A A A A A A C A A A A C C C C C C C C x x x x x x x z z z f f f z z x x x x x x z f f a a z z a a a z f a a a a z x x x x x x x x x p p p u p p p 8 7 8 p u 1 8                                         ",
"                                                                                                                  %.%.%.%.:.:.%.%.-.-.%.%.%.( ( _ / / / ~ ~ ~ ~ A A C A ^ / / / E T T / / / / A A A C C C C C C C A A A x x x x k p 8 7 1 1 > > > 1 7 8 p p f x x x C A A A A C x A ~ A A A A A A A A T F A A C C C C C C C C A A C C x x C C C C C x x x x x x x x z z f a f f z z x x x x x f a a f f z a a a a a a a a a f z x a x x b x C x a p p u 8 i p i 7 7 u p 1 1                                         ",
"                                                                                                                  %.%.%.%.%.%.%.%.%.%.$.$.) ( ( ( _ / / ~ A A A A C A A A A A A A A A A / / / A ! A A A A A C Z A A A C v x f f k a p u 7 1 > > > 1 6 7 u p p f x x x C A A C x C A A A A A A A T A A A E A A C C C C x C C C C C C C x x x x b C x x x x x x x x x k f f a f f f a a f x x x k a a f x x k a p p p a a a a a z z a f x x b x x x a p u u 8 8 p u 7 7 u u 1                                         ",
"                                                                                                                  %.%.$.( ) $.$.%.%./ _ ( ( ( / / ! A A A A A A A A A A A A A A A F / / / / / / / ! / / A A A A A A A A C x z f a f a p 8 7 4 > > 1 1 7 7 u u p a f z x C C x x C A A A A A A A / T C C A A A C C C C C C x x Z x b x x x x x x x x x x b x x x x f f f a f f f z f a a a a a a a a a a h a a p p p p p a a a a a a a x x x x x x f p i p p 8 u p u 7 7 u 7                                         ",
"                                                                                                                %.%.$.) ) ) ) ) $.( / / ( ( / ~ A A A A A / / / A / ^ A A A A A A A A E / ^ A A ^ / ^ ! A A A A A A A A C C x z f z x x a 7 8 8 4 1 1 7 7 7 u u p p a a x x x C C A A C C C A A F A C C C C C C C C b b C b x x x x x x x x x x x x x x x x k a a a k k z z z f k f f a a a a a a a a a a a p p p p p p p p p p p a a k x x x x x a a p p a p u 8 u u 7 7 p 1                                       ",
"                                                                                                                %.$.) ( ) ) ) ( ( / / ( / / ~ A A A A A A E / A ^ / ^ T A A A A A A E / / A A A ^ ^ ^ / / ^ A A A A A A C Z x x x x x x x h 8 8 7 1 1 6 7 7 7 u u p a a f x x A A A A C A A A A A A C C C C C v x x x x b x x x x x x x x x x x x k x x x h a a a a a a a a a a a a a a a a a a a a a a a p p p p p p p p p p p p a a a a x x x x a a p p a a p 8 8 8 u 7 u u                                       ",
"                                                                                                              $.%.( / / _ / / / ~ ~ / / A A A A A A A A A A A A ^ / / / / A A A A A A / / T A A T / / / / _ _ A A A A C Z C C x x x x x x x h a 7 4 1 1 1 7 7 7 u u p p a x C C A C C A A A A A T A C b C C b x x x x x x x x x x x x x x x x x k h a h a a a a a a a p p p p p a a a a a a a a a p p p p p p p i u i u u u u i i p p p a a z x x x z a a p p p u 7 7 8 8 7 p                                       ",
"                                                                                                              $.$./ / / / / / A ~ ~ / / A A ~ A A A A A A A A A / / / ^ A A A A A A A E / F F F A ^ _ _ / / / / A C C C Z Z Z C x x x x x x h a i 7 1 1 1 1 6 6 7 7 7 u p x Z Z C Z C A A A C A T A C x C C b x x x x x x x x x x x x x x k x x x h a a a p p p p p p p p p p p p p a a a a p p p p p p p p u u u u 8 8 8 8 8 8 8 u p p p p a a a f x x k a p i p u 7 7 8 7 u p                                     ",
"                                                                                                              $.) ( / / / / / ~ / / / / A E T A A A A A A A ^ ^ / / / A A A A A A A A A A A A / A A A T T A A / A C C Z Z Z v x x x x C C x x x a a p 7 1 1 1 1 6 6 6 7 p x Z Z Z Z C A A A C C A A b x b x x x x x x x x x x x x x x x x h k x x k a p p p p p p p p p u u u u p i p p p p p p p p p p i u u 8 8 8 8 8 8 8 7 7 7 7 u u p p p a a a x x x a p i u p 7 7 7 7 7 p                                     ",
"                                                                                                            $.$.) ) / / / / / / T T / A A A A A A A A A T A A T ^ A A C C A A A A A A C A A A T A C A A A A A T A C Z Z Z Z x x x x x x b x x x x a a a p 1 1 1 1 1 1 1 p x Z C Z Z C A A A b x A A C x x x x x x x x x x x x x x x x x x x k h a a a p p p p i i i i i u 8 8 8 i i u u u u u u i 8 8 8 8 8 8 8 7 8 8 7 7 7 7 7 7 7 7 8 8 8 p p p a a h h h a p u u 8 7 7 7 7 u                                     ",
"                                                                                                            $.( ( ( / ( / F A A A / / A A A A A A A A A ^ T A ^ T A A A A A A A A A A C C C C C C C A T T T T A A C Z Z Z Z Z x x b x x x x b x x x x a p 7 1 > > > > 1 a C Z Z v C C A C A Z x A A C x x x x x x x x x x k k f k h x x x k k a p p p p p p p p i i i i u 8 8 8 8 8 8 8 8 8 8 8 8 8 7 7 7 7 7 7 7 7 7 7 7 7 7 7 7 7 7 7 7 8 8 i i p p a a a a a p 8 7 7 7 6 7 7 p                                   ",
"                                                                                                          $.( _ ( / ( / / / A A T / A A A E / ^ A A A A T T ^ ^ ^ A A A A A A T ^ ^ A A C C C x x x b A ^ ^ A A A C C Z Z C Z Z Z x b C C b b b b x x x a p u 7 > : - 1 x C C Z Z C Z C C C C x C A x b x x x x x x x x k a a h a a a a a a a p p p i u i p p p p i i u u 8 8 8 8 u 8 7 7 7 7 7 7 7 7 7 7 7 7 7 7 7 7 8 7 7 7 7 u 8 7 7 7 8 8 8 i i p p p a a h a p u 7 7 7 7 7 7 p                                 ",
"                                                                                                          / / ( ( ( ( / / / A T / / A A A A A A C C C A T T T T ^ ^ A A A A A A T / ^ A C C C C C C C A T T A A C C C C Z C C Z Z x x b C C b b x x x h a a p 8 1 : : 6 x x C x v Z Z C A x C x x C x x x x x x x x x x a a a a a a a a a a a p p p i u u p p p u u u u 8 7 7 7 7 7 7 7 7 7 7 7 7 7 7 7 7 7 7 7 7 7 7 7 u u u u u u u 7 7 7 8 8 i i i p p p p a a a p u 8 7 7 7 7 u                                 ",
"                                                                                                        $.~ ( / _ / A T / / ^ / A C C C C C C C b C A T T T T T T T A A A A T T T T ^ T A A A A A A A A A A b A A C x Z x C A C C v x x x C C C x x a a a h x p 7 > : 7 x x Z Z Z C C C C x x x x x x x x x k x x x k a a a a a p p p a a a a p p p p u u u u u u u 7 7 7 7 7 7 7 6 6 6 6 7 7 6 7 7 7 7 7 7 7 7 7 7 7 7 u u u u u u u u 7 7 u 8 8 u u i i u u p a a a p u 8 7 7 7 7 p                               ",
"                                                                                                        / / ( / / ^ ! ! / ^ T A b x b C C C C A A A A A T T T T T A C A C C A A A A A A A A A A A A A T A b b C C C C C C x C C A A v x x x b b x x x x f x x f p 7 1 p x x C C A C x C x x x x x x x x x k x x x a a p p p a a p p p p p p p p u u u u u u u 7 7 7 7 7 6 6 6 1 1 1 6 1 1 1 1 1 6 6 6 6 7 7 7 7 7 7 7 7 u u u u 7 7 u u 7 u u u 7 7 8 8 8 8 8 u p p p a p 8 8 7 7 7 8                               ",
"                                                                                                      / ~ / / ^ ^ A A F A A C b x x x b b C C C C b b A T A A A A A A C b x x x b b x x x x b C C A A A C b b C b b b b C Z C C C A C x x x x x x x x x x x x f a p 7 p x x x A A C Z v x C x x x x x x x k x k a a p p p p p a p a p p i u u u u u u u u 7 7 7 7 7 7 1 1 1 1 > > > > > - > > > 1 1 > 1 1 1 1 1 > 1 1 6 7 u 7 7 6 6 7 u u u u u u 7 8 8 7 8 7 8 u p p p p p 8 7 7 7 7 p                             ",
"                                                                                                    / ~ / / ^ T A C A A C C A C x x x C C C C C b b b b A b A A A A A C x x x x x x x x x x x x b C C C x b b b x b C C C C C Z Z C C b x x x x x x z x x x x x f a p a x x v ! A C C x x C x x x x x x x a a p p p p p i p p p p i u p u u u u p u u u u 7 7 1 1 1 > > : : - - > ; - - - - > > > > > > > > > ; ; > > 1 1 1 1 1 1 6 7 u u u u u u u u 8 7 7 7 7 8 u u p p p 8 7 7 7 7 7 p                           ",
"                                                                                                    ~ / / / T A C C C C C C C x x C C b b x b b b b b b b b b C b A b b b x x x x x x x x x x x x b b x x x x x x v C C A C Z x x C v x x x x x x x x x x f f f f a p a x x Z / / C x x x x x x x x x x k a p i i u u p p p p u u u u p p p u u u 7 7 1 1 1 1 > > > > > - - - - ; - ; ; - ; ; > > > > > > > > > > > > > > > > > > 1 6 6 6 7 u u u u u u u 7 7 7 8 8 u u u u u 8 8 7 7 7 u                           ",
"                                                                                                  F / / A A C b x x x x C x x x C C b b x x b b x x b b b b b b b b x b C x x x x x x x x x x x x b x x x x x x x x x C C C v x x x x x b x x x x x x x x x x z a a p a x x Z A A Z x z z x x x x x h x a p i i 8 u p u u u u u u p p p u u 7 1 1 > > > ; > > > > > ; ; - - - - - - - ; ; ; ; ; - - ; > > > > ; > > > > > > > > > > > 1 1 1 6 6 7 u p u u u 8 7 7 8 8 u 8 8 8 8 8 7 7 7 7 p                         ",
"                                                                                                  A / A C C x x x x x x C x x x C C x x x x x x x x x x b b b c b c x b C x x x x x x x x x x x x b x x x x x x x x x x C Z v x x x x x b C x x x x x x x x x z a a p a f z C A C x x a z x x x x k h x a p i i u p u u u u u u u u u 7 6 1 1 > > > > > ; ; > > ; ; ; ; - - - ; - - - - - - - - - - - - - - - - ; > > > > > > > > > > > > 1 1 1 1 7 u p u u u 7 7 7 8 8 8 8 7 7 8 7 7 6 7 u                         ",
"                                                                                                A / A x x x x x x x x x C C x x x x x x f f f f x x k x x x x x b b x x x x x x x x x x x x x x b x x x x x x x x x x x x x x x x x x x x x x x x x x x x x a a p p p a a z x C x z z a z x x x x h k a a p i u u u 7 7 7 u u 7 7 6 1 1 > > > > > > > > ; ; ; ; - - - - - - - - - % % - % % - ; ; ; > > > > - - - - - ; ; ; ; > > > > > > > > > 1 1 1 7 p p u u 8 7 7 7 7 8 8 7 8 8 7 6 6 7 p                       ",
"                                                                                                / A x x x x x x x x V V z z f f f g p p p p p p p p p f x x x x x x x x x x x x x x x x x x x x x x x x x x x f x x x x x x x x x x x x x x x x x x x x x f a a p p p a f x x x x f f f f x x x x a a p p i u u u 7 7 7 u u 7 1 > > > > > > 1 > > > ; 4 K ] ] ] ' { R R P K j j j H K K P P P W W W { ` ` W j ; % % % % - - - ; ; ; > > ; > > > > > 1 1 7 u p u u 8 8 7 7 7 8 8 8 8 7 7 6 7 u                       ",
"                                                                                              / / C x x x x x z f f f d p p u u u u u u 7 u u u u u p p a f x x x x x x x x k x x x x x x x x x k h k x x x x x k x x x z z z z x x x x x x x x x x x x z f a a a a p a f z z x f a f x k x x k h a p p i u u u u u u u u 1 1 > : > > > > > > ; - - > 8.K.K.K.L.L.F.F.s.i.y.8. .] ] ] ] ] | | | .......... .` L 8 % $ $ % % - - - ; ; ; > > > ; > > > 1 1 7 7 p u u 8 8 7 7 7 8 8 8 8 7 7 7 7 p                     ",
"                                                                                              / C x f a f g f f p u u u 6 1 1 1 1 1 1 1 1 1 1 1 1 6 u u u p p f x x x f k k a a x x h x k k x x a a a k k x x x x k x z z f z z z x x x x x x x x f x z a a a a a a p a f z z z a f x x x k f a a a p i u u 7 u u u u 7 1 1 > > > > > > > > ; - % 3 8.K.Y.Y.K.K.K.K.F.F.i.u.0. .] ] ] ] ] | | |  ...........| W J 9 3 % % % % $ % % - ; - > > ; ; ; > > > 1 4 7 p p u u 8 8 7 7 7 8 8 7 7 7 7 u                     ",
"                                                                                              z a p p p u p _ d.u._ h 7 1 1 1 1 1 1 1 > 1 1 > > > > 1 1 1 7 u u p f a f f k k x a a h h x h a a a a a k k h f x x x x x f z f f f z z z x x x x x a a a p a a a p p u a x x x x f f f x f a a a a p u u u u u u u 7 6 1 > > > > > > > > ; - - - h y.K.Y.Q.Q.Y.I.I.K.H.H.F.i.y.0. .[ ] ] ] ] | | |  . ....... .` L H G 0 3 - % $ $ @ % % - - - - - ; - - ; > 1 4 7 u p u u 8 7 7 7 7 8 8 7 7 7 8 u                   ",
"                                                                                            a p p u u u ' ~.+X@X X[.).K.w.R h 4 1 1 1 1 1 1 > > > > > > > 1 1 1 u u p p p f f f a a h h a a p p a a a k k a a x x k f k f a f a a a a a a a a a x a a p p p a p p p u p x x x x f a a f a p p a p u 8 7 u u u 7 7 1 1 > > > > > > > ; - - % - R F.K.K.Q.Q.!.!.Q.Q.Y.I.K.F.s.u.q.8. . .| | | | |  .............| U J G G G 9 5 ; $ @ $ $ % % % - - ; - - - ; > 1 1 4 7 u u u 7 7 7 7 7 7 7 7 7 8 8                   ",
"                                                                                          f p p u u _ Q.$X$X+X+X+XoX X[.).!.K.y.R h 7 1 > > > > > > > > > > > > 1 1 6 u u p p p p f f a a a p p p a a a a a a a x x a a a a a a a a a a p p p p a a a a p p p p p u u p x x x x a a a a a p p p p u 7 7 u u 7 7 1 1 > > > > > ; ; - - % % - R s.K.K.Y.Q.!.~.~.!.!.Q.T.I.K.F.s.i.y.0.0.9.9...9.9.0.0.0.0.0.0.e...` P J G G G j 9 5 - @ @ $ @ % % - - - ; - % ; > > > 1 1 u u 7 7 7 7 7 7 7 7 7 7 8 u                 ",
"                                                                                        f d p u x s.+X3X1X$X+X+X+X.X X[.'.).~.Q.I.L.u.] c i 4 > > > > > > > > > > > > 1 1 6 u u p p p p p p p p p p p a p p a a a x a a a a a a a a a a p p p p p p a p p p p p p u u a x x x x a a p a p p p p u u u 7 u 7 1 1 1 1 > > > ; ; ; - - % % 3 P y.F.K.K.Q.!.~.).).~.~.!.!.Q.Y.K.K.F.F.i.i.u.u.y.r.u.u.u.u.i.r.r.r.e...` L J H G G G j 0 3 % $ @ @ % % - - ; ; % % - - > > > 1 7 u 7 7 7 7 7 7 7 7 7 8 u                 ",
"                                                                                      d p u f u.[.3X3X3X$X$X+X+X+X+X.X X'.).).~.~././.Q.K.s.q.' K 7 > > > > > > > > > : : > 1 6 7 u p u u u u u i i p p p p p p a a h a a a a a a a p p p p p p p p p p p p p p p 8 u a x x x x a p p p p p p p u u u 7 6 1 1 1 1 > > > ; ; - - - % % 5 W 8.y.s.K.I.Q./.^.).`.).).^.~./.!.Q.T.I.K.K.F.F.F.D.D.D.D.D.D.D.S.i.i.i.y...` U J H G G G G j 0 5 ; $ $ $ % % - ; - % % % - ; > > 1 1 7 7 7 6 4 7 7 7 7 7 8 u               ",
"                                                                                    d u u x ^.2X2X3X3X3X1X$X+X+X+X+X@X X[.'.`.`.).^././.Q.W.K.L.L.w.7 - - - ; > > > > ; ; : > 1 1 6 u u u 7 7 7 u i i i u p p p p a a a a a a a p p p p p u p p p p p p p p p p p u u a x x x x a p a p p p p u u u 7 6 1 1 1 1 > > > ; ; ; - - % @ 8 W | 8.y.p.K.I.!.^.).`.'.`.).).).~.~.~.!.Q.Q.I.K.H.H.G.G.F.F.F.F.F.F.F.D.S.i.y...` U J J H G G G G j 9 8 ; $ $ % - - - - % % - - - - : > 1 7 7 7 7 4 7 7 7 7 8 8 p             ",
"                                                                                f g p a 8.@X2X2X3X3X3X3X1X$X+X+X,X+X+X.X X[.[.[.`.).^./././.Q.K.L.u.[ l % % % - ; > > > > > > > > 1 1 7 u u u 7 u u u u u u p p p p p p p a a p p p p p u p p u u u u u p p u u u u 8 a x x x x a p p p u p u u u u 1 1 1 > 1 1 > ; ; > ; - - % % l W ]  .8.y.i.K.Y.~.).`.'.[.[.'.`.).).(.~.~.!.!.Q.T.I.K.K.H.H.H.H.H.G.G.G.F.D.S.i.e...` U L J H G G G G G j 9 0 ; $ % - - - - % - - - - - - > 1 7 7 7 7 7 7 7 7 7 8 p             ",
"                                                                              z p p 7.[.3X2X3X3X2X2X3X3X1X$X$X$X,X,X+X@X.X X X{.[.].`.^.^././.Q.J.p.8.] W i % @ % - > > > > > ; > : > 1 6 u u u 7 u 8 8 8 u u 8 8 p p p p p a a p u u u u u u 8 7 8 u 8 u u u u u 8 8 p a k k h a p p 8 i u u u u 7 1 > 1 1 > > > > ; ; - % % ; P ] ] ]  .9.y.F.I.!.).`.'.[.[.[.[.'.`.`.).).).~./.!.!.Q.T.I.I.I.K.K.H.H.H.H.G.G.F.S.r.e...} U L J J H G G G G G G j 0 3 % % - - - - - - - - % - > 1 6 7 7 7 7 7 7 7 8 8             ",
"                                                                            z z _ R.1X2X2X2X2X2X3X3X3X3X1X1X1X1X1X,X+X+X@X.X.X.X{.[.[.].`.^././.Q.K.p.0.[ ] R 8 @ @ % - - ; ; ; > > > > > 1 6 7 7 u 7 7 8 8 8 u u p p u p p p p p u u 7 7 u 7 7 u 8 7 7 7 8 8 8 u 8 u p a a a a p u u 8 u u u u 7 4 1 1 > > > > > > : - % % 3 W ] ] ]  .8.0.i.K.!.^.`.`.[.[. X X{.[.[.'.'.`.).).).~.~.!.!.!.T.T.U.U.I.I.I.I.H.H.G.G.S.y.e...} W I L J J J H G G G G G G 0 5 ; % - - % % - - % % - : 1 1 6 7 7 7 7 7 7 7             ",
"                                                                          z x w.+X3X2X2X2X2X3X3X3X3X3X3X3X1X1X1X1X,X,X+X+XOXOX.X.X{.{.[.].`.^././.Q.K.p.q.8.] ' K % @ @ % - - ; > > ; ; > > 1 6 7 u u 7 7 8 7 8 u u u 8 8 i i i p u u 8 7 7 7 7 7 7 7 7 7 8 8 8 8 8 8 p a a a a p u 8 8 7 u u u 7 4 4 4 1 > > > > - % % % > R ] ]  . .8.0.u.F.Q.^.).`.'.[. X X X X|.[.[.[.'.'.`.).).).(.~.!.!.!.T.T.T.T.U.I.I.P.H.G.D.t.y.e...| Q I L J J J J H G G G G G G j 5 ; - - - - - - - - - > 1 1 7 7 7 7 7 7 8 8           ",
"                                                                        x _ W.+X3X2X2X2X2X2X3X3X3X3X3X3X3X3X3X3X1X1X,X,X>X>X>XOXOX.X.X{.[.].`.^././.Q.K.s.q.8.] ] R 8 % @ @ % % ; ; ; ; > > > 1 1 7 7 u 7 7 7 u i i i 8 8 8 8 u u u u 8 7 7 6 6 7 7 7 7 7 7 7 7 7 8 8 p a p p p p p 8 7 7 u 7 7 4 4 4 4 4 1 > > - % % % % l ] [  . .8.0.u.s.Y.~.).`.'.[.{. XoXoXoX X X|.[.[.'.'.'.`.).).).(.~.!.!.!.!.!.T.T.U.I.P.P.G.S.r.y.e...| Q U L L L J J J J H G G G G G 9 3 - - - - - - % % - > 1 6 1 7 7 7 7 7 8           ",
"                                                                    x _ J. X3X2X2X2X2X2X2X3X3X3X3X3X3X3X3X3X3X3X3X1X1X1X,X,X,X>X+X+XOX.X{.[.].`.^././.Q.E.L.u.0. .] { P 8 % @ $ % - ; > > > > > 1 1 6 7 7 u 7 u u i i u 8 8 7 7 8 8 8 7 7 7 6 6 6 6 7 7 7 7 7 7 8 7 8 p p p p p p p 7 7 u u 7 7 4 4 4 4 1 > > - - % % - > R [ 8.8.8.0.y.F.K.~.`.`.'.[.{. XoXoXoXoXoXoX X X|.|.[.[.'.'.'.).).).(.~.!.!.!.!.T.T.U.I.I.H.F.S.t.r.e.e. .` U I L L L L J J J H G G G G j > - - - - - - % - - > 1 1 4 7 7 7 7 8           ",
"                                                                    q.`.#X2X2X2X2X2X2X3X3X3X3X3X2X3X3X3X3X3X3X3X3X3X1X1X1X1X1X,X,X,X+XOX.X{.[.].`.^././.Q.W.L.s.y.8.] ] ' K 3 $ @ % % : > > > > > > 1 6 7 u u 7 7 u u u 8 8 8 7 7 7 7 7 7 7 1 1 6 6 6 7 7 7 7 7 7 7 7 u p p p p p i 7 u u 7 7 7 4 4 4 > > ; - - % % % - l ] [ 8.8.0.y.s.K./.`.`.'.[.{. XoXoX.X.X.XoXoXoXoXoX X|.[.[.[.[.'.`.).).(.(.(.~.!.!.T.T.I.I.P.G.F.S.t.r.y.e...} Y U I L L L L J J J J H G G 0 - - - - - - - - - - > 1 1 7 7 7 7 7           ",
"                                                                  ^.oX#X2X2X2X2X3X3X3X2X3X2X3X3X3X3X3X3X3X3X3X3X3X3X3X1X1X1X1X1X,X,X>XOX.X.X{.[.].].^./././.W.K.s.y.8.] ] ' R l $ @ $ % : > > > > > 1 1 6 7 u u 7 8 u i i i u 7 7 7 1 1 1 1 1 1 1 6 6 6 7 7 7 7 7 7 7 u p p p i u u u u u 7 7 7 4 1 > > > - % % % % % ; P ]  .8.0.q.i.K.!.).`.).'.[. XoXoXoX.XoXoXoXoXoXoXoXoXoX X|.[.[.'.'.'.).).(.(.(.!.!.!.T.T.I.I.P.G.D.S.t.r.y.e...} Y U I I I L L L J J J J J G 3 - - - - - > - % - > 1 7 7 7 7 7 7           ",
"                                                                oX+X#X2X2X2X2X3X3X2X2X3X2X2X3X2X3X3X3X3X3X3X3X3X3X3X1X1X1X1X1X1X1X,X,X>XOX@X.X{.[.].].^.^././.Q.E.J.p.q.8.] ' ' R 8 $ @ % - ; > > > 1 1 1 1 7 7 u u u u i i u 7 7 4 4 1 > > > > 1 > 1 1 1 1 > 1 7 6 7 u p p i i 8 8 u u 7 7 4 4 4 1 > > > - % % % % - 8 ' [ 8.0.q.u.L./.).].).(.'.|. XoX.XoXoXoXoXoX+X+X+X.XoXoXoX X X[.[.'.'.).).).(.(.(.!.!.T.T.I.I.P.H.G.D.S.S.t.r.e...} Q U U I I I L L L J J J J 9 ; - - - - - - % % - > 1 7 7 7 7 8 8         ",
"                                                            oXXX#X3X2X2X2X2X3X3X2X2X3X3X3X3X3X3X3X3X3X3X3X3X3X1X1X1X1X1X1X1X1X1X1X1X,X,X>X+XOX.X}.{.].].].^././.Q.W.K.s.y.8.[ ] ' ' R 5 % % % > > > 1 1 1 1 6 7 7 u p u 8 u u 7 7 4 1 1 1 > > > > > > > > > > > 4 1 7 7 u i i u 7 u u 7 7 4 4 4 4 > > > - - - % % - > R ] 8.8.y.a.L.Q.).].'.).~.'. X.XoX+X+XoXoXoX+X+X+XoX+XoXoXoXoX X|.[.[.'.'.).).).(.(.!.!.!.T.T.I.I.P.H.G.F.D.S.t.r.e...} ` Y U U U I L L L L L L J 5 - - % - - - - - > 1 1 7 7 7 7 8 u         ",
"                                                          oX+X#X2X2X2X2X2X2X3X3X2X3X3X3X3X3X3X3X3X3X3X3X3X1X1X1X1X1X1X1X1X1X1X1X1X1X1X,X,X>XOX.X.X}.{.[.].].^.^././.Q.E.L.u.0.8.] ] ' ' l % % - > > 1 4 1 1 7 7 7 7 u u u u u 7 7 4 4 4 > > > > > > > > > > > > 1 1 7 7 u i i u 7 u u 7 1 4 4 4 4 > > ; - - - - - % l ] ] 8.0.p.L.Q.^.].[.'.(.(.'.oXoX+X+X+XoXoXoXoX+X+XoX+XoXoXoXoX X X[.[.'.'.'.).).(.(.(.!.!.T.T.T.I.I.P.H.G.G.D.S.t.r.e.X...` Y U U U I L L L L L L j 3 - - - - - > > > - > 1 6 7 7 7 i         ",
"                                                      oXXX#X2X2X2X2X2X2X2X3X3X3X3X3X3X3X3X3X3X3X3X3X3X3X1X1X1X1X1X1X1X1X1X1X1X1X1X1X1X1X,X,X>XOXOX.X}.}.[.].].^.^././.Q.E.L.p.q.8.[ ] ] ' c > % % ; > 7 7 4 7 7 7 7 u u u u u 7 7 7 4 4 > > > > > > > > > > > > 1 1 7 7 8 u i u u u 7 7 7 7 4 4 4 > ; - % % - ; - > W ]  .8.q.L./.^.].[.[.'.).'.|.oX+X+X+X+XXXoXoX+X+X+XoXoXoXoXoXoX X X|.[.'.'.'.`.).).(.(.!.!.!.T.T.I.I.I.P.H.G.G.S.S.t.r.e.e...` Q Y U U U I I I I L J 0 - - - - - - - - % - > 1 7 7 7 u         ",
"                                                  oXXX#X2X2X2X2X2X2X2X2X2X3X3X3X3X3X3X3X3X3X3X3X3X3X3X3X1X1X1X1X1X1X1X1X1X1X1X1X1X1X1X1X1X,X,X,X>XOXOX.X.X}.].].].^././.Q.W.J.s.y.0. .] ] ] W 8 % % - 4 7 7 7 7 7 7 7 u 7 u u u u 7 7 7 1 1 1 1 > > > > : : : > 1 1 7 7 8 8 i u u 7 7 7 7 4 4 1 > > - % % % - ; ; c ] ] 8.0.u./.`.[.{.[.[.[.[.[.oXoX+X+X+X+X+X+X+X+X+X+X+XXXoXoXoXoX X X|.[.[.'.'.'.).).(.(._.!.!.T.T.I.I.I.P.P.G.G.F.D.S.t.r.r.e...} Q Y U U U U U U I L H 5 - - - - - - - % - - > 1 7 7 8         ",
"                                               XXX#X2X2X2X2X2X2X2X2X2X2X3X3X3X3X3X3X3X3X3X3X3X3X3X3X3X1X1X1X1X1X1X1X1X1X1X1X1X1X1X,X1X1X1X,X,X,X,X>X>XOX.X.X{.[.].].^.^././.Q.E.L.a.0.8.[ ] ] ' c > % ; 1 4 7 7 7 7 8 8 7 7 p p u 7 7 7 1 1 > > > > > > - - - > > 4 7 7 7 8 i u u 7 1 4 4 4 > > > > - % - - - ; 4 ' ]  .8.y.L.^.{.}. X X X X XoX.X+X+X+X+X+X+XXXoXoXXXXX+XoXoXoXoXoXoX X|.|.[.[.'.'.'.).(.(._.!.!.T.T.U.I.I.I.P.P.G.G.G.D.S.t.t.r.e...} ` Q Q Q U U U U U L G ; - ; - - - - - - - > 1 7 7 7 8       ",
"                                            oXXX1X2X2X2X2X2X2X2X2X2X2X3X3X2X3X3X3X3X3X3X3X3X3X3X3X1X1X1X1X1X1X1X1X1X1X1X1X1X1X1X,X,X,X,X,X,X,X,X,X,X>X>XOX.X}.}.{.].].].^.^././.W.J.p.q.8.8.[ ] ] P > % > 4 7 8 7 7 8 8 7 7 u u 7 7 7 6 1 1 > > > > > > - - - > > 4 7 7 7 8 u u u 7 7 7 8 4 > > > - - - - ; ; ; n ] [ 8.0.p.E.]..X.X.X.X.X.X.XoXoX+X+X+X+X+X+X+XoXoXoXoX+X+XXXoXoXoXoXoX X|.[.[.'.'.'.).(.(._._.!.T.T.U.U.I.P.P.P.G.G.G.F.S.S.t.t.r.e...} ` Q Q Q Q U U U U J 0 - ; ; - - - > > ; - > 7 7 7 7       ",
"                                        oX+X#X2X2X2X2X2X2X2X2X2X2X2X3X3X3X3X3X3X3X3X3X3X3X3X3X1X1X1X1X1X1X1X1X1X1X1X1X1X1X1X,X,X,X,X,X,X,X,X,X,X,X,X,X>X>X+XOX.X.X.X.X}.}.{.[.].].^./.L.a.q.0.8.8.8. .l > > 4 7 i 8 7 7 7 7 i 7 7 7 7 7 1 1 > > > ; : - - - - - > 1 7 7 8 7 u 8 7 7 7 7 8 8 > > ; - - ; ; ; ; > ] [ 8.0.y.L.^..X>X>X+X+X+X+X+X+X+X+X+X+X+X+X+X+XoXoXoXXX+X+XXXoXoXoXoXoX X|.|.[.'.'.'.).(._._._.!.T.T.U.U.I.P.P.P.P.G.G.F.D.S.S.t.t.t.r.X...} } ` Q Q Q Q Q U G 3 - ; > - - > > - - - 1 7 7 7       "
};
