/* XPM */
static char *a6dcf4ce474241b1b063794461bae2f7n5aBEQItyIo3mPOK[] = {
/* columns rows colors chars-per-pixel */
"250 250 210 2 ",
"   c None",
".  c #050405",
"X  c #060608",
"o  c #080708",
"O  c #0B0B0C",
"+  c #090808",
"@  c #100F0B",
"#  c #12110E",
"$  c #1A140F",
"%  c #0D0E11",
"&  c #0E1114",
"*  c #0F1419",
"=  c #151512",
"-  c #191612",
";  c #171814",
":  c #1A1A15",
">  c #131619",
",  c #15191D",
"<  c #1C1D1A",
"1  c #0F100D",
"2  c #211E1A",
"3  c #251D17",
"4  c #1F201C",
"5  c #22221D",
"6  c #2A241D",
"7  c #37261D",
"8  c #161C21",
"9  c #1A1E22",
"0  c #1D2125",
"q  c #1D2429",
"w  c #242522",
"e  c #292721",
"r  c #262923",
"t  c #2B2B25",
"y  c #23262A",
"u  c #25292C",
"i  c #2C2E2A",
"p  c #2E272B",
"a  c #312D26",
"s  c #3C2B23",
"d  c #302F28",
"f  c #362924",
"g  c #2E312A",
"h  c #2F3027",
"j  c #33332C",
"k  c #39362E",
"l  c #39382F",
"z  c #37372E",
"x  c #252B31",
"c  c #2B2E31",
"v  c #2D3134",
"b  c #2F3438",
"n  c #343632",
"m  c #383730",
"M  c #363932",
"N  c #3B3C34",
"B  c #333639",
"V  c #36393C",
"C  c #3B3E3A",
"Z  c #382F34",
"A  c #432D23",
"S  c #412A2F",
"D  c #473026",
"F  c #493126",
"G  c #4C3429",
"H  c #46352C",
"J  c #50372B",
"K  c #53392E",
"L  c #583C2F",
"P  c #413E35",
"I  c #4C3B33",
"U  c #413F38",
"Y  c #543D32",
"T  c #5A3E32",
"R  c #4C2D33",
"E  c #3D4037",
"W  c #3E413A",
"Q  c #404037",
"!  c #42443C",
"~  c #4A453D",
"^  c #45483F",
"/  c #4A493F",
"(  c #5D4134",
")  c #5B453B",
"_  c #5E493E",
"`  c #554238",
"'  c #634639",
"]  c #63493D",
"[  c #6B4C3E",
"{  c #624537",
"}  c #71503F",
"|  c #3B3E41",
" . c #363C42",
".. c #3E4145",
"X. c #3E444A",
"o. c #424543",
"O. c #454941",
"+. c #4A4C44",
"@. c #424649",
"#. c #454A4D",
"$. c #494C4D",
"%. c #524E44",
"&. c #5A4D44",
"*. c #4D5047",
"=. c #4E5149",
"-. c #535145",
";. c #52544B",
":. c #58594E",
">. c #4A4E52",
",. c #454C51",
"<. c #4D5155",
"1. c #4E545A",
"2. c #4A545A",
"3. c #505456",
"4. c #51565A",
"5. c #54595D",
"6. c #585B57",
"7. c #644D42",
"8. c #6B4E41",
"9. c #714F42",
"0. c #6A5246",
"q. c #6D5449",
"w. c #685246",
"e. c #745243",
"r. c #7A5646",
"t. c #7B5847",
"y. c #745A4D",
"u. c #7D5B4A",
"i. c #745749",
"p. c #795E51",
"a. c #615F54",
"s. c #7D6154",
"d. c #79665A",
"f. c #6E6153",
"g. c #555C62",
"h. c #5A5E61",
"j. c #525F68",
"k. c #5C6265",
"l. c #5C646A",
"z. c #546169",
"x. c #5E6B73",
"c. c #62676B",
"v. c #696E72",
"b. c #646D74",
"n. c #6C7176",
"m. c #6E7479",
"M. c #64727C",
"N. c #71777B",
"B. c #73797D",
"V. c #7B7F7F",
"C. c #825D4C",
"Z. c #85614E",
"A. c #856353",
"S. c #8A6552",
"D. c #8D6955",
"F. c #86695B",
"G. c #8C6B5B",
"H. c #826659",
"J. c #916A56",
"K. c #946C5A",
"L. c #996E5D",
"P. c #94705E",
"I. c #9B715E",
"U. c #8F705F",
"Y. c #8C6E60",
"T. c #8E7161",
"R. c #877464",
"E. c #947463",
"W. c #9C7462",
"Q. c #9D7966",
"!. c #9C7B6B",
"~. c #977869",
"^. c #906F60",
"/. c #A17663",
"(. c #A37A66",
"). c #A47D6A",
"_. c #AA7E6B",
"`. c #A5816D",
"'. c #AB826E",
"]. c #B1856F",
"[. c #A58371",
"{. c #AC8572",
"}. c #AD8976",
"|. c #AE8A78",
" X c #B28671",
".X c #B48A75",
"XX c #B38D7A",
"oX c #BA8E7A",
"OX c #B6917D",
"+X c #BC927D",
"@X c #C1947E",
"#X c #C2987F",
"$X c #757C82",
"%X c #777F8B",
"&X c #6A7A85",
"*X c #7A838A",
"=X c #7A8995",
"-X c #868E95",
";X c #BC9581",
":X c #BF9883",
">X c #8A94A1",
",X c #C19581",
"<X c #C39A85",
"1X c #CB9C86",
"2X c #C69E88",
"3X c #CD9E88",
"4X c #D09F87",
"5X c #CFA088",
"6X c #CFA087",
"7X c #D0A189",
/* pixels */
"                                                                                                                                                                                                                                                                                                                                                                                                                                                                                                                    ",
"                                                                                                                                                                                                                                                                                                                                                                                                                                                                                                                    ",
"                                                                                                                                                                                                                                                                                                                                                                                                                                                                                                                    ",
"                                                                                                                                                                                                                                                                                                                                                                                                                                                                                                                    ",
"                                                                                                                                                                                                                                                                                                                                                                                                                                                                                                                    ",
"                                                                                                                                                                                                                                                                                                                                                                                                                                                                                                                    ",
"                                                                                                                                                                                                                                                                                                                                                                                                                                                                                                                    ",
"                                                                                                                                                                                                                                                                                                                                                                                                                                                                                                                    ",
"                                                                                                                                                                                                                                                                                                                                                                                                                                                                                                                    ",
"                                                                                                                                                                                                                                                                                                                                                                                                                                                                                                                    ",
"                                                                                                                                                                                                                                                                                                                                                                                                                                                                                                                    ",
"                                                                                                                                                                                                                                                                                                                                                                                                                                                                                                                    ",
"                                                                                                                                                                                                                                                                                                                                                                                                                                                                                                                    ",
"                                                                                                                                                                                                                                                                                                                                                                                                                                                                                                                    ",
"                                                                                                                                                                                                                                                                                                                                                                                                                                                                                                                    ",
"                                                                                                                                                                                                                                                                                                                                                                                                                                                                                                                    ",
"                                                                                                                                                                                                                                                                                                                                                                                                                                                                                                                    ",
"                                                                                                                                                                                                                                                                                                                                                                                                                                                                                                                    ",
"                                                                                                                                                                                                                                                                                                                                                                                                                                                                                                                    ",
"                                                                                                                                                                                                                                                                                                                                                                                                                                                                                                                    ",
"                                                                                                                                                                                                                                                                                                                                                                                                                                                                                                                    ",
"                                                                                                                                                                                                                                                                                                                                                                                                                                                                                                                    ",
"                                                                                                                                                                                                                                                                                                                                                                                                                                                                                                                    ",
"                                                                                                                                                                                                                                                                                                                                                                                                                                                                                                                    ",
"                                                                                                                                                                                                                                                                                                                                                                                                                                                                                                                    ",
"                                                                                                                                                                                                                                                                                                                                                                                                                                                                                                                    ",
"                                                                                                                                                                                                                                                                                                                                                                                                                                                                                                                    ",
"                                                                                                                                                                                                                                                                                                                                                                                                                                                                                                                    ",
"                                                                                                                                                                                                                                                                                                                                                                                                                                                                                                                    ",
"                                                                                                                                                                                                                                                                                                                                                                                                                                                                                                                    ",
"                                                                                                                                                                                                                                                                                                                                                                                                                                                                                                                    ",
"                                                                                                                                                                                                                                                                                                                                                                                                                                                                                                                    ",
"                                                                                                                                                                                                                                                                                                                                                                                                                                                                                                                    ",
"                                                                                                                                                                                                                                                                                                                                                                                                                                                                                                                    ",
"                                                                                                                                                                                                                                                                                                                                                                                                                                                                                                                    ",
"                                                                                                                                                                                                                                                                                                                                                                                                                                                                                                                    ",
"                                                                                                                                                                                                                                                                                                                                                                                                                                                                                                                    ",
"                                                                                                                                                                                                                                                                                                                                                                                                                                                                                                                    ",
"                                                                                                                                                                                                                                                                                                                                                                                                                                                                                                                    ",
"                                                                                                                                                                                                                                                                                                                                                                                                                                                                                                                    ",
"                                                                                                                                                                                                                                                                                                                                                                                                                                                                                                                    ",
"                                                                                                                                                                                                                                                                                                                                                                                                                                                                                                                    ",
"                                                                                                                                                                                                                                                                                                                                                                                                                                                                                                                    ",
"                                                                                                                                                                                                                                                                                                                                                                                                                                                                                                                    ",
"                                                                                                                                                                                                                                                                                                                                                                                                                                                                                                                    ",
"                                                                                                                                                                                                                                                                                                                                                                                                                                                                                                                    ",
"                                                                                                                                                                                                                                                                                                                                                                                                                                                                                                                    ",
"                                                                                                                                                                                                                                                                                                                                                                                                                                                                                                                    ",
"                                                                                                                                                                                                                                                                                                                                                                                                                                                                                                                    ",
"                                                                                                                                                                                                                                                                                                                                                                                                                                                                                                                    ",
"                                                                                                                                                                                                                                                                                                                                                                                                                                                                                                                    ",
"                                                                                                                                                                                                                                                                                                                                                                                                                                                                                                                    ",
"                                                                                                                                                                                                                                                                      | V.$.                                                                                                                                                                                                                                        ",
"                                                                                                                                                                                                                                                                    ..y ..c                                                                                                                                                                                                                                         ",
"                                                                                                                                                                                                                                                                    .., > ,                                                                                                                                                                                                                                         ",
"                                                                                                                                                                                                                                                                    ..> = ,                                                                                                                                                                                                                                         ",
"                                                                                                                                                                                                                                                                    | , = >                                                                                                                                                                                                                                         ",
"                                                                                                                                                                                                                                                              | <.4.#.i 9 < B V ..                                                                                                                                                                                                                                  ",
"                                                                                                                                                                                                                                                              v @...X...| v w w w V                                                                                                                                                                                                                                 ",
"                                                                                                                                                                                                                                                            <.B .. .V V V n u y y B c.v.n.                                                                                                                                                                                                                          ",
"                                                                                                                                                                                                                                                  #.5.n.B.N.n.k.5.1.<.>.$.$.>.>.<.4.v.n.m.B.$X                                                                                                                                                                                                                      ",
"                                                                                                                                                                                                                                                  $.$.3.v.$XB.N.m.n.c.k.k.k.c.v.n.n.N.N.B.B.$X$XB.              k.5.#.@...V         ..>.@.#.#.                                                                                                                                                                      ",
"                                                                                                                                                                                                                                                <.3.4.3.4.v.$X$XB.B.n.v.v.v.n.N.N.N.N.B.B.B.B.B.N.B.B.          C < w k.V <       n u c c.V , w                                                                                                                                                                     ",
"                                                                                                                                                                                                                                              <.>.<.4.4.5.h.c.B.$XN.m.n.n.n.m.N.B.B.B.B.B.N.B.N.m.N.N.N.N.      V > w $.M <       o.v c $.! > 9                                                                                                                                                                     ",
"                                                                                                                                                                                                                                              #.>.>.>.4.5.h.k.c.m.-X$Xv.v.v.v.v.n.v.v.v.v.v.v.v.n.v.n.n.n.n.m.4.B > > > , 0       $.V , > = = <                                                                                                                                                                     ",
"                                                                                                                                                                                                                                              @.@.$.>.<.4.h.h.l.k.k.@.y q q 0 0 0 w y y y u u u u u u u c | k.<.n > > > , w >.5.5.<..., = = = 9                                                                                                                                                                     ",
"                                                                                                                                                                                                                                              @.@.@.#.<.4.5.5.5.5...8 > >.5.>.>.<.<.>.>.>.>.>.>.>.>.$.>.>.1.h.<.n > > > , , u c c v i , = = = <                                                                                                                                                                     ",
"                                                                                                                                                                                                                                              @.@.@.@.#.4.5.5.4.3.c , V -X-X*Xm.n.n.n.v.n.n.n.v.n.v.4.#...4.<.#.V 9 < < , , < < < < 9 < , , , <                                                                                                                                                                     ",
"                                                                                                                                                                                                                                              @.@.@.@.@.#.<.5.5.5.B i >.g.c.n.$X$Xn.n.n.n.n.n.n.n.c.#.c w ......V v c c y w w w w y u u u u y y                                                                                                                                                                     ",
"                                                                                                                                                                                                                                              @.@.@.@.@.@.,.<.4.5.@.| | 4.h.k.c.$X$Xn.n.n.n.n.n.n.4.o.q 9 V V >.1.@.X.......@.#.@.......| | | ..1.5.                                                                                                                                                                ",
"                                                                                                                                                                                                                                              @.@.o.@.@.@.@.@.@.<.5.g.4.h.5.h.k.c.v.*X$Xn.m.m.m.h.#.B , 9 c B ..| 9 9 9 9 9 q q q q q 9 9 8 , , , 9 9 q                                                                                                                                                             ",
"                                                                                                                                                                                                                                              o.o...@.@.@.@.@.@.@.$.g.5.5.5.h.k.k.c.c.n.*XB.n.v.4.| y < 9 w B | u > & & = = = > > > > = = = = = = > > > 9                                                                                                                                                           ",
"                                                                                                                                                                                                                                              o.....@.@.@.@.@.@...@.#.#.<.3.h.h.k.k.k.k.b.-X*Xn.c.4.| V v y B | w , > , , , , 8 , , , , , , , , , > > > ,                                                                                                                                                           ",
"                                                                                                                                                                                                                                              o.....@.@.@.@.@.......#.@.@.#.>.3.5.h.k.c.l.c.$X*Xn.k.5.<.$.| V V 9 9 0 9 9 q q 9 9 9 9 9 9 9 9 9 9 9 9 9 9                                                                                                                                                           ",
"                                                                                                                                                                                                                                              o.....@.@.#.@.@.@...#.5.$.#.>.$.>.<.3.5.h.h.l.v.N.*X$Xl.4.<...B c 8 y q q y y y y y q q q w y y w w y y y w c g.                                                                                                                                                      ",
"                                                                                                                                                                                                                                              o.....@.@.#.#.#.@.@.<.4.<.>.<.<.<.3.5.5.h.h.k.c.v.N.*X>Xn.5.<.#.V v v B B B B B B B B v n n n v n B B B B B V <.1.5.k.                                                                                                                                                ",
"                                                                                                                                                                                                                                            @.o.| ..@...#.#.#.@.@.<.<.4.3.<.<.3.5.5.5.h.k.c.v.v.v.n.*X5.V B B v u i u u u y y y r u u u u y w u u u c c c c v B V #.h.                                                                                                                                              ",
"                                                                                                                                                                                                                                            <.#.........#.#.#.@...@.#.<.4.3.4.4.5.5.5.5.5.h.k.k.c.v.1.y w w w w w w w u w < , , ; ; , , > > : : , 0 u y y u w u u y V o.                                                                                                                                            ",
"                                                                                                                                                                                                                                            5.<.@.......#.#.#.#.@.....@.>.>.>.#.#.$.$.<.<.5.5.5.k.g.c y y y u y y y c w X . . . . . X X X X X X X X O u u w w u u y u B                                                                                                                                             ",
"                                                                                                                                                                                                                                            #.<.>.@.....o.@.#.#.@...| ..@.o.| @.@.#.#.$.<.3.4.5.c.B u y y y u y r y y + X X X X X X X X X X X X X X + = u w w y u y u u v                                                                                                                                           ",
"                                                                                                                                                                                                                                            @.#.<.#.@.......@.#.@...| | C V V | @.#.#.$.>.<.3.5.>.u u u u u r w w r < X X X X X X X X X X X X X X X + + w y w w y y u u t                                                                                                                                           ",
"                                                                                                                                                                                                                                            ..@.>.<.#.@.......@.@.| | | V n v V | @.$.#.#.>.<.<.c u y u u u r w w w : X X X o o o o o + + o X X X X + o 0 r r w w y u i i c                                                                                                                                         ",
"                                                                                                                                                                                                                                            | ..@.,.<.#.@...| ..o.| | C V n v B V | @.#.#.>.>.B y u y w r y y y w w , X X o + + + + + + + o o X X X O X : 0 w y y u x x u u c                                                                                                                                       ",
"                                                                                                                                                                                                                                            | | ..@.<.<.#.o.....| | C C V B B B v V V @.$.>.@.c u u y w w y y y w q > o o + o + + + + + + + o o X X + X ; r w y y u x c u u c                                                                                                                                       ",
"                                                                                                                                                                                                                                            o.C ....@.<.<.@.@.| | | C C V V B v B v v V $.>.V y u u u y y y y y w q , o + O + O + + + + O O + o X X + X ; u u y y u u u u c u B                                                                                                                                     ",
"                                                                                                                                                                                                                                              ..| | ..@.>.#.@...| | C V V V V v c c u C <.>.c y y y u r w y y y y w , + + O O O O + + O O O + + X X + X = y y u u y u u u c u c @.                                                                                                                                  ",
"                                                                                                                                                                                                                                                | C ....o.$.#.@.| | V V V B n v c u u V ..@.c y y y u y w y w w w q , + + O O = , , = O O O + X X X o X O w q w w w u u c c u i ..                                                                                                                                  ",
"                                                                                                                                                                                                                                                  V | ....@.#.@...C V V V B v v c u u n V ..c y y y u y u y w w w 9 , O + O % < u u y , O + o X X X + X + q q w w w u i c c c u |                                                                                                                                   ",
"                                                                                                                                                                                                                                                  | C | | | @.#.@.| C V V n v c u y i B V | c y u u u u y y w w w 9 , O + O = w v V v 9 % O o X X o + X + 9 0 0 0 w y i v B c c ..                                                                                                                                  ",
"                                                                                                                                                                                                                                                    ..| | C | @.@.| C V V n v c u u c n V V i u y y u y y y w w 9 < , O O O = q v B i , % O + o o X + X X , 9 0 q w u u i c u u V                                                                                                                                   ",
"                                                                                                                                                                                                                                                    $.| C C C | | C | V V B v u u c i B V V u y y y u u y w q w 9 : > + + O % , y u 9 = O O + + + o + X X , 9 9 q 0 w y u u u u B                                                                                                                                   ",
"                                                                                                                                                                                                                                                    X.V V V C | | | | V V B n u u c u v V V u w y y u y w w 9 0 9 : , O + O O % > > = O O O O O + + O X X > , < 9 9 w w y w y y B o.                                                                                                                                ",
"                                                                                                                                                                                                                                                    ....C V V V C C C V V B v x u c u c V V u y y y y y q q 9 9 < : , O O O O O O O O O % % O O + + O X X = , < < 9 9 w w w w y v ..                                                                                                                                ",
"                                                                                                                                                                                                                                                    C | ..V V V C | V V V B v i c c u u V V c u y y y y q q 9 9 9 : > O O O O O & % % % O O O O + + O X X & , < 9 q 0 w y w w y v ..                                                                                                                                ",
"                                                                                                                                                                                                                                                      C @...V V V C V V V B v i c v u u V B u y y w w w q q 9 9 < , > % O O O % = % % % % % % % O O % O + & , < < q 0 w y y y u c C                                                                                                                                 ",
"                                                                                                                                                                                                                                                      V | @.| V V V C V V V B i v B u c V B u q y w w w 9 9 9 9 , > > & O O O u , , , , 9 9 9 9 9 q q 9 q & > , < 9 0 0 y y y y c C                                                                                                                                 ",
"                                                                                                                                                                                                                                                        V @...V V V C V V B B c B v y c V B u w y w y y 9 9 9 9 , > = % O O = | , < < 9 9 9 9 9 q q q q y & > , < < 9 0 q w y y c V                                                                                                                                 ",
"                                                                                                                                                                                                                                                          @...C V V C V V n v c v c u c V B u w q y y w 9 9 9 9 , > = % O O , | , , , 9 9 9 9 9 q q q y y = > , < < 9 9 9 w y y c V                                                                                                                                 ",
"                                                                                                                                                                                                                                                          @...| V V V V V B v i c u u v V B y y y y y y q 9 9 9 , , , & O % w | , , 9 9 8 9 9 9 0 q y y y > > , < < 0 w 9 w y y u V                                                                                                                                 ",
"                                                                                                                                                                                                                                                          @...| ....V V V B v u c c u v V B y q w w w q q 9 9 9 , > > & O = r V 9 9 9 9 9 9 9 9 0 0 q y y , > , , < 9 9 9 q w w u n                                                                                                                                 ",
"                                                                                                                                                                                                                                                          @.....@...| V V B c u v c c u V B u q q y w q q 9 < , > = = & O < w B 9 9 9 9 < 9 9 9 9 0 q q q , = , , , < 9 0 q q w y B                                                                                                                                 ",
"                                                                                                                                                                                                                                                          @.......V @.C V B c u v n c u V B y q q q q q 9 < , > > = = % % 0 w n 9 , , , , < < < 9 9 9 q q , = > > , , , , < 9 w y n                                                                                                                                 ",
"                                                                                                                                                                                                                                                          ......| B ..<.V n c u B v c u V B y q q q q 9 , : , ; = = = & ; w 0 v q , , , , : , < 9 0 9 0 q , % & = > , , , , < q y v                                                                                                                                 ",
"                                                                                                                                                                                                                                                          ..| | V B 1.g.#.B u u B v c u V n y q q q v y < < , = = % % = < w 9 i q , , , , , : < 9 9 9 9 0 , O % % = > > : < 9 9 w i                                                                                                                                 ",
"                                                                                                                                                                                                                                                            C | | <.l.l.g...u y v v c u V n y q q 9 i > & O X X X X X + % < , y q , , , , , , < 9 9 9 9 0 > X + O , 9 0 ; % 9 9 w i                                                                                                                                 ",
"                                                                                                                                                                                                                                                              ..5.k.l.b.n.k.v y v v c i V n y w q q u > & + X X X X X X + < , w q , , , , 8 8 8 9 9 9 9 9 , X + & < 0 w ; = 9 9 w i                                                                                                                                 ",
"                                                                                                                                                                                                                                                              1.l.g.l.n.=X-Xg.u v v i c V n y y q 9 w ; & O O O O O X X X : : 9 0 , , , , , , , , 8 8 8 8 , + + & < w y , O 9 9 w u                                                                                                                                 ",
"                                                                                                                                                                                                                                                              <.5.h.l.b.*X=Xb.c B v u i B v y y q q q > > & % % % % + X X ; , : 0 , , , , , , , , , , , 8 < O O & < w y < = , 9 w u                                                                                                                                 ",
"                                                                                                                                                                                                                                                              @.,.g.l.b.&XM.1.c c c u i B v y q 9 9 y > > * & & & % + X X = ; ; 9 , , , , , , , , , , , 9 9 O % = , y u < = > < 0 y                                                                                                                                 ",
"                                                                                                                                                                                                                                                                | 5.b.l.g.1.#.B y y y c n v y q q 9 y : , > > > > & O + X = ; = 9 , , , , > > , , , , , 9 0 & & = , w u 0 = ; < 9 w n                                                                                                                               ",
"                                                                                                                                                                                                                                                                n #.g.X. .V b.x. .y u c n B u y q 9 w : , 8 , , , > & + X O = = 9 y q q 9 9 9 9 9 9 9 9 0 q * & * , w u w = = , 0 w n                                                                                                                               ",
"                                                                                                                                                                                                                                                                  v B v u u z.&XM.X.u c B B u w y 0 q : 9 9 8 9 9 , = O + O = O < ..V v v v v c c c c c c v y = > , 0 u u = = , 0 w v                                                                                                                               ",
"                                                                                                                                                                                                                                                                  i t r 0 q 2.&X=Xz.y u n v u y q 0 0 , 0 q 9 9 q 9 , = O O = O , | ..B B B v b b b v v v v v , , , 0 y u = = , 9 q i                                                                                                                               ",
"                                                                                                                                                                                                                                                                      w w w X.j.&XM.c u v v u q 9 0 9 : 0 q 0 0 q q < > % % % + , c | v v c c c c c c x c c v 9 8 < 9 w i = = , 9 0 i                                                                                                                               ",
"                                                                                                                                                                                                                                                                        n B X.1.x.b.| u v v u 9 , 9 9 = 8 0 0 0 0 q 9 , & % O + , y v u u u u u u y u u y u v y 8 8 0 q c w = > 9 w t                                                                                                                               ",
"                                                                                                                                                                                                                                                                        B V ..#.2.1.,.u v c y 9 , , , , 0 0 0 9 0 0 0 , = & O + > w c u y u u u y y y y y u c u 0 8 0 y c v , > , < t                                                                                                                               ",
"                                                                                                                                                                                                                                                                        V V | ..X.,.1.u c Z e , > > > , 0 q 0 0 0 q 0 , > = O + > w c u u u y y y y y y y u c x 0 0 q y x b , = , 9                                                                                                                                 ",
"                                                                                                                                                                                                                                                                          V |  . .X.l. .c R S , > , , 9 q q 0 0 0 0 9 8 > > % + = w u y y y y q q q q q q q u c q q q q x b i q                                                                                                                                     ",
"                                                                                                                                                                                                                                                                          V V V V @.g.,.V R s y w u y u q q 0 0 0 0 9 , , > = + = w x y 9 0 w q 9 9 9 9 0 0 q u u q q y x b V                                                                                                                                       ",
"                                                                                                                                                                                                                                                                          V V B b X.2.X. .S f y y c u x u q 0 0 0 0 9 , , , = O = w u q 9 9 9 9 9 9 9 9 8 8 0 u u y y y u v V                                                                                                                                       ",
"                                                                                                                                                                                                                                                                          V V v c | X.|  .d p u u v u u x u y q 0 q 9 9 , < , O = q y 9 8 8 , , , < 9 8 8 8 9 u u u y y c v B V                                                                                                                                     ",
"                                                                                                                                                                                                                                                                          C B c c | ,.@.X.V c u u v u x u u x u q 0 9 8 , 9 9 = = q w , , , , , , , , , , , 8 y u u y y i b v n                                                                                                                                     ",
"                                                                                                                                                                                                                                                                          | V g.m.b.k.4.#.X.v q q v u x u u x y q 0 9 8 , 8 0 , % 9 9 > > > > > > > > > > > , w y y y q u v v n                                                                                                                                     ",
"                                                                                                                                                                                                                                                                          C V k.%X>X*Xb.g.,.V y q v u x u u u y q 9 9 8 , 8 9 < % 9 , = & = & = = = = = = = = 0 y y q q u v v v O.*.                                                                                                                                ",
"                                                                                                                                                                                                                                                                          %.V B ..c.$Xn.n.l.>.V y v c x u u y q q 9 8 , , 8 , , % < = + + + + + + + + + o + + < q q q q y c v i N =.=.+.+.                                                                                                                          ",
"                                                                                                                                                                                                                                                                  2X<X#X+Xd.B u 9 9 c ....1.g.#.v v c c x x y q 0 9 8 , , , , > % > X X X X . . . . . . . X X 9 q 0 0 9 q c v i W ! ;.;.! W !                                                                                                                       ",
"                                                                                                                                                                                                                                                                2X2X<X+XOXd.V v i w , w i V g.4.#.b c c x x u q 0 9 8 8 , , , , & O . . . . . . X . X X X X O 9 0 9 8 9 q c v u n M =.;.N C ! N N                                                                                                                   ",
"                                                                                                                                                                                                                                                              2X<X+XXXR.:.+.M B c y v B w t V ..>. .v x x x y 0 8 8 , , , , , > * & & & & & & & & & & & = & , 9 9 9 9 9 w c v u t t M / N C C C N j m                                                                                                               ",
"                                                                                                                                                                                                                                                          <X,XXX~.d.:.=.+.+.Q M n w u B w 0 u c c x v u u u y q 0 8 8 8 , , , , > * * * * * > , , , , , , , , , 8 8 9 9 w u c y r e e d w r j Q N N M j                                                                                                             ",
"                                                                                                                                                                                                                                                          [.R.a.:.;.;.=.+.O.O.P N t y c w , 9 u u u c y u u q q 0 8 8 , , , , , , > * * > * , , , , , , , , , , , 8 9 9 w u c u t t 6 5 5 5 t m M j j g                                                                                                             ",
"                                                                                                                                                                                                                                                        a.a.:.;.;.;.=.=.*.+.O.! M j w c < = ; w w y u q q u y q 8 9 , , , , , , , , , , , , , , 8 8 8 8 , , , , 8 , 9 9 q u c u t t t 5 5 < 5 i j M g i t                                                                                                           ",
"                                                                                                                                                                                                                                                    6.:.:.;.;.;.;.;.=.*.+.+.O.O.! C w v > O + = % q y 0 q y y q 8 9 , , , , 8 , , , , , , , 8 8 8 8 8 8 8 8 8 8 8 9 9 9 q u c u r t t e 5 < 5 t e i g g i i i                                                                                                       ",
"                                                                                                                                                                                                                                                :.:.;.;.;.;.;.*.*.=.*.+.+.+.O.O.! ! N i < O X o O y w 9 0 y q 9 8 8 , , , , 8 , 8 8 8 , , , 8 8 8 8 8 8 8 9 8 8 8 9 0 0 q x c u r r t e < < < t t w t g g g i j                                                                                                     ",
"                                                                                                                                                                                                                                                ;.;.;.-.-.*.*.*.*.+.+.+.+.O.O.! ! W W j w O O & , q q , 8 0 0 8 8 , , , , 8 8 8 8 8 8 8 8 8 8 8 0 9 9 0 9 q 8 8 9 0 0 0 q q u y r t t w < : 2 e e w e j j g g j j                                                                                                   ",
"                                                                                                                                                                                                                                                =.*.*.*.*.=.=.=.=.+.+.+.O.O.! ! W W N g < = ; = , 9 q 8 8 8 8 8 8 , , , , 8 8 8 8 8 8 0 8 8 8 0 9 9 0 0 0 0 0 0 0 0 0 0 q q q 0 w t r w 5 - < 5 6 5 4 w i i t i j d                                                                                                 ",
"                                                                                                                                                                                                                                              +.+.+.*.=.;.=.=.=.+.+.+.O.O.! ! ! W W N m g t w , = , 9 , , , 8 , , , , , 8 8 8 8 8 8 8 9 9 8 8 8 9 8 8 8 0 0 0 0 q q 0 0 0 0 0 0 w t t t e 5 : 5 w 5 w 5 w t t r r i d                                                                                               ",
"                                                                                                                                                                                                                                              +.+.=.;.=.=.=.=.+.+.+.O.O.O.! ! Q W C N N N N M v , , > > > * * * * * * * * > , , > , , , 8 8 8 8 8 , , 8 8 8 8 8 9 9 8 8 8 8 8 8 t j i t t 5 < < 5 4 2 5 w t i i i j j z                                                                                             ",
"                                                                                                                                                                                                                                              +.=.;.=.=.=.+.+.+.+.O.O.O.! ! ! Q ! Q Q C N N M V 9 = O O % & & & & * * & & & & * * * > > > > > * * * * * * * * * > > * * * * > , t d i t t e 5 : < < 4 5 5 w i g j z j j z                                                                                           ",
"                                                                                                                                                                                                                                            O.+.;.+.+.+.+.+.+.+.+.O.O.O.! ! ! ! O.! Q W C N M j w = X . . X X + + O O O O O O % % % % % % % % O O O O O O + X X X X X X X X + : i g i i i t e 5 < < 5 4 < < w i g m M j g z                                                                                         ",
"                                                                                                                                                                                                                                            ! +.=.+.+.+.O.O.O.O.O.O.O.O.O.O.O.O.! ! Q N N M j j g t : + X . . . . . . . . . . X . X X X X X X . . . . . . . . . . . . . X + < t g g i i t t t 6 5 < 4 4 < < < w i j z i t t g                                                                                       ",
"                                                                                                                                                                                                                                            ! +.+.+.+.O.O.O.O.O.O.O.O.O.O.O.O.! ! Q N M m z j j g i r 5 ; O O + + X X X . . X X . . . . . . . . . . . . X X X X X + + O O 6 t i g t t t t t t e 6 5 4 w w 5 4 4 r i i i t r w n                                                                                     ",
"                                                                                                                                                                                                                                            ^ +.+.+.O.O.^ O.O.O.O.+.+.O.O.^ ! Q W N N m m j j j g g t r 5 4 < < < < : : : : : : : ; ; - = # 1 O O + + O O O O = = = ; < e d j j j j d t t t t 6 5 5 4 4 5 5 4 4 w r i t t t w r                                                                                     ",
"                                                                                                                                                                                                                                          N O.O.O.O.O.O.O.O.O.O.O.+.+.O.! ! ! ! W N m m m j j j g g i i t w 5 < < < : : < < < < < < < < < < < < < < < < < < < 5 w w r e e e t t t t t t t t t e 6 5 5 5 5 5 4 4 4 w t i t r r t i                                                                                   ",
"                                                                                                                                                                                                                      =.=.*.*.=.=.=.;.:.  N ! O.O.! ! o.O.O.O.O.O.O.O.! ! ! ! Q W E N N m m j j j j j j g g g i i t w 5 5 5 4 4 4 4 4 4 5 4 4 < < : : : : : : < 4 5 w w r r e e t t t t e 6 5 2 < < < 5 5 5 4 4 5 < 5 w r r r r i i                                                                                 ",
"                                                                                                                                                                                                                =.=.=.=.=.+.+.O.O.O.O.+.^ C ! O.O.! ! ! O.O.O.O.O.! ! ! ^ ! ! Q W W C N N N m m m M n j j j j n n n g t w 5 5 5 5 5 5 5 5 5 5 5 5 5 4 < : : : < < < 5 5 w r r e e e e e 5 : 2 < : < < < 5 5 4 5 4 < < 4 w r r r r r                                                                                 ",
"                                                                                                                                                                                                          =.=.+.+.+.+.+.+.+.+.O.^ ! ! ! N C Q ! ! ! ! ^ O.O.O.! ! ! ! ! O.! ! ! W ! W W C N N N N N N N M m m N N N m j t r w w w w w w 5 w 5 5 5 w w 5 5 4 < < < < 4 5 5 w r r t e e 6 < : : : < < 4 < 4 4 < < < < < < 4 w w w w w t                                                                               ",
"                                                                                                                                                                                                      +.+.+.+.+.+.O.O.O.^ ^ ! ! ! ! W W m N W ! ! ! ! ! ! O.! ! ! ! ! ! ! ! ! ! ! ! ! ! ! ! W W W W W W W W W W Q W W N m g t t t t t r r r r r r w w r w w w 5 5 5 5 5 5 5 w w r t e 6 2 2 5 5 4 < 5 5 4 4 < < : : < < < 5 w r w w 5 t                                                                             ",
"                                                                                                                                                                                                    +.+.+.+.+.+.O.O.O.! ! ! ! W W W N N m N W W Q ! ! ! ^ ! ! ! ! ! ! ! ! ! ! ! ! ! ! ! ! ! ! ! Q ! ! ! ! ! ! ! ! ! Q Q W N M j i t t t t e t t t t t t t t r r w w w w w w w w w r e 5 5 6 w t t w 4 5 5 5 4 < < : ; : : < 5 r w w 5 5 w                                                                           ",
"                                                                                                                                                                                                +.+.+.+.O.O.O.O.O.O.! ! ! W W W W N N m M N N C W ! ! ! ! ! ! ! ! ! ! ! ! ! ! ! ! ! ! ! ! ! ! ! ! ! ! O.O.^ ! ! ! ! ! ! ! ! ! Q m j i t t t t t t t t t t t t t t r r r w w w w w e e 5 2 w t i g j t w 5 4 < < < < : ; ; : < w w w 5 t t                                                                           ",
"                                                                                                                                                                                            +.+.+.O.+.+.O.O.O.! ! ! ! W W W N N N M m j j m N N W ! ! ! ! ! ! ! ! ! ! ! ! ! ! ! ! ! ! ! ! Q ! ! ! O.! O.O.O.! ! ! ! ! ! ! ! ! ! ! W N j i t t t t t i i i i i i i t t t r r e e t e 5 5 w i i j z k j t 6 5 5 < < < : : : ; : 4 5 r 5 e 5 5                                                                         ",
"                                                                                                                                                                                        +.+.+.O.O.O.O.O.O.O.O.! ! W W W E N N m m m j g j m N C W ! ! ! ! ! ! ! ! ! Q W ! ! ! ! ! O.! ! Q ! ! ! ! ! ! ! ! ! ! ! ! ! ! ! ! ! ! ! W W W W m j g i t t i i i i i i i i t t t t j d t 6 6 r t i g z j j d j i e 5 < < < < < : : ; : 5 w t j w ; :                                                                       ",
"                                                                                                                                                                                      +.+.O.O.O.O.O.O.O.^ ^ ! ! ! ! W W E N M m m n g i j M N C W ! ! ! ! Q Q ! ! ! W Q ! ! ! ! ! ! ! ! Q ! ! O.! ! ! ! ! ! W W ! ! ! Q ! ! ! ! ! ! ! Q W C M j g i i i g i i i i t t t t j j d t e t t i i g j t t j j j j t 5 < < < < : : : ; : 4 w d 5 = -                                                                       ",
"                                                                                                                                                                                  +.+.+.O.O.O.O.O.O.O.O.O.! ! ! W W W W E N m m j j i g j M N C ! ! ! ! W Q ! ! ! ! W ! ! ! ! ! ! ! ! Q ! ! ! O.! ! ! ! ! W Q Q Q ! Q ! Q Q Q ! ! ! ! ! Q W W W W N M n j g i i t t t t t j j d t t t i i j j j d t d d j j j t e w < < < < < : ; < 5 w e : ;                                                                       ",
"                                                                                                                                                                              +.+.O.+.O.O.O.O.+.+.+.O.O.^ ! ! Q W W W W C N m n j g t g j M N W ! ! W W W ! ! ! Q ! ! ! Q ! ! ! ! ! Q Q ! ! o.! ! ! ! ! W W ! ! ! ! ! ! ! ! ! ! ! ! ! Q Q W ! ! ! ! ! ! ! C m g i t i t t k j d t t t i j j j j d d d j d j j j j d e 5 4 < < < ; ; < 5 e < : :                                                                     ",
"                                                                                                                                                                          +.+.O.O.O.O.O.+.O.O.O.O.+.+.O.O.! ! ! W W C N N N m n j g t g g m N W ! Q W W ! ! ! ! ! ! ! W ! ! ! ! ! ! Q ! ! ! ! ! ! ! ! W Q ! ! o.! ! ! ! ! ! ! ! ! ! ! W Q Q ! ! ! ! ! ! ! ! W N m j i t d k a d t i i i j j j j j d j j j j j j j j d e 5 5 4 < : : < < 5 5 : :                                                                     ",
"                                                                                                                                                                        +.O.O.O.O.O.+.+.O.O.O.O.O.O.O.O.O.O.! ! W W N N N m m j g g t i g n N W W W W W Q ! ! ! Q ! W W ! ! ! ! ! ! ! ! ! ! ! ! ! ! W ! ! ! ! ! ! ! ! ! ! ! ! ! ! ! ! ! ! ! O.! ! ! Q Q Q Q W W E N j j d j a t i g j g j j j j j j j i j j j j i d d d e 5 5 5 < : < < < 5 < :                                                                     ",
"                                                                                                                                                                      O.O.O.O.O.O.O.O.O.O.O.O.O.O.O.O.O.O.O.O.! ! W W N N m m j j g t i g n N N W W W Q Q ! ! ! W W W ! ! ! ! ! ! ! ! ! ! ! ! ! ! Q ! ! ! Q Q W W Q Q ! ! ! ! ! ! Q Q Q ! ! ! ! ! Q Q Q W W W W C E N N Q N j j g j M j j j t d j j j d i d j j j t t j j d 6 2 5 : < < < < < : ;                                                                   ",
"                                                                                                                                                                    O.O.O.O.O.O.O.O.O.O.O.O.O.O.O.O.O.O.O.O.! ! ! W W N N m m j j g i t g m N N C Q ! ! ! ! Q W W W W Q ! ! ! ! ! ! ! ! ! Q ! ! W ! ! W W W W W W W Q ! ! ! ! ! ! ! ! ! ! ! ! ! W ! ! Q W W C W Q W E E / ! P N N W o.C j j d t i j j h d j j j j j d t i j j e 6 4 : : < < < 5 :                                                                   ",
"                                                                                                                                                                  O.O.O.O.O.O.O.O.O.! O.O.O.! O.O.O.O.! ! ! ! W W W W N N m m j j g i i g m N N N Q Q Q ! ! Q Q W W W Q ! ! ! ! W ! ! ! W W ! W W ! W W Q Q W W W W Q ! ! ! o.! ! ! ! ! ! ! ! ! ! ! ! o.! ! W Q Q ! W Q / ~ ! Q W ! +.+.N z d t t h j j t d j j j j d t i i j j t e < : : < < 5 2                                                                   ",
"                                                                                                                                                              O.O.O.O.O.O.O.O.O.O.O.O.^ ^ O.O.O.O.O.O.! ! ! ! W W C N N N m m j j g i i j m m N N Q Q Q ! ! ! W W W Q Q ! ! ! ! W ! ! ! W W W W W Q W W ! W W W W W Q ! ! ! O.O.O.O.O.O.O.O.O.O.O.O.! O.O.! ! ! ! ! ! ! ! / ~ ! Q W O.+.O.N z d t t d j j d j j j j d t t i d j j t 5 < : : < < 6 :                                                                 ",
"                                                                                                                                                            +.O.O.O.O.! O.O.O.O.O.O.O.^ ^ O.O.O.O.O.O.! ! ! ! W W W N N m m n j j g i i j m m N W Q Q W Q Q W W Q Q ! ! ! ! W ! ! Q W W W W W W ! W Q ! W W W W W Q ! ! ! ! O.O.O.O.O.O.O.+.O.O.O.O.O.! O.! ! ! ! / / / ! / +./ ! ! O.+.$.O.Q z j d t d j j d d d j j d t t i d d d t 5 : : < < 5 5                                                                 ",
"                                                                                                                                                            O.O.! ! ! ! O.O.^ ^ ^ O.O.O.O.O.O.O.O.O.O.! ! ! ! W W E N N M m n j g g i i j M m N C W W W ! W W Q ! ! ! ! W W W W ! W W W W W W W ! ! ! ! Q W W W Q ! ! ! ! ! O.O.! ! ! O.+.+.+.+.O.O.O.^ ! ! ! O.+.+.+.+./ / +.+.~ ! ! O.$.+.O.U z j j d j j d d d d d j d d j d d j d 6 < : < 5 2 5                                                                 ",
"                                                                                                                                                          O.O.! ! ! ! ! ! ! O.O.^ O.O.O.O.O.O.O.O.O.O.! ! ! ! W W N N N m m j j g g i i g j m N C C W ! Q Q Q Q ! ! ! Q W W W W ! W W W W W W W Q ! W W Q ! ! ! Q Q ! ! ! ! ! ! ! ! ! ! O.+.+.+.O.O.O.O.O.O.^ O.+.+.%.%.+.%.%.%.%./ ! ! +.=.+./ N z j d d d j j d d d d j j j j d j j e 5 < < 5 2 5 <                                                               ",
"                                                                                                                                                        O.! ! ! ! ! ! ! ! ! ! O.O.O.O.O.O.O.^ ! ! ! o.! ! ! Q W W N N N M m j g g i i t i j m N N W ! ! Q Q Q W ! ! Q W W W W W W W W W W W W W W W W W ! ! ! ! ! ! ! ! ! ! ! ! ! ! ! ! ! O.+.+.+.+.+.+.O.O.O.O.+.%.%.%.%.-.%.%.%.%./ ! O.+.+.O./ P M j d d j j d d d d j j j d t d j j w < < 2 5 5 <                                                               ",
"                                                                                                                                                      ! ! ! ! ! ! ^ ! ! ! ! O.O.O.O.^ O.! ! ! ! ! ! ! ! ! W W W W N N N N m m j g g i t t g m N N W ! ! Q W W W ! Q W W W W W W W W C N W W W W W W W W ! ! ! ! ! ! ! ! ! W ! ! ! Q W W Q ! O.+.+.+.+.+.+.+.+.+.-.-.-.%.-.-.-.-.-.%.%./ ! +.+.+.+.~ Q N j j i d d d d d t d d j d d d j t 5 < 5 5 5 2                                                               ",
"                                                                                                                                                    ! ! ! ! ! ! O.! ! ! ! ! ! ! O.! ! ! ! ! ! ! ! ! ! ! W W W W C N N N N m n j j g t t r i m N C ! ! ! W W W W Q W C C W W C W C W C N W W W W W W ! ! ! ! ! ! ! ! ! ! ! W W Q W W W Q W ! ! W ! ! ! ! ^ O.+.+.+.-.%.%.%.%.-.-.-.-.%.O.! O.+.+.O.+.~ Q N k j d t d d i t t d j j j d d i e 2 < 5 5 5 <                                                             ",
"                                                                                                                                                  ! ! ! ! O.! ! O.O.O.! ! ! ! ! ! ! ! ! ! ! ! ! ! ! ! W W W W W N N N N M m n n j g i t r t m N C ! ! ! W W Q Q W C C W W E N N C W N N C W W W W ! ! ! ! ! ! ! ! ! ! ! W W W W W W W ! ! o.! ! ! ! o.o.O.O.O.O.+.+.+.+.+.+.+.%.%.%.%.+.! O.+.+.+.O.+.! Q N z j d t d d d i d d j j d d d t 5 < 5 2 2 2                                                             ",
"                                                                                                                                                  ! ! ! O.O.! ! ! ! ! ! ! ! ! ! ! ! ! Q Q ! ! W ! W W W W W W E N N N m m m n j j g g i t w z N W W W W W W W W N C C W W N N N N N N C W W W W ! ! ! ! O.! ! ! ! ! ! ! W W W W W Q ! o.o.O.O.! ! O.O.O.O.+.+.+.+.+.+.+.$.+.$.$.+.+.+.+.O.O.O.+.+.O.+./ ! ! N k j d d d d d d d d j d t d t t 5 5 5 < 5                                                             ",
"                                                                                                                                                ! ! ! O.! ! ! ! ! ! ^ ! ! ! ! ! ! ! Q ! ! ! W W ! W W W ! W W W N N M m n j j j j g g i t w i M C C W C C N N N C W W C C N N N N N W W W W W ! ! ! ! ! ^ ! ! ! ! ! W Q Q Q Q ! ! O.O.O.O.O.^ ! ! ! ! ! o.O.O.+.+.+.+.+.$.=.=.=.=.$.+.+.+.+.O.O.O.o.! +./ ! ! N m j d d d d d d t d j t d d t t 5 5 < < 5                                                           ",
"                                                                                                                                                ! ! ! ! ! ! O.O.O.! ! ! ! ! ! ! ! Q ! ! ! ! W W Q W W W ! ! W W E N m m m j j g j g g i i w t m N N Q Q N N N N W W C W C N N N N C W W W W Q ! ! ! ! O.O.^ ! ! ! ! Q Q Q Q ! O.+.+.O.O.O.^ ! ! ! ! ! ! ! ! ! o.o.O.O.+.+.+.+.*.+.+.+.+.+.+.+.O.O.O.o.O.+./ / Q N M j d d d d d d t d d d d t d 5 2 5 < 5                                                           ",
"                                                                                                                                              ! ! ! ! ! O.O.O.O.O.! ! ! ! ! ! ! ! ! ! ! ! ! ! ! ! Q W W Q ! ! W N N m m m j g g g i i i t r r j M N W N N N W W W N C C N N N N N C W W Q ! ! ! ! ! ! ! ! ! ! ! ! Q Q Q ! o.+.+.O.o.! ! ! W W ! ! Q W Q W ! ! W W W W W ! ! ! o.O.O.O.O.o.o.! O.O.O.O.O.O.! ! / Q N N j d d d d t t t d d t t t t 5 < < 5 5                                                         ",
"                                                                                                                                              ! ! ! O.O.O.O.O.O.O.! ! ! ! ! ! ! ! ! ! ! ! ! ! ! ! ! ! W W Q ! W N N N m M m j g i i t t t t w i m N M N N C C W N N N N N N N N N W W ! ! ! ! ! ! ! ! ! ! ! ! ! Q Q ! o.O.+.O.O.! ! ! ! W W N W W W N N E E E E E W W W W W W W W W W W W W W ! o.! O.O.o.O.O./ / Q Q P k j d d t t t d e t t t t e < : < 5 2                                                       ",
"                                                                                                                                            ! ! ! O.O.O.O.O.! O.O.! ! ! ! ! ! ! ! W ! ! ! ! ! ! ! ! Q W Q Q ! W E N N m m z j g i t t t t t w i z M M N C N N N N N N N N N N C W W W W Q ! ! ! ^ O.! ! ! ! ! Q ! ! o.O.O.! ! W W W ! Q W N E W W W N N N N E E E E E E W E E E E E W W W Q ! ! ! W W Q ! ! O.O.O.! ! ! U N j d d t t 6 < 5 e t t t 6 < < 5 <                                                       ",
"                                                                                                                                            ! ! ! o.O.O.^ ! ! ! ! ! ! ! ! ! ! ! ! W W ! ! ! ! Q Q Q Q W W W Q W W N N m m z j g i t t t t t r t j M M N C C N C N N N N N N C C W W W W ! ! ! ! ! ! ! ! Q Q Q ! ! o.O.O.! W W W W W W W E N N N N N N N N N E E E E N N N E E N N N N N N Q Q ! Q Q W W W W ! O.O.! / ! ! Q N j d t d 6 < e e e t t t 5 : < < <                                                     ",
"                                                                                                                                          ^ ! ! ! ! ! ! ! ^ ! ! o.o.^ ! ! ! ! ! ! W W W W W W W W W W W W W W W W W N N m m j g g t t r t t t t j m M N C N C C N N N N N N C W W W W ! ! ! ! ! ! ! Q W Q ! ! ! o.! ! W W E E E E E N N N N N N N N E N N N N N N N N N N N N N N N Q Q Q Q Q Q Q ! ! Q W N W ! O.O.O.O.O.! ! N z t t 6 < e 2 < 6 t t e : < < :                                                     ",
"                                                                                                                                          ! ! o.o.! ! ! O.O.! ! O.O.O.! ! ! ! ! ! W W W W W W W W W W W W W W W W W C N m m j g g t t t t t t t j z M N N N N C N N N N N C W W W W W W ! ! ! ! ! ! Q W ! ! o.! ! W W W C N N N E N N N N N M M m N N E N N N N N N N N N N E W E Q Q Q ! ! ! ! ! ! ! ! Q N N W ! o.O.! O.O.! ! P M j t 5 < 2 < 6 t t e 5 < < : 5                                                   ",
"                                                                                                                                        O.O.O.O.o.o.O.O.O.! ! ! ! O.! ! ! Q W W W W W W Q Q W W W W W W W E E N N W C N N m j j g i t t t i t t g j M N N N N C N N N N W W W W C N W W W W W W N W W W ! ! ! W W W W C N N N N N N N E N m m M m m m M m M N N N N N N N N E N N N E Q Q ! ! ! ! Q Q Q Q N N N W W o.o.! O.! ! Q P M j 6 : e 5 2 e t e 5 5 < < 5                                                   ",
"                                                                                                                                        O.O.O.O.O.O.! ! o.o.O.O.^ ! ! ! ! ! ! Q W W W W Q Q Q W W W W W W E W C W W W N N m M j g g t t t i t t g j M M N N N N N N N N C C W E N N N N C N N N N W W W ! W W C C W W N N N N N N N E N m m m m m m m m m m m m M N N N N N N N N N N E E Q N N N N N N N N N N N E W ! ! ! ! ! Q E N M j 6 5 6 < 6 t t 6 5 < 2 5                                                   ",
"                                                                                                                                      ! ! O.O.O.! ! ! ! ! o.! ! ! ! ! ! ! ! ! ! W W W W W W W W W W W W W W W W W W W N N m m j g g t r r i i t t j z M N N M M N N N N C W N N N N N m m m N E W ! ! ! ! W C C C W E N N N N N N N M m m m m m m m m m m m m m m N N N N N N E N N N N N N M M M M M m N N N N M M N W W W ! ! ! Q N N M j 6 2 2 < t t e 5 < < 6 e                                                 ",
"                                                                                                                                      ! ! ! ! ! ! ! ! ! ! ! ! ! ! ! ! ! ! ! ! ! W W W W W W W W W W W W W W W W W W W N N m m j g g t t r i g i t g z m M M M M N N N C W W N N N N M m m M W W o.O.! ! ! W C N W W E N N N N N N N M m m m m m M M M n n n n m m m m m M N N N N N E N N N M M M M M m M m N N N M m N E W W W Q ! P N N m j t 5 : 6 t t 5 < < 5 6                                                 ",
"                                                                                                                                    ! ! ! ! ! ! ! ! ! ! ! Q ! ! ! ! ! ! ^ ! ! ! W W W W W W W W W W W W W W W W W W E N N M m j j g t t r r i i t g j M m m m M N N N N W C N N N N m m M N W ! ! ! ! ! ! W E E E W W E N N N N N N m m m m m m n n n n z n n m m m m m m m M N N N N N N N N M m m m m m m m M N N m m N N E W W C P P P N k j e < < t t w 5 < 5 6                                                 ",
"                                                                                                                                    ! ! ! ! ! ! ! ! ! ! ! ! ! ! ! ! ! ^ ! ! W W W W W W W W W W W W W W E E W C E E E N N N m j j g t t r r r t t g j M m m m M N N N N E C N N N N m m m Q ! ! Q Q ! ! Q E N N E W Q W N N N N N m n m m m m m m m m m m m m m m m m m m m m m M N N N N N N m m m m m m M m m m N m m m m N E W W N N N N N k d 5 : e t e < : 5 5                                                 ",
"                                                                                                                                  ! ! ! ! ! ! ! ! O.! ! ! ! ! ! ! ^ ! ! ! W W W W W W W C C C E W W W W N N C C W C E N N N m n j g i t t r w r t g j n M m m M N N N N C N W N N N m m N ! ! ! Q Q Q Q N N E N N W W C N N N N M m m m m m m m m m m M m m m m m m m m m M M M M M N N M M M m m m m m m m M z z m M m n n m N N W W N M M N N j e : 5 t t 2 < 5 5                                                 ",
"                                                                                                                                ! ! ! ! ! O.! ! ! ! ! ! ! ! ! ! ! ! ! ! W C N N C C N N N N N C C W W C N N N C W W E N N N m n j g i t t r w w t i j j n m m M N N N N C N E N N m m m W ! Q ! Q Q Q N N E Q W N N N N N M N N M M M m m m m m m m m m M m m m m m m m M M M N N M M M M M M m m m m M z z z z j m m M m m m N N N W W W m m M M t < < t t 6 5 < 2                                                 ",
"                                                                                                                                ! ! ! ! ! ! ! ! ! ! ! ! ! ! ! ! ! ! ! W N N N N N N N N N N N C E W W N W W E N W W N N N N M j j g i t r w 5 w t i g j n m M N N N N N N N N N N M m N Q Q Q Q Q Q N N N N C C N N N N M m N N N N N M m m m m m m m m M M M N M M M M M M M M M M M M M M M M M z M M M M m z j j m m M m m m N N N C W W m z z z 5 : e t e 5 < 2                                                 ",
"                                                                                                                              ! ! ! ! ! ! ! ! ! ! ! ! ! ! ! ! ! ! ! W N N N N N N N N N N N N N N N N N N C C E N N N N N M m j j i t r w 5 4 5 r t g g n m M N N C C N N N N N M m M N ! Q Q Q Q Q E N N N N N N N N N M M N N N N N M m m z M m m N N N M N N N N N N P N N N M M M M m k z M M M M M z M M m z j j m m m m m M M M N C W W N z z t < 5 t t 5 < <                                                 ",
"                                                                                                                              ! ! ! ! ! ! O.! ! ! ! ! ! ! ! ! ! ! W N m m m M N N N N M N N M M M N N N N N C N M N N N M m M j g i t r 5 4 < 5 r t i g j M M M N C C N N N N M M m m N W Q Q Q Q Q W N N N N M m N N N M M M M N N N N M m m m j j z m M m M N N N N N P P N N N N M k z z z z z z z M z z z z z j j j z z M M M M M M M N W W N z j 5 : t t 6 < <                                                 ",
"                                                                                                                            ! ! ! ! ! ! ^ ! ! ! ! ! ! ! ! Q ! Q W W M m m m m m m m m m M m m m m m m N N N N N N N N N m m z j g i r w 5 < < 4 w t i g j n M M N C N N N N N M m M N W W W W Q Q Q Q W N N m m m M N N N M M M m m M M M M z j j j j m M m z z M M M M N N M M M k z z z z z z z z z z M z z z z z j j j j z j j m M M M M N N C N j e : 6 t e < <                                                 ",
"                                                                                                                            ! ! ! ! ! ! ! ! ! ! ! ! ! ! ! ! ! ! W N N N N m n n M m m m m m n n n m m m m M m N N N N m m z j j i t r w 5 < : 4 w t i g g j m M N N N N N N N M M z N E W Q W C C P C N N m m m m m m m M N M m m j j j j j j j j g j j m M z z z k k M M M M l l z z z z z z j j z z z z z z z j z z j j z z j j z M N M M M m N C N j 5 < t t 5 <                                                 ",
"                                                                                                                          O.O.O.! O.O.O.O.O.^ ^ O.O.! ! ! ! ! ! ! ! ! Q W W N m j j j z m m n j j j n m m m m m N N M m z j g g i t w 5 < < : 4 w t t g g j n m N N N N N N M M k m C N C Q N C N N C N N M M m m m m m M M M M z z z z j j j j j g g g j j j z k M M l z z z j j j j j z z j j j j j j j j j j j j z z z z M z j z M M M M M m M M N N t < 5 t 6 < 5                                               ",
"                                                                                                                          O.O.O.O.O.O.O.O.O.O.O.O.O.O.! O.O.+.+.+.! Q Q W E N N m m j g g j n j j j j j M m m m m N m z j g i t t r 5 5 < : : < w r t i g j j m N N N N N M M M z N N P N N N Q N N N N N N N N N M M M M M M M M z m m z z j j g g j j j g g g j j z z z z z j j j g g j j g j j j d j j j j g j j j z z z k z z M m m M m M M z j m N M r < t e 5 6                                               ",
"                                                                                                                        O.O.O.O.O.O.O.O.O.^ ^ O.O.O.O.O.+.+.+.O.O.! Q C N E N N N N N M g i i g g j g j j n M m m M j j j g i r r w 5 < : : ; < 5 r t i g j j n N N N N N N M m z N Q Q N N E Q E C N N N N N N N N M N N M m M m M m M M m z z j j j j j j g g g g g j j j z z j j g g i i t i i i i t g g i i i i j j j z z z j m m m M m k m z z j z M m 5 e t 5 5                                               ",
"                                                                                                                        O.+.+.O.O.O.O.O.O.O.O.O.O.O.+.O.O.O./ ! Q W W Q ! ! ! Q Q Q N N m M j g g j z z z z z z z z z z j j t r w 5 < : : ; ; < 6 r t t g j j M M N N N M M M z M Q Q Q N N N P N P N N N N N N N N N N N N M M z z m M M M M z j j j j j j j j g i i i g g g j j z j j i i j j j g t t t t t t t i j j i j z k z z M z z M z z z z j j j m j 5 t 6 5                                               ",
"                                                                                                                      O.+.+.+.O.O.O.O.+.O.O.+.+.+.O.! ! ! ! ! W W E N Q Q Q ! ! Q Q N N M m m m m z z k M M M z z z z z j j t w 5 4 < : : ; ; < 5 w t t i j j M M N N N N M M M N Q Q Q N C N N N Q U N N M M M M M M M M M M M z z z k M M z z z z z j j j j d i i g g g g t t j j j j t t i j j j t t t t t t t t t g g i j z z M M z j z z j j z z j g j j r t e 6                                               ",
"                                                                                                                      O.+.+.O.O.+.+.+.+.+.+.-.+.O.! ! W Q Q W W E E N Q ! ! ! Q Q P N N N M m M m z M M N N M z j j k z j j t r 5 4 < : : ; ; < 5 w e t i j j z M M N N N M M N N N P N N C Q N N Q N N M M M M M m m z m k z M z j j z z z z z k k z j j j j j d i j j j j i t t h h j t t t t d t t t t t t t t t t t t t j j z z z j j j z z j j z z g g j j e e e                                               ",
"                                                                                                                      +.+.+.+.+.+.+.+.+.+.+.+./ ! ! W ! ! W W W N N N Q Q ! Q Q Q Q Q Q Q N N N N M M N M M M M M m k k k z j t r 5 < < : : ; < 5 6 r t i j j j M N N N N M z N N N N N N N Q N M N N N M M M M M M m k k z z z j j j j z j j z z j d t t t i g i i i i i i i t t t d d t t t t t t t t t t t t t t t t t t t j j j z j g j j z m j j z j g g j t t                                                 ",
"                                                                                                                    +.+.+.=.;.%.+.-.%.+.+.O.! ! ! Q Q ! Q E E N N N N N E E N W U N N Q Q Q W E N N N N M M m M N N N z j j z j t 6 5 5 < : : : 5 5 w e t i j j z M M N N z M N N N N N N N U N M M M M M M M z z m k z j j z z j j j j j j j j j i t t t t t t t t t t t t t t t t t t t t t t t e e e e e e w e e e e e t t t d j j j j t h j k M z j j j g i j e                                                 ",
"                                                                                                                    +.+.+.%.+.+.%.+.+./ / ! ! ! ! Q W W E E E N N N N N W W N N W Q Q Q Q Q Q Q Q Q Q N N N N N N N N M j g i j d e 6 6 5 < : : < 5 5 w r t i i g j z M z z m N N M N N N N P N N M M M k z z z z z z z j z z j j j j j j j j i t t t t t t t t e e e t t t t t t t t t t t e e t e e w w w w w w w w w w e e t t t j j j j j d j z z j g g j g g j                                                 ",
"                                                                                                                  +.+.+.O.O.+.+.+.+.! ! ! ! ! Q E E N E E W Q Q Q Q N N N N N N N C Q Q Q Q E Q Q Q Q N N N N N N N N M k j i i i j t w 5 5 < < < 5 5 5 w w r t t t g z j m N N N M N N N N N M M l M M k z z z z z z z z z z j j j d j j j j t t t t e e e e e e e e e e e e e e e t e e e e e e e e w w w w w w 6 6 6 5 w e e t t t t t j j j j j z z g t t j g j                                                 ",
"                                                                                                                  +.+./ / / / O.O./ ! ! ! ! Q N N N N N N Q Q Q Q Q Q Q Q N N N N C Q ! Q N N Q Q Q Q Q Q P N N N N N M M z j j j j j d e 6 5 5 < 4 5 5 w w w r t t t j j M N M M N N N N N N N k k l z z z z z z z j j j z j j j j j j j d t t t t e e e e e e e r e w e r w w w w w w w w 6 6 6 w w 6 6 6 6 6 6 5 6 5 5 5 6 w w e t t t t j j i d j j j t t t i g M                                               ",
"                                                                                                                +.+.^ ! / O.O.! ! W ! ! E N N N N N N N N N N P Q Q ! ! U P N N N C Q Q Q P N U Q Q ! ! ! ! Q N N N M m M M z j j z j j j d 6 5 5 4 5 5 5 w w w r t t j z m M m M N N N M M N N M z j j j j z z z z j j j j j j j j j j t t t t t t t t t e e e e w w w w w w w w 6 6 6 6 6 6 6 6 6 6 6 5 5 6 6 6 5 5 5 5 5 5 6 6 w e e e t t i t i i i g i t t t i g                                               ",
"                                                                                                                +.O.! ! ! ! ! W W W Q Q N N C C N N N N N N P Q ! ! Q Q N N N N N N U Q Q Q Q U P ! ! ! Q ! ! P m M M m m M M z z z z j d t e 6 5 < 4 4 5 5 5 w w r r i m m m m m N N N z l N N M z j j z j z z z j d d d j d d j d i t t t e e e e t t t e e w w w w w w w w w w w w 6 6 6 5 5 6 5 5 5 5 5 5 6 6 5 w w w 5 5 5 6 6 w e e e t t t t d t t t t t t t t j                                             ",
"                                                                                                                O.! ! Q Q Q Q W W Q Q Q P Q Q N N N N N Q Q Q Q Q Q N N N N N N Q N N N N C Q N N N N N N P Q N M M M m m z z z z z M z j j t e e 6 4 < < 4 5 5 5 5 w j m m m m M N M N z M N N k k z z z j j z z d t t t t t t i i t t t t e e e e t t r w w w w 5 5 5 5 5 4 4 5 5 5 5 5 5 5 5 5 5 5 5 5 5 5 w w w w w w w 5 5 5 w w e e e e e t t t i t t t t t r t i                                             ",
"                                                                                                              O.O.! ! Q ! ! Q Q Q Q Q P N N N N N Q N Q Q N N Q P N N N N N N N N N N M N N N N M N N N P P P N N M m M M m z z j z k k z j j t t t e 5 < < < < < < 5 j m m m M m M M M M z M M z z j j j j j j j t t t t t t t t t t t t t t r w w w w w w 5 5 5 5 5 4 4 4 4 4 4 4 4 4 4 5 5 5 5 5 5 5 5 5 5 5 5 w w w w w w w w 5 w 6 w e e e e e t t j i t t t r t t j                                           ",
"                                                                                                              O.^ / ! ! Q Q Q N Q Q Q N N N U N N Q N P Q Q Q Q Q P N N N N P Q Q P N N M M M M l M N Q Q P P N N N m m M m z z z z z z z z j j j t t w 5 < < : : : 5 z M m M m m m M z M z z k z z j j j j j d t t t t t t t t t t t r r r r w w w w 5 5 5 5 4 < < < < < < < : : : < < < < < < < 4 < < < < 4 5 5 w 5 5 5 5 5 w w w w w 5 6 6 6 w w e t t t i t t t r t t                                           ",
"                                                                                                            +.O.! / ! ! Q Q P N Q Q N N N U Q Q N N N P P Q Q Q Q Q N N N N N Q Q Q P N M M M M M M N P Q N N N N M M M M M z z z k M z z z z j j j t t 6 5 < : ; : w z M m m M m M M M M z z k z j j j j j t t t t t t t t t t t t r w w r r w w 5 5 5 5 4 < < : : : : : : ; - - ; : : < : : : : : : : : : < < < < < < 4 5 w w w w w w w 6 6 6 6 6 w e t t t t t t r r e g                                         ",
"                                                                                                            O.! ! ! ! ! ! ! Q Q ! Q N N N N M M M N P P P P P Q Q P N N N P Q P Q Q ! P N N N N N N P P N N N N M M M M M N M z j j z M M k z z j j t t t r 5 : ; : t z m m M M M m z M j z z z j j j j t t t t e e t t t t t t r r r r r r w w 5 5 < < < < < : : - - - - - - - - - : : : : : : : : : : : : : : : : : : < 4 4 4 w w w w w w w 5 5 5 6 6 e e e t t t r r r r                                         ",
"                                                                                                          O.! ! ! Q P P Q Q Q Q N M M M M M M N N P P P P P P P N N N N M N N N N N N N N N N N N P P P M M M M M M M m m M N M M z j z z k z j d t t t i t r < : < i z M M N M M M M M z z j j j j j t t e e e e e t r w w w r r r w w 5 5 < : : : : : : : : : - - - - - - - - - - - : : : : : : : : : : : : : : : : : : : < < < 4 5 w w w w w 5 5 6 6 6 e e e e e e r w 6 i                                       ",
"                                                                                                          Q ! Q Q Q Q P Q Q N M z z m M M M M N l l l N P N N N N N N M z z z z z z z M z z m M M N N M l M M M M M M M M M M M N m j j z z z j j j d i i t t e 5 5 i j j N Q M M j z M z z z j d j t e e e r r r r w w w r r r w 5 5 < < : : : - - : : : : : - - - - - - - - - - - - - - - - - - - - - : : : : : : : : : : : : : < < < 5 w r w w w 5 5 6 6 w 6 w w e r w w w j                                     ",
"                                                                                                        o.W Q Q Q P N N N M M m z z k M M M M M l k k l N N N N N N N M z z j z z z z z z z z k M M M z k M l l M M M M M M M M M l z j j z z j h d j j g i t t 6 r j j m N Q M z j j j z z j j d d e e e r r r w w w w w w w 5 < < : : : : : : : - - - - - - - - - - - - - = # # # # = = = = - - - - - - - - - - - : : : : : : : : : < < 5 w r r w 6 5 5 6 6 6 6 6 w r r w w i                                     ",
"                                                                                                        W Q Q Q N M N N M M M M z M M N k z k k k k k l M M M N N N l M M z z z z j j z j z z z k k z z z z z z k M M M M m z M M l z z z z z z h h j g i i i t t t d j M N N z j g g j z z j d j t e e r r r w w w w w 5 < < : : : : < : : : : : 6 t f t e 6 6 6 6 5 6 6 6 6 7 f f s s H H H H I H 2 # # # = - - - - : : : : - : : : : < < 4 5 w r w w 6 5 6 6 6 6 5 6 w w 5 r                                     ",
"                                                                                                      W Q Q P N M z z z M z z z M N M M z z z z k k k k M M k k k k k M M z j j z j j j j z z z k z j j z j z z z z M M M m j j z z z z j j z z j j j j g i t t t t d g z N M j g i d j z j j d t t e e r r w w w w 5 4 < : : : : : : < : - - < ) s.H.H.H.A.s.y.y.i.8.] ) ) ) ) ] ] ] ] [ [ [ [ [ ] ( f - # # # # = - - - - - : : : : : : < < < 5 w r w w 6 5 5 5 6 6 6 6 w 5 5 t                                   ",
"                                                                                                    W W N N M M z z j z M z z z M m m M z j j j z j j z z k k k k k j k k z j j j z z j z z z M M z z z z j j z z z z M m M j j j j z z z j j j j j j j j i t t e t t g j M j g i i j j j j d t t e e r w r w w w w < < : ; : : : : : : - - - Y F.G.G.G.G.F.F.H.A.y.i.0.] ) _ ] ] ] ] [ [ [ [ [ [ [ ' K s 3 # # # # # # # - - : : : : : : : : : < 5 w r w w 6 6 5 5 6 6 6 6 5 5 r i                                 ",
"                                                                                                    C N M z z j z z z M M M M z j j i i i i i i i i i j j z z z k k j j z j j j j j j z z z z z z j z z j j j j z z z j z M j z z j j j z z j j j j j j g t t t e t t j j j g i i j j j j d t t e e w w w w 5 w 4 < < : : : : < : - - - = - _ G.P.E.E.P.K.G.G.F.H.A.i.q.[ ] ] ] ] ] ] ] [ [ [ [ 8.[ ] Y F A 7 3 - # # @ @ # # - - - - - - - - - : < 5 5 w w w 6 6 5 5 6 6 6 6 5 w e                                 ",
"                                                                                                  N M z j z z z z n n n j g i i t r r r r r r r r r t t i j j j j j j j j j j z z z z j j j z j j j j j j j j j j j j j j j j j z z z j j j j j j j j g t t t t e t i g j j i g j j j d i t t e e r w w w 5 5 4 < : : : : : : : : - = = e q.G.P.E.W.W.E.E.E.P.K.G.A.y.i.q.8.[ ] ] ] ] [ [ 8.8.8.8.0.[ { G D A A 7 6 - @ O @ @ # # = - - - - - - - : < < < w r w 5 5 5 5 5 6 5 5 5 w t                               ",
"                                                                                                  N z z j j j g i i t r r w w w 5 4 4 4 4 4 5 4 4 5 w r r t t i j j j j d d d j j j j j d j j d d t j j i i j j j j j g g g j j j z z j j j j j j j j t t t t t e t t g j j i g g j t t t t e w w w w w w 5 < < : < < : : : : - = # # s p.F.K.E.W.Q.Q.Q.W.W.E.E.P.G.D.A.s.y.i.i.i.i.i.i.i.r.r.r.i.i.i.8.( K F A A A s 3 - # O O O # = - - - - - - - : : : : < w w 5 5 5 5 5 5 5 5 5 e                               ",
"                                                                                                  z j i i i i i t w w 5 4 4 < < < < < < < < < < < < 4 4 5 w w r i i i i j j j j d d d j j j j t t t j j j j j j j j j g g g g g g j j j j j j j t i t t t t t t e t t j j j g t t g t t t t e w 5 w w 5 4 < < < : : : : - ; - = # # e q.H.G.P.E.~.Q.).).Q.Q.W.W.E.P.K.G.F.H.A.A.s.u.u.u.u.u.u.u.u.u.y.i.[ ( G F A A A s 7 3 # @ O O # = - - - - - - - - - : : < 5 5 5 5 5 5 5 5 5 5 w t                             ",
"                                                                                                i t t r r w j &.q.~ k t 5 5 2 2 < < < < < < < : : : : < < < 4 5 w r r t i i i i i d d d t t t t t t j j j j d j j d d j j j g g i i t i i d j j t t t t t t t t r e i j j j i t t t t t t t w w w 5 5 < < < < < : : - - ; - = # = s 7.y.H.G.E.W.Q.).`.`.).).Q.Q.Q.W.W.E.P.K.G.F.D.S.A.A.A.A.A.A.A.Z.C.u.i.[ ( K F D A A A s 7 3 $ @ @ @ # - - - - = # - - ; : : < 4 5 5 5 5 5 5 5 5 6 e i                           ",
"                                                                                              r r r w w t w.`..X.X{.).U.y._ I a 5 < < < < < < < < < : < : < : < < < 0 w w r r t t i i t t t e t t t t t t t t h j i t d d j j g i i t t e t t i t t t r e t t t w e i j j z i t t t e t t t w w w 4 < < < < : : - - - - - # # - H ] 8.y.H.G.E.Q.).).'.'.'.`.).).Q.Q.Q.W.W.E.P.K.K.G.D.D.D.D.D.S.S.A.A.Z.u.e.[ { K G F D A A A A 7 6 - # @ # - - - - = = - ; - - ; : < 5 5 5 5 5 5 5 5 w t                           ",
"                                                                                            t r r w w k ).@X+X+XoX.X.X{.`.Q.E.F.y._ k 5 < < < < < < < < < : : : : : < < < 4 w w r t t e r e e e e t t t t t t t j j t t d j j i t t t t e r t t t t t r e r e e w e i j j j i t t t e t t w w w 4 < : : < : : : : - - - = # - H ) ] 8.i.A.G.W.).).`.{.{.{.'.`.`.).).(.Q.Q.W.E.E.P.K.K.G.G.G.G.D.D.S.S.A.C.u.e.[ { Y G F D A A A A A 7 6 - @ # = - - - - - - = = = = : < 5 5 5 5 5 5 5 6 e i                         ",
"                                                                                          i i r w d H.+X<X#X+X+X+XOXXX.X{.).).Q.~.W.E.F.q.` k 6 < : : < : < < : : : : : ; < < 4 5 w r w w w w e e t t e t e t t j d t t t t t t t t t t r r r e t t t r r r r r w e i j j j t t t e e e w w w 4 < : : : < : : : : - - # # 3 H ) ) ] 8.i.F.E.!.).`.[.{. X{.{.'.'.`.).).).(.Q.W.W.W.P.P.K.K.K.K.K.K.D.D.S.A.C.r.e.[ ' L G F F D A A A A A s 6 - # # - - - - = = - = # - : < 5 5 5 5 6 5 5 w t                         ",
"                                                                                        i i r t &.XX1X1X<X<X,X+X+X+XOX.X{.'.`.).).).!.~.E.E.U.G.s.I : - - : : < : < < : : : : : < 4 w w w w w w e e e e e e e t t t t t t t t t t t t r r r r r e e e e r r r r w t t j j j t e e w e w w w 5 < : : < : : : : : ; - # # 6 ` ) ) ] 7.q.H.E.Q.).`.{.{..X.X.X X{.{.{.'.'.`.).).).Q.Q.W.W.W.I.P.P.P.K.K.K.D.D.S.C.i.e.[ ] T G G F F F D A A A A s 7 2 # = - = # = - = # = ; : < < 4 5 5 5 5 5 w i                       ",
"                                                                                      u r w Q }.1X1X1X1X<X<X<X<X:X+X+XXX.X{.{.{.`.`.).!.!.~.E.T.F.y.) e - # = - : : < : : : : : : : < < 4 w w 5 w r w e e e e e e t e e t t t t e r r r r r w 6 w w w e r w w r w e t t t t t e w w w w w w 2 < < < : : : : - - = # # f ) ) ] ] 7.q.A.P.Q.).`.'.{. X.X.X.X.X.X X{.{.'.'.'.`.).).).(.Q.W.W.W.W.W.I.P.K.K.J.D.A.u.r.e.e.] ( K G G F F F F D A A A A 7 3 - - - - - - = = = ; : < 4 < 5 5 5 5 6 e                       ",
"                                                                                    i r t &.}.1X1X1X1X1X<X<X<X<X<X:X+XOXXX.X.X}.{.[.[.`.!.!.~.E.G.s.w.) H 2 # # # - : : : : : : : : ; : < 4 4 4 5 w w w e e e e e e e e e t t t e w w w r r 5 w w 6 6 w w w w w w e t t t t t e w w w w w 5 2 < 2 2 : : : : - # # # - I _ ] ] 7.q.p.G.W.).).'.{.{..X.XXXoX.X.X.X.X X{.{.{.'.'.`.).).(.(.Q.W.W.W.W.I.P.K.K.J.S.C.u.r.e.[ ] ( K G G G F F F D A A A A s 7 : - - - - - = # = ; < < < 5 5 5 5 5 w                       ",
"                                                                                  t i / T.<X1X1X1X1X1X1X<X<X<X<X<X:X:X+X+XOXXXXX.X}.{.{.[.`.!.~.E.G.s.0.7.` s : @ O # - - : : : : : - : : : < < 5 5 5 5 w w e e e e e e e e t t e w 6 5 w 5 5 5 5 5 5 5 6 w w w w e t t t t t e w w w w 5 2 2 2 2 2 < < : - $ # # = 6 ) ] 7.7.w.y.G.W.).`.'.{.{..X.XXXoXoXoXoX.X.X.X.X X X{.{.'.'.`.).).(.(.(.Q.W.W.I.P.K.K.D.S.C.u.r.e.e.[ ( K J G G G F F F F F A A A 7 - - = - - - # # = ; < < < 5 5 5 5 6                       ",
"                                                                              j g m d.+X3X3X3X3X1X1X1X1X<X<X<X<X<X<X:X:X+X+X+XOXXXXXXX}.{.[.`.!.!.E.T.H.y.7._ ` k : O 1 # - - - : - - - ; ; : : < < 4 4 5 5 w e e e e e e e w e e w w 5 5 5 5 5 5 5 5 5 6 6 6 w 6 e e e e e t e 5 w w 5 5 < 2 2 < : : : - = # # = : I _ 7.7.w.y.F.~.).`.`.'.{..X.XXXoXoXoXoXoXoXoXoX.X.X.X.X X{.{.'.'.).).(.(.(.Q.W.W.I.P.K.K.D.A.Z.u.r.i.e.[ { T K J J G G G F F F D D A 3 - = - - ; - = = = ; < < 5 5 5 5 6 6                     ",
"                                                                            j g ~ `.1X3X3X3X3X3X1X1X1X1X1X1X1X<X<X<X<X<X:X:X:X:X+X+XOXXX}.{.[.`.!.!.E.E.G.s.q.7.) Y e O O @ # - : - - - ; ; ; : : : < < 4 4 5 w e e e e 6 6 6 w 6 6 6 5 4 5 5 5 5 5 5 5 5 5 6 w 6 r r r e e e w 5 w w 5 2 2 < 2 : : - - = # # # = e ) ] 7.w.y.H.E.`.`.).).'..X.XXXoXOXOXOXoXOXoXoXoXoXoX.X.X.X X{.{.'.'.).).).(.(.W.W.I.I.P.K.J.D.S.Z.u.t.r.e.[ ] T K J J J G G F F F F F f : - - - - ; ; = # - : < 5 5 5 5 5 6                     ",
"                                                                          j z d.@X1X3X3X3X3X3X1X1X1X1X1X1X1X1X1X<X<X<X<X<X<X<X<X:X:X+XOXXX}.{.[.`.!.!.E.E.Y.H.y.7.) ` I 6 @ @ @ = - - - ; ; - ; ; ; ; : < 4 4 5 w e e w w 6 6 6 6 5 5 5 5 5 4 4 4 4 5 5 5 5 6 6 5 w r r e e e w w w 5 2 2 2 < : : : - = # # # = - I ) 7.w.y.s.E.).[.'.(.(.'..XXXOXOXOXoXoX+X+X+X+X+XoXoXoX.X.X.X X{.'.'.'.).).(.(./.W.W.I.I.K.K.J.D.S.Z.C.t.r.e.} ] ( K K J J J G G G F F F 7 - ; - = - ; - # = : < 5 5 5 5 5 6                     ",
"                                                                        M &.}.1X3X3X3X3X3X3X1X1X1X1X1X1X1X1X1X1X1X1X1X2X2X2X2X2X<X<X:X+XOXXX}.{.[.[.).!.!.E.T.G.s.q.7.) ` H 3 @ O # # - ; ; : ; - - ; ; ; < < < 5 5 w w e e 6 5 5 5 5 5 5 < < < 4 4 4 5 5 5 5 5 5 6 w w r e w 6 w w 5 2 < 2 < : : - - = # # # = e ) _ 7.p.H.T.!.{.{.`.(.).{.XXOXOX+X+X+X+X+X+X+X+X+X+XoXoXXX.X.X X{.{.'.'.'.).).(.(./.W.I.I.I.K.K.J.D.S.Z.C.u.r.r.} [ { T K K K G G G G G G D 2 ; - = - - - - : : < < 4 4 5 5 5                     ",
"                                                                      / !.,X3X3X3X3X3X1X1X1X1X1X1X1X1X1X1X1X1X1X1X1X1X2X2X2X2X2X2X<X<X:X+XOXXX|.}.{.[.).!.!.E.E.T.F.y.w._ ) ` I 3 @ O # = - ; ; - - ; ; ; ; : < < 4 5 w e e 6 5 5 2 < < < < < < < 4 < < < < 5 5 5 6 6 w e e 6 w 6 5 < 2 2 2 < : : - - - - # # - I ) 7.q.F.E.!.[.{.[.).).'..XOX+X+X+X+X+X+X+X+X+X+X+X+XoXoXoX.X.X.X X{.'.'.'._.).(.(.(.W.W.I.I.K.K.K.J.D.S.Z.C.u.t.r.e.[ ' ( L K K J J G G G G s - - - - - - : : ; ; < 4 4 5 5 6 w                   ",
"                                                                    p..X<X3X3X3X3X1X1X1X1X1X1X1X1X1X1X1X1X1X1X1X1X2X2X2X2X2X2X2X2X2X<X:X:X;XOXXXXX|.{.[.[.!.!.~.E.T.F.s.q.7.) ) ` s - @ # # = - - ; ; ; - - : : < < < 4 5 w 6 5 5 2 2 2 < < < < < : : < : : 4 5 5 5 5 w e e 6 w 5 < < 2 2 2 : : : - # - - = # 6 ) ] 7.y.E.`.[.{.{.[.'.'.{..X+X+X+X+X+X+X+X+X+X+X+X+X+XoXoXoX.X.X.X X{.{.'.'.'.).(.(./.W.W.I.L.L.K.K.J.J.S.S.Z.C.u.r.r.e.[ ' ( T K K K J J J G F 3 - - ; - - ; - # # : < < 5 5 6 w                   ",
"                                                                  XX+X<X3X3X3X3X3X1X1X1X1X1X1X1X1X1X1X1X1X1X1X1X<X2X2X2X2X2X2X2X2X2X2X<X:X:X;XOXXXXX|.{.[.[.).!.!.E.E.G.H.y.w.7.) ` I f - @ @ - - - : - - - ; ; ; : < < 5 5 5 5 2 < 2 < < < < < < : : : : : < < 2 5 5 6 e e w w 5 5 5 2 2 < : : - # # # - - - I ) 7.w.s.!.{.}.}.}.{.{. X.XoX+X+X+X+X+X+X+X+X+X+X+X+X+XoXoXoX.X.X.X X X{.'.'.'.).(.(./.W.W.I.I.L.K.K.J.J.D.S.S.Z.C.u.t.r.e.[ ' ( T K K K K K K G s - - - - - ; - = = ; : < 5 5 6 w                   ",
"                                                                +X,X3X3X3X3X3X3X3X1X1X1X1X1X1X1X1X1X1X1X1X1X<X<X2X2X2X2X2X2X2X2X2X2X2X2X<X<X:X;X;XOXXX|.}.{.[.[.!.!.~.E.T.F.s.y.7.) ) ` H 2 @ @ # = - : - - ; - - ; : < < < < 5 5 5 < < < < < < : : : : : : < < < 5 5 6 e w w 5 < 2 2 2 < < : - = # # = - - f ) _ 7.y.Y.[.}.|.XXXX.XXXXXOX+X+X@X@X+X+X+X+X+X+X+X+X+X+XoXoXoX.X.X.X X X X X'.'._.(.(././.W.I.I.L.K.K.K.J.J.S.S.S.Z.C.u.u.r.e.} [ { T Y Y K K K K F 7 - : : : : ; ; ; ; : < 5 5 5 w                   ",
"                                                            .X@X3X3X3X3X3X3X3X3X1X1X1X1X1X1X1X1X1X1X1X1X1X1X<X2X2X2X2X2X2X2X2X2X2X2X<X<X<X<X<X:X:X;XOXXXXX|.{.[.[.!.!.!.E.E.Y.H.y.w._ ) ) Y f O @ @ = : - - - - - : : : : < < 4 5 5 < < < < < : : : : - ; ; : < < 5 5 6 e w w 5 < 2 2 2 : : : - - - - - - : Y ) 7.w.p.E.}.XXXXXXOX+X+X+X+X+X@X,X@X@X+X+X+X+X+X+X+X+X+XoXoXoXoX.X X X X X X'.'._.(.(././.W.W.I.L.K.K.K.J.J.D.S.S.S.C.C.C.t.r.e.e.[ { T T Y K K K J A 3 : : : : : : : : - ; < 2 5 5                   ",
"                                                          +X<X3X3X3X3X3X3X3X3X1X1X1X1X1X1X1X1X1X1X1X1X1X1X1X2X2X2X2X2X2X2X2X2X2X2X2X<X<X<X<X<X<X<X:X:X;XOXXX|.}.[.[.!.!.!.~.E.T.F.p.w.7.) ) ` s # @ @ = - - - - - : : : : < < < < < < < < < : : : : : - - - : < 5 5 5 5 w w w 5 5 2 2 < : - - - - - - - - f ) _ 7.q.F.).|.OX+X+X+X+X+X+X+X+X,X,X@X,X+X+X+X+X+X+X+X+X+XoXoXOXoX.X.X.X].]. X].'.'._.(.(././.W.I.L.L.K.K.J.J.D.S.S.S.A.C.C.u.t.r.e.e.[ ' ( T T Y L K F s : : : : ; ; : : = = : < 5 5 6                 ",
"                                                      +X<X3X5X5X3X3X3X3X3X3X3X1X1X1X1X1X1X1X1X1X1X1X1X1X<X2X2X2X2X2X2X2X2X2X2X2X<X<X<X<X<X<X<X<X<X<X:X:X;X;XXX|.}.[.[.[.!.!.~.E.T.G.s.q.7._ ) ` I 3 @ @ # - - - - - : - - : : : : < : < < < : - ; ; ; - - - : < 2 2 5 5 w 5 5 5 5 5 3 2 < - - - - - - - : I ) 7.w.p.E.[.XX+X;X;X:X,X,X,X+X+X+X,X@X,X@X+X+X+X+X+X+X+X+XoXoXOXoX.X.X.X.X]. X].'.'._.(.(././.W.I.L.L.K.K.K.J.D.S.S.S.S.A.C.C.u.t.r.r.e.[ ' ( ( T T Y K D 6 : : : - - : : = # : < 5 5 5                 ",
"                                                  +X<X3X3X6X6X6X3X3X3X3X3X3X1X1X1X1X1X1X1X1X<X<X1X<X<X<X<X2X2X2X2X2X2X2X2X2X<X<X<X<X<X<X<X<X<X<X<X:X:X:X:X;XOXOXXX|.{.[.[.!.!.!.E.E.G.H.y.7.7.) ` ` k $ # # # - - - - - - : < : : < : < < : : : : ; - - - = : < < 2 5 5 w 5 2 < 2 2 2 2 < - - - - - - - a ) ] 7.w.F.`.}.OX;X;X:X<X<X<X,X+X+X+X,X,X,X,X+X+X+X+X+X+X+XoXoXoXOXoX.X.X.X.X]. X X'.'._.).(.(./.W.I.I.L.K.K.J.K.J.D.S.S.S.S.C.C.C.u.u.r.r.e.[ [ ' ( ( T T G A 2 : < : - : : - # - < < 5 5                 ",
"                                                @X1X3X3X6X6X3X3X3X3X3X3X3X1X1X1X1X1X1X1X1X<X<X<X<X<X<X<X<X<X2X2X2X2X2X2X2X<X<X<X<X<X<X<X<X<X<X<X<X:X:X:X:X;X;X;XOXXX|.}.[.[.!.!.!.E.E.Y.H.y.w.7.) ) ` H : # @ = - - - - = ; < : : : : : < < ; : : ; - - - = ; : < 2 5 5 w 5 2 2 < < < : - - - - - - - : I _ 7.7.y.E.{.XXOX;X:X:X<X<X<X,X+X+X+X,X,X,X@X@X+X+X+X+X+X+XoXoXoXoXoX.X.X.X X.X]. X'.'._.).(.(./.W.I.I.L.K.K.K.K.J.D.S.S.S.S.A.Z.C.C.u.t.r.r.e.9.[ ' { ( T K D 7 : < : : : : ; - : < < 5 5 5               ",
"                                            @X<X3X3X3X5X6X3X3X3X3X3X3X3X1X1X1X1X1X1X1X1X1X<X<X<X<X<X<X<X<X<X2X2X2X2X<X<X<X<X<X<X<X<X<X<X<X<X<X<X:X:X:X:X:X;X;X;X;X;XXX|.}.[.[.`.!.!.E.E.Y.H.p.w.7.) ) ` I f # @ = - - - = = ; ; ; - - : < < ; ; ; - - = = - ; : 2 2 5 w 5 5 5 5 2 2 < : - - - - - - - f ) ] 7.w.s.!.|.XX+X:X:X<X<X<X,X:X+X+X@X,X,X,X@X+X+X+X+X+X+XoXoXoXoXoXoX.X.X.X X X].].].'.'._.(.(././.W.L.L.K.K.K.K.J.D.S.S.S.S.A.A.C.C.C.u.r.r.r.e.9.[ ] ' { T G A 6 < < < : : : : : : < < 5 5               ",
"                                        @X<X3X3X7X5X7X5X3X3X3X3X3X1X1X1X1X1X1X1X1X1X1X1X<X<X<X<X<X2X<X<X<X<X<X2X2X2X<X<X<X<X<X<X<X<X<X<X<X<X<X:X:X:X:X;X;X:X:X;X;X;X;XXXXX|.{.[.`.!.!.~.E.Y.F.p.w.7.] ) ` ` H - O # - - - - - ; ; - : : ; ; ; ; ; - - = = = ; : < 5 5 5 4 < 5 5 2 2 < : - - - - - - : ` ) 7.w.q.G.{.XX+X;X:X<X<X<X<X,X,X+X@X,X,X,X+X@X+X+X+X+X+X+XoXoXoXoXoXoX.X.X.X.X.X X].].'.'._.(.(././.W.I.L.L.K.K.K.K.J.S.S.S.S.A.A.Z.C.C.u.t.r.r.i.e.e.[ [ ] ' Y F A 2 < < : : : : < : ; < 5 5 5             ",
"                                    @X<X3X7X7X7X7X7X6X3X3X3X3X1X1X1X1X1X1X1X1X1X1X1X1X1X1X<X<X<X<X<X2X2X2X<X<X<X<X<X<X<X<X<X<X<X<X<X<X:X:X:X:X:X:X:X;X;X;X:X:X:X;X;X;XOXXXXX}.{.[.[.!.!.~.E.T.G.p.q.7.] ) ) ` I 6 # @ = - - - ; ; ; ; ; # = = ; ; ; - = = = - : < 5 w w < < 2 2 2 < - - - - - - - - s ) _ 7.0.p.!.|.OX;X:X<X<X<X<X<X,X:X:X,X,X,X+X+X+X@X+X+XoX+X+XoXoXoXoXoXoXoX.X.X.X.X X X].'.'._.(.(.(././.W.L.L.K.K.K.K.J.D.S.S.S.S.A.Z.C.C.u.u.r.r.r.e.e.e.8.[ [ { G F f : : : ; ; : < - = : < < 5             ",
"                                  @X1X5X7X7X7X7X7X6X3X3X3X3X1X1X1X1X1X1X1X1X1X<X1X1X1X1X<X<X<X<X<X<X2X2X2X<X<X<X<X<X<X<X<X<X<X<X<X<X:X:X:X:X:X:X:X:X;X;X;X;X:X:X;X;X;X;XOXXXXX}.{.[.[.!.!.~.E.T.F.p.q.7.] ) ` ` Y f # @ = - - : ; - ; - 1 O & = - ; = = = = - : < 5 w 5 5 5 5 2 2 2 - = - - - - - - I ) 7.w.q.H.[.XX;X;X:X<X<X<X<X<X,X,X:X,X,X,X+X+X,X,X+X+XoXoX+XoXoXoXoXoXoXoX.X.X.X.X X X].'.'._.).(.(././.W.W.L.K.K.K.K.J.J.S.S.S.S.A.Z.C.C.C.u.u.r.r.e.e.e.e.8.[ ] Y F A 2 : : : : : : = # - < < 5 5           ",
"                              @X<X3X7X7X7X7X7X5X3X3X3X3X1X1X1X1X1X1X1X1X1X1X<X<X1X<X<X<X<X<X<X<X<X<X<X<X<X<X<X<X<X<X<X<X<X<X<X<X<X:X:X:X:X:X:X:X;X;X;X;X;X;X;X;X;X;X+XOXOXXXXXXX}.{.[.[.).!.!.E.E.F.p.q.7.] ) ` ` ` H - O = - : : - = - = O O 1 # = = = = = - : 2 5 5 5 5 5 5 5 2 2 : = - - - - - 2 ) _ 7.w.y.E.}.OX;X:X<X<X<X<X<X<X,X,X,X,X,X,X+X+X+X+X+X+X+X+X+XoXoXoXoXoXoXoXoX.X.X.X X X].'._._._.(.(.(././.W.L.L.K.K.K.J.J.D.S.S.S.A.C.C.C.C.u.u.r.r.r.i.e.e.e.e.8.' K F f ; ; : : : : - @ - : < w 5           ",
"                          @X<X3X7X7X7X7X7X5X3X3X3X3X3X1X1X1X1X1X1X1X1X1X1X1X<X<X<X<X<X<X<X<X<X<X<X<X<X<X<X<X<X<X<X<X<X<X<X<X<X<X<X:X:X:X:X:X:X:X;X;X;X;X;X;X;X;X+X+XOXXXOXXXXXXXXX|.{.[.[.).!.!.E.E.G.s.q.8.] ) ) ` ` Y s # = - - - = = ; = = # O O # = = = - : 5 5 5 5 5 5 5 2 2 < - - - - - - - s _ 7.w.q.H.).XX;X:X<X<X<X<X<X<X,X,X,X,X,X,X,X@X@X+X+X+X+X+X+XoXoXoXoXoXoXoXoXoX.X.X.X X X].'._._._.(.(.(././.W.W.I.L.K.K.K.J.J.S.S.S.Z.C.C.C.C.u.u.r.r.r.i.e.e.e.e.e.8.( G F 3 - : < < < - @ # ; < 4 5 5         ",
"                      +X#X1X6X7X7X7X7X6X3X3X3X3X3X3X1X1X1X1X1X1X1X1X1X1X1X1X1X<X1X<X<X<X<X<X<X<X<X<X<X<X<X<X<X<X<X<X<X<X<X:X:X:X:X:X:X:X:X:X:X+X;X;X;X;X;X;X;X+X+XOXOXOXXXXXXXXXXXXX|.{.[.[.).!.W.E.^.F.s.i.8.7.) ) ` ` ` H - = - - - = ; ; ; - @ + O O 1 - : < 5 6 6 5 2 2 < < : : - - - - - - - I _ 7.w.y.T.}.OX;X:X<X<X<X<X:X<X,X,X<X<X,X,X,X,X@X@X+X+X+X+X+XoXoXoXoXoXoXoXoXXX.X.X.X X X].'._._._.(.(.(.(././.W.W.L.K.K.K.J.J.D.S.S.Z.Z.C.C.u.u.u.r.r.r.r.e.e.e.e.e.e.[ K F A 2 : : < < ; # # ; < < 5 5         ",
"                    @X<X3X3X4X7X7X7X6X3X3X3X3X3X3X3X1X1X1X1X1X1X1X1X1X1X1X1X<X<X<X<X<X<X<X<X<X<X<X<X<X<X<X<X<X<X<X<X:X:X:X:X:X<X:X:X:X:X:X:X+X+X+X;X;X+X+X+X+X+XOXOXXXXXXXXXXXXXXXXXXX|.{.[.[.).!.W.E.G.F.A.y.q.7.] ) ) ` ` I 3 - - - ; ; ; ; : - O + O O - : 5 5 6 5 5 5 2 < < : : - - - - - - : ) 7.w.q.s.!.XX;X:X<X<X<X<X<X:X<X<X,X,X,X,X,X,X,X@X@X+X+X+X+X+XoXoXoXoXoXoXoXoXXX.X.X.X X X].'.'._._.(.(.(.(./././.W.L.L.K.K.J.J.D.S.S.S.Z.C.C.u.u.t.r.r.r.r.e.e.e.e.e.e.8.( J F f : : : : ; # # - : < 4 < 5       ",
"              oX@X<X3X3X3X3X3X3X3X3X3X3X3X3X3X3X1X1X1X1X1X1X1X1X1X1X1X1X1X<X<X<X<X<X<X<X<X<X<X<X<X<X<X<X<X<X<X<X<X<X<X<X:X:X:X:X:X:X:X;X;X;X+X+X+X+X+X+X+X+XOXOXOXXXXXXXXXXXXXXXXXXXXXXX|.{.{.`.!.Q.W.E.G.G.H.y.q.8.7.] ) ) ` Y k : : : : : ; ; : # + + O - < 5 5 5 5 5 5 5 2 2 < : - : : : - - f ) 7.w.y.G.[.OX:X:X<X<X<X<X<X:X<X<X<X,X,X,X,X,X@X@X+X+X+XoX+X+X+X+XoXoXoXoXoXoXoX.X.X.X X X X].'._._.).(.(.(.(././.W.W.L.L.K.K.J.J.D.S.S.Z.Z.C.C.u.t.r.r.r.r.r.e.e.e.9.e.e.[ Y G H 5 : : : ; # # = ; : < < <       ",
"            @X<X3X7X7X3X3X3X3X3X3X3X3X3X3X3X3X3X1X1X1X1X1X1X1X1X1X1X<X<X<X<X<X<X<X<X<X<X<X<X<X<X<X<X<X<X<X<X<X<X<X<X<X:X:X:X:X:X:X;X;X;X+X+X+X+X+X+X+X+X+XOXOXXXXXXXXXXXXXXXXXXXXXXXXXXXXX}.{.[.).).!.W.E.E.G.F.s.y.q.7.7.] ) ) ` f - : : : ; ; ; - @ + O : < w w 6 5 2 2 2 2 < < : - : : : - - I ) 7.q.p.!.XX;X:X<X<X:X<X<X:X:X<X<X,X,X,X,X,X,X@X@X+X+X+XoX+X+X+X+X+XoXoXoXoXoXoXoX.X.X.X X X X'._._._.).(.(.(././.W.W.W.L.K.K.J.J.D.D.S.S.Z.Z.C.u.t.r.r.r.r.t.e.e.e.9.9.9.8.( K G s 2 < : ; - # = - : < < < 5     ",
"        oX@X1X5X7X7X4X3X3X3X3X3X3X3X3X3X3X3X3X3X1X1X1X1X1X1X1X1X1X<X<X<X<X<X<X<X<X<X<X<X<X<X<X<X<X<X<X<X<X<X<X<X<X:X:X:X:X:X;X:X;X:X;X:X+X+X+X+X+X+XOXOXOXOXXXXXXXXXXXXXXXXXXX.X.X.XXX|.}.}.}.{.[.).).!.W.W.E.K.F.s.i.q.8.7.] ) ) I : - : : : ; ; ; = O @ : 5 w w 5 5 < < < < < - - - - - - - 2 ) _ w.y.F.[.OX:X<X<X<X:X:X<X:X:X<X<X,X,X,X,X,X,X@X@X+X+X+X+XoX+X+X+X+XoXoXoXoXoXoXXX.X.X.X X X X'.'._._._.(.(.(./././.W.W.W.L.K.K.J.J.D.S.S.S.Z.C.u.t.t.r.r.r.t.e.e.e.9.9.9.9.] Y K F 6 < : ; - = - - : : < < <     ",
"    oX@X1X3X7X7X7X7X4X3X3X3X3X3X3X3X3X3X3X3X3X1X1X1X1X1X1X1X1X<X<X<X<X<X<X<X<X<X<X<X<X<X<X<X<X<X<X<X<X<X<X<X<X:X:X:X:X:X:X;X;X+X+X+X:X;X+X+X+X+XOXOXOXOXXXXXXXXXXXXXXXXXXX.X.X.X.X.X}.}.}.}.}.{.{.[.`.`.).).!.Q.E.G.A.y.q.q.8.7.] ) s - ; : : : - = = # = 2 5 6 5 5 < < < < < : - # # - - - - H ) 7.q.s.!.OX:X<X<X<X<X:X<X<X:X:X<X,X,X,X,X,X,X,X@X@X+X+X+X+X+X+X+X+X+XoXoXoXoXoXoXXXXX.X.X.X X X X{._._._._.(.(.(.(././.W.W.L.L.K.J.J.J.D.S.S.S.Z.C.u.t.r.r.r.r.i.e.e.9.9.9.9.8.( T Y H 5 < : - - - - - : < < < 5   "
};
